P3
400 200
255
255 255 255
254 254 255
254 254 255
253 253 255
252 252 255
252 252 255
251 251 255
251 251 255
250 250 255
249 249 255
249 249 255
248 248 255
247 247 255
247 247 255
246 246 255
245 245 255
245 245 255
244 244 255
243 243 255
243 243 255
242 242 255
242 242 255
241 241 255
240 240 255
240 240 255
239 239 255
238 238 255
238 238 255
237 237 255
236 236 255
236 236 255
235 235 255
235 235 255
234 234 255
233 233 255
233 233 255
232 232 255
231 231 255
231 231 255
230 230 255
229 229 255
229 229 255
228 228 255
228 228 255
227 227 255
226 226 255
226 226 255
225 225 255
224 224 255
224 224 255
223 223 255
222 222 255
222 222 255
221 221 255
220 220 255
220 220 255
219 219 255
219 219 255
218 218 255
217 217 255
217 217 255
216 216 255
215 215 255
215 215 255
214 214 255
213 213 255
213 213 255
212 212 255
212 212 255
211 211 255
210 210 255
210 210 255
209 209 255
208 208 255
208 208 255
207 207 255
206 206 255
206 206 255
205 205 255
205 205 255
204 204 255
203 203 255
203 203 255
202 202 255
201 201 255
201 201 255
200 200 255
199 199 255
199 199 255
198 198 255
197 197 255
197 197 255
196 196 255
196 196 255
195 195 255
194 194 255
194 194 255
193 193 255
192 192 255
192 192 255
191 191 255
190 190 255
190 190 255
189 189 255
189 189 255
188 188 255
187 187 255
187 187 255
186 186 255
185 185 255
185 185 255
184 184 255
183 183 255
183 183 255
182 182 255
182 182 255
181 181 255
180 180 255
180 180 255
179 179 255
178 178 255
178 178 255
177 177 255
176 176 255
176 176 255
175 175 255
174 174 255
174 174 255
173 173 255
173 173 255
172 172 255
171 171 255
171 171 255
170 170 255
169 169 255
169 169 255
168 168 255
167 167 255
167 167 255
166 166 255
166 166 255
165 165 255
164 164 255
164 164 255
163 163 255
162 162 255
162 162 255
161 161 255
160 160 255
160 160 255
159 159 255
158 158 255
158 158 255
157 157 255
157 157 255
156 156 255
155 155 255
155 155 255
154 154 255
153 153 255
153 153 255
152 152 255
151 151 255
151 151 255
150 150 255
150 150 255
149 149 255
148 148 255
148 148 255
147 147 255
146 146 255
146 146 255
145 145 255
144 144 255
144 144 255
143 143 255
143 143 255
142 142 255
141 141 255
141 141 255
140 140 255
139 139 255
139 139 255
138 138 255
137 137 255
137 137 255
136 136 255
135 135 255
135 135 255
134 134 255
134 134 255
133 133 255
132 132 255
132 132 255
131 131 255
130 130 255
130 130 255
129 129 255
128 128 255
128 128 255
127 127 255
127 127 255
126 126 255
125 125 255
125 125 255
124 124 255
123 123 255
123 123 255
122 122 255
121 121 255
121 121 255
120 120 255
120 120 255
119 119 255
118 118 255
118 118 255
117 117 255
116 116 255
116 116 255
115 115 255
114 114 255
114 114 255
113 113 255
112 112 255
112 112 255
111 111 255
111 111 255
110 110 255
109 109 255
109 109 255
108 108 255
107 107 255
107 107 255
106 106 255
105 105 255
105 105 255
104 104 255
104 104 255
103 103 255
102 102 255
102 102 255
101 101 255
100 100 255
100 100 255
99 99 255
98 98 255
98 98 255
97 97 255
97 97 255
96 96 255
95 95 255
95 95 255
94 94 255
93 93 255
93 93 255
92 92 255
91 91 255
91 91 255
90 90 255
89 89 255
89 89 255
88 88 255
88 88 255
87 87 255
86 86 255
86 86 255
85 85 255
84 84 255
84 84 255
83 83 255
82 82 255
82 82 255
81 81 255
81 81 255
80 80 255
79 79 255
79 79 255
78 78 255
77 77 255
77 77 255
76 76 255
75 75 255
75 75 255
74 74 255
73 73 255
73 73 255
72 72 255
72 72 255
71 71 255
70 70 255
70 70 255
69 69 255
68 68 255
68 68 255
67 67 255
66 66 255
66 66 255
65 65 255
65 65 255
64 64 255
63 63 255
63 63 255
62 62 255
61 61 255
61 61 255
60 60 255
59 59 255
59 59 255
58 58 255
58 58 255
57 57 255
56 56 255
56 56 255
55 55 255
54 54 255
54 54 255
53 53 255
52 52 255
52 52 255
51 51 255
50 50 255
50 50 255
49 49 255
49 49 255
48 48 255
47 47 255
47 47 255
46 46 255
45 45 255
45 45 255
44 44 255
43 43 255
43 43 255
42 42 255
42 42 255
41 41 255
40 40 255
40 40 255
39 39 255
38 38 255
38 38 255
37 37 255
36 36 255
36 36 255
35 35 255
35 35 255
34 34 255
33 33 255
33 33 255
32 32 255
31 31 255
31 31 255
30 30 255
29 29 255
29 29 255
28 28 255
27 27 255
27 27 255
26 26 255
26 26 255
25 25 255
24 24 255
24 24 255
23 23 255
22 22 255
22 22 255
21 21 255
20 20 255
20 20 255
19 19 255
19 19 255
18 18 255
17 17 255
17 17 255
16 16 255
15 15 255
15 15 255
14 14 255
13 13 255
13 13 255
12 12 255
12 12 255
11 11 255
10 10 255
10 10 255
9 9 255
8 8 255
8 8 255
7 7 255
6 6 255
6 6 255
5 5 255
4 4 255
4 4 255
3 3 255
3 3 255
2 2 255
1 1 255
1 1 255
0 0 255
254 254 254
253 253 254
252 252 254
252 252 254
251 251 254
251 251 254
250 250 254
249 249 254
249 249 254
248 248 254
247 247 254
247 247 254
246 246 254
245 245 254
245 245 254
244 244 254
244 244 254
243 243 254
242 242 254
242 242 254
241 241 254
240 240 254
240 240 254
239 239 254
239 238 254
238 238 254
237 237 254
237 237 254
236 236 254
235 235 254
235 235 254
234 234 254
233 233 254
233 233 254
232 232 254
232 231 254
231 231 254
230 230 254
230 230 254
229 229 254
228 228 254
228 228 254
227 227 254
227 226 254
226 226 254
225 225 254
225 224 254
224 224 254
223 223 254
223 223 254
222 222 254
221 221 254
221 221 254
220 220 254
220 219 254
219 219 254
218 218 254
218 217 254
217 217 254
216 216 254
216 216 254
215 215 254
214 214 254
214 214 254
213 213 254
213 212 254
212 212 254
211 211 254
211 210 254
210 210 254
209 209 254
209 209 254
208 208 254
208 207 254
207 207 254
206 206 254
206 205 254
205 205 254
204 204 254
204 203 254
203 203 254
202 202 254
202 202 254
201 201 254
201 200 254
200 200 254
199 199 254
199 198 254
198 198 254
197 197 254
197 196 254
196 196 254
196 195 254
195 195 254
194 194 254
194 193 254
193 193 254
192 192 254
192 191 254
191 191 254
190 190 254
190 189 254
189 189 254
189 188 254
188 188 254
187 187 254
187 186 254
186 186 254
185 185 254
185 184 254
184 184 254
183 183 254
183 182 254
182 182 254
182 181 254
181 181 254
180 180 254
180 179 254
179 179 254
178 178 254
178 177 254
177 177 254
177 176 254
176 176 254
175 175 254
175 174 254
174 174 254
173 173 254
173 172 254
172 172 254
171 171 254
171 170 254
170 170 254
170 169 254
169 169 254
168 168 254
168 167 254
167 167 254
166 166 254
166 165 254
165 165 254
165 164 254
164 163 254
163 163 254
163 162 254
162 162 254
161 161 254
161 160 254
160 160 254
159 159 254
159 158 254
158 158 254
158 157 254
157 156 254
156 156 254
156 155 254
155 155 254
154 154 254
154 153 254
153 153 254
152 152 254
152 151 254
151 151 254
151 150 254
150 149 254
149 149 254
149 148 254
148 148 254
147 147 254
147 146 254
146 146 254
146 145 254
145 144 254
144 144 254
144 143 254
143 142 254
142 142 254
142 141 254
141 141 254
140 140 254
140 139 254
139 139 254
139 138 254
138 137 254
137 137 254
137 136 254
136 135 254
135 135 254
135 134 254
134 134 254
134 133 254
133 132 254
132 132 254
132 131 254
131 130 254
130 130 254
130 129 254
129 128 254
128 128 254
128 127 254
127 127 254
127 126 254
126 125 254
125 125 254
125 124 254
124 123 254
123 123 254
123 122 254
122 121 254
121 121 254
121 120 254
120 120 254
120 119 254
119 118 254
118 118 254
118 117 254
117 116 254
116 116 254
116 115 254
115 114 254
115 114 254
114 113 254
113 113 254
113 112 254
112 111 254
111 111 254
111 110 254
110 109 254
109 109 254
109 108 254
108 107 254
108 107 254
107 106 254
106 106 254
106 105 254
105 104 254
104 104 254
104 103 254
103 102 254
103 102 254
102 101 254
101 100 254
101 100 254
100 99 254
99 99 254
99 98 254
98 97 254
97 97 254
97 96 254
96 95 254
96 95 254
95 94 254
94 93 254
94 93 254
93 92 254
92 92 254
92 91 254
91 90 254
90 90 254
90 89 254
89 88 254
89 88 254
88 87 254
87 86 254
87 86 254
86 85 254
85 85 254
85 84 254
84 83 254
84 83 254
83 82 254
82 81 254
82 81 254
81 80 254
80 79 254
80 79 254
79 78 254
78 78 254
78 77 254
77 76 254
77 76 254
76 75 254
75 74 254
75 74 254
74 73 254
73 72 254
73 72 254
72 71 254
72 71 254
71 70 254
70 69 254
70 69 254
69 68 254
68 67 254
68 67 254
67 66 254
66 65 254
66 65 254
65 64 254
65 64 254
64 63 254
63 62 254
63 62 254
62 61 254
61 60 254
61 60 254
60 59 254
59 59 254
59 58 254
58 57 254
58 57 254
57 56 254
56 55 254
56 55 254
55 54 254
54 53 254
54 53 254
53 52 254
53 52 254
52 51 254
51 50 254
51 50 254
50 49 254
49 48 254
49 48 254
48 47 254
47 46 254
47 46 254
46 45 254
46 45 254
45 44 254
44 43 254
44 43 254
43 42 254
42 41 254
42 41 254
41 40 254
41 39 254
40 39 254
39 38 254
39 38 254
38 37 254
37 36 254
37 36 254
36 35 254
35 34 254
35 34 254
34 33 254
34 32 254
33 32 254
32 31 254
32 31 254
31 30 254
30 29 254
30 29 254
29 28 254
28 27 254
28 27 254
27 26 254
27 25 254
26 25 254
25 24 254
25 24 254
24 23 254
23 22 254
23 22 254
22 21 254
22 20 254
21 20 254
20 19 254
20 18 254
19 18 254
18 17 254
18 17 254
17 16 254
16 15 254
16 15 254
15 14 254
15 13 254
14 13 254
13 12 254
13 11 254
12 11 254
11 10 254
11 10 254
10 9 254
10 8 254
9 8 254
8 7 254
8 6 254
7 6 254
6 5 254
6 4 254
5 4 254
4 3 254
4 3 254
3 2 254
3 1 254
2 1 254
1 0 254
252 252 252
252 252 252
251 251 252
251 251 252
250 250 252
249 249 252
249 249 252
248 248 252
247 247 252
247 247 252
246 246 252
246 245 252
245 245 252
244 244 252
244 244 252
243 243 252
242 242 252
242 242 252
241 241 252
241 240 252
240 240 252
239 239 252
239 239 252
238 238 252
237 237 252
237 237 252
236 236 252
236 235 252
235 235 252
234 234 252
234 233 252
233 233 252
232 232 252
232 232 252
231 231 252
231 230 252
230 230 252
229 229 252
229 228 252
228 228 252
227 227 252
227 226 252
226 226 252
226 225 252
225 225 252
224 224 252
224 223 252
223 223 252
222 222 252
222 221 252
221 221 252
220 220 252
220 220 252
219 219 252
219 218 252
218 218 252
217 217 252
217 216 252
216 216 252
215 215 252
215 214 252
214 214 252
214 213 252
213 213 252
212 212 252
212 211 252
211 211 252
210 210 252
210 209 252
209 209 252
209 208 252
208 208 252
207 207 252
207 206 252
206 206 252
205 205 252
205 204 252
204 204 252
204 203 252
203 202 252
202 202 252
202 201 252
201 201 252
200 200 252
200 199 252
199 199 252
199 198 252
198 197 252
197 197 252
197 196 252
196 195 252
195 195 252
195 194 252
194 194 252
194 193 252
193 192 252
192 192 252
192 191 252
191 190 252
190 190 252
190 189 252
189 189 252
189 188 252
188 187 252
187 187 252
187 186 252
186 185 252
185 185 252
185 184 252
184 183 252
184 183 252
183 182 252
182 182 252
182 181 252
181 180 252
180 180 252
180 179 252
179 178 252
179 178 252
178 177 252
177 177 252
177 176 252
176 175 252
175 175 252
175 174 252
174 173 252
174 173 252
173 172 252
172 171 252
172 171 252
171 170 252
170 170 252
170 169 252
169 168 252
169 168 252
168 167 252
167 166 252
167 166 252
166 165 252
165 164 252
165 164 252
164 163 252
164 163 252
163 162 252
162 161 252
162 161 252
161 160 252
160 159 252
160 159 252
159 158 252
158 158 252
158 157 252
157 156 252
157 156 252
156 155 252
155 154 252
155 154 252
154 153 252
153 152 252
153 152 252
152 151 252
152 151 252
151 150 252
150 149 252
150 149 252
149 148 252
148 147 252
148 147 252
147 146 252
147 146 252
146 145 252
145 144 252
145 144 252
144 143 252
143 142 252
143 142 252
142 141 252
142 140 252
141 140 252
140 139 252
140 139 252
139 138 252
138 137 252
138 137 252
137 136 252
137 135 252
136 135 252
135 134 252
135 133 252
134 133 252
133 132 252
133 132 252
132 131 252
132 130 252
131 130 252
130 129 252
130 128 252
129 128 252
128 127 252
128 127 252
127 126 252
127 125 252
126 125 252
125 124 252
125 123 252
124 123 252
123 122 252
123 121 252
122 121 252
122 120 252
121 120 252
120 119 252
120 118 252
119 118 252
118 117 252
118 116 252
117 116 252
117 115 252
116 115 252
115 114 252
115 113 252
114 113 252
113 112 252
113 111 252
112 111 252
112 110 252
111 109 252
110 109 252
110 108 252
109 108 252
108 107 252
108 106 252
107 106 252
107 105 252
106 104 252
105 104 252
105 103 252
104 102 252
103 102 252
103 101 252
102 101 252
102 100 252
101 99 252
100 99 252
100 98 252
99 97 252
98 97 252
98 96 252
97 96 252
97 95 252
96 94 252
95 94 252
95 93 252
94 92 252
93 92 252
93 91 252
92 90 252
91 90 252
91 89 252
90 89 252
90 88 252
89 87 252
88 87 252
88 86 252
87 85 252
86 85 252
86 84 252
85 84 252
85 83 252
84 82 252
83 82 252
83 81 252
82 80 252
81 80 252
81 79 252
80 78 252
80 78 252
79 77 252
78 77 252
78 76 252
77 75 252
76 75 252
76 74 252
75 73 252
75 73 252
74 72 252
73 71 252
73 71 252
72 70 252
71 70 252
71 69 252
70 68 252
70 68 252
69 67 252
68 66 252
68 66 252
67 65 252
66 65 252
66 64 252
65 63 252
65 63 252
64 62 252
63 61 252
63 61 252
62 60 252
61 59 252
61 59 252
60 58 252
60 58 252
59 57 252
58 56 252
58 56 252
57 55 252
56 54 252
56 54 252
55 53 252
55 53 252
54 52 252
53 51 252
53 51 252
52 50 252
51 49 252
51 49 252
50 48 252
50 47 252
49 47 252
48 46 252
48 46 252
47 45 252
46 44 252
46 44 252
45 43 252
45 42 252
44 42 252
43 41 252
43 40 252
42 40 252
41 39 252
41 39 252
40 38 252
40 37 252
39 37 252
38 36 252
38 35 252
37 35 252
36 34 252
36 34 252
35 33 252
35 32 252
34 32 252
33 31 252
33 30 252
32 30 252
31 29 252
31 28 252
30 28 252
29 27 252
29 27 252
28 26 252
28 25 252
27 25 252
26 24 252
26 23 252
25 23 252
24 22 252
24 22 252
23 21 252
23 20 252
22 20 252
21 19 252
21 18 252
20 18 252
19 17 252
19 16 252
18 16 252
18 15 252
17 15 252
16 14 252
16 13 252
15 13 252
14 12 252
14 11 252
13 11 252
13 10 252
12 9 252
11 9 252
11 8 252
10 8 252
9 7 252
9 6 252
8 6 252
8 5 252
7 4 252
6 4 252
6 3 252
5 3 252
4 2 252
4 1 252
3 1 252
3 0 252
251 251 251
251 251 251
250 250 251
249 249 251
249 249 251
248 248 251
247 247 251
247 247 251
246 246 251
246 245 251
245 245 251
244 244 251
244 244 251
243 243 251
242 242 251
242 242 251
241 241 251
241 240 251
240 240 251
239 239 251
239 239 251
238 238 251
238 237 251
237 237 251
236 236 251
236 235 251
235 235 251
234 234 251
234 234 251
233 233 251
233 232 251
232 232 251
231 231 251
231 230 251
230 230 251
229 229 251
229 228 251
228 228 251
228 227 251
227 227 251
226 226 251
226 225 251
225 225 251
225 224 251
224 223 251
223 223 251
223 222 251
222 222 251
221 221 251
221 220 251
220 220 251
220 219 251
219 218 251
218 218 251
218 217 251
217 217 251
216 216 251
216 215 251
215 215 251
215 214 251
214 213 251
213 213 251
213 212 251
212 211 251
211 211 251
211 210 251
210 210 251
210 209 251
209 208 251
208 208 251
208 207 251
207 206 251
207 206 251
206 205 251
205 205 251
205 204 251
204 203 251
203 203 251
203 202 251
202 201 251
202 201 251
201 200 251
200 200 251
200 199 251
199 198 251
198 198 251
198 197 251
197 196 251
197 196 251
196 195 251
195 195 251
195 194 251
194 193 251
194 193 251
193 192 251
192 191 251
192 191 251
191 190 251
190 189 251
190 189 251
189 188 251
189 188 251
188 187 251
187 186 251
187 186 251
186 185 251
185 184 251
185 184 251
184 183 251
184 183 251
183 182 251
182 181 251
182 181 251
181 180 251
180 179 251
180 179 251
179 178 251
179 178 251
178 177 251
177 176 251
177 176 251
176 175 251
176 174 251
175 174 251
174 173 251
174 172 251
173 172 251
172 171 251
172 171 251
171 170 251
171 169 251
170 169 251
169 168 251
169 167 251
168 167 251
167 166 251
167 166 251
166 165 251
166 164 251
165 164 251
164 163 251
164 162 251
163 162 251
163 161 251
162 161 251
161 160 251
161 159 251
160 159 251
159 158 251
159 157 251
158 157 251
158 156 251
157 155 251
156 155 251
156 154 251
155 154 251
154 153 251
154 152 251
153 152 251
153 151 251
152 150 251
151 150 251
151 149 251
150 149 251
150 148 251
149 147 251
148 147 251
148 146 251
147 145 251
146 145 251
146 144 251
145 144 251
145 143 251
144 142 251
143 142 251
143 141 251
142 140 251
141 140 251
141 139 251
140 138 251
140 138 251
139 137 251
138 137 251
138 136 251
137 135 251
136 135 251
136 134 251
135 133 251
135 133 251
134 132 251
133 132 251
133 131 251
132 130 251
132 130 251
131 129 251
130 128 251
130 128 251
129 127 251
128 127 251
128 126 251
127 125 251
127 125 251
126 124 251
125 123 251
125 123 251
124 122 251
123 121 251
123 121 251
122 120 251
122 120 251
121 119 251
120 118 251
120 118 251
119 117 251
119 116 251
118 116 251
117 115 251
117 115 251
116 114 251
115 113 251
115 113 251
114 112 251
114 111 251
113 111 251
112 110 251
112 110 251
111 109 251
110 108 251
110 108 251
109 107 251
109 106 251
108 106 251
107 105 251
107 104 251
106 104 251
105 103 251
105 103 251
104 102 251
104 101 251
103 101 251
102 100 251
102 99 251
101 99 251
101 98 251
100 98 251
99 97 251
99 96 251
98 96 251
97 95 251
97 94 251
96 94 251
96 93 251
95 93 251
94 92 251
94 91 251
93 91 251
92 90 251
92 89 251
91 89 251
91 88 251
90 87 251
89 87 251
89 86 251
88 86 251
88 85 251
87 84 251
86 84 251
86 83 251
85 82 251
84 82 251
84 81 251
83 81 251
83 80 251
82 79 251
81 79 251
81 78 251
80 77 251
79 77 251
79 76 251
78 76 251
78 75 251
77 74 251
76 74 251
76 73 251
75 72 251
75 72 251
74 71 251
73 70 251
73 70 251
72 69 251
71 69 251
71 68 251
70 67 251
70 67 251
69 66 251
68 65 251
68 65 251
67 64 251
66 64 251
66 63 251
65 62 251
65 62 251
64 61 251
63 60 251
63 60 251
62 59 251
61 59 251
61 58 251
60 57 251
60 57 251
59 56 251
58 55 251
58 55 251
57 54 251
57 54 251
56 53 251
55 52 251
55 52 251
54 51 251
53 50 251
53 50 251
52 49 251
52 48 251
51 48 251
50 47 251
50 47 251
49 46 251
48 45 251
48 45 251
47 44 251
47 43 251
46 43 251
45 42 251
45 42 251
44 41 251
44 40 251
43 40 251
42 39 251
42 38 251
41 38 251
40 37 251
40 37 251
39 36 251
39 35 251
38 35 251
37 34 251
37 33 251
36 33 251
35 32 251
35 31 251
34 31 251
34 30 251
33 30 251
32 29 251
32 28 251
31 28 251
30 27 251
30 26 251
29 26 251
29 25 251
28 25 251
27 24 251
27 23 251
26 23 251
26 22 251
25 21 251
24 21 251
24 20 251
23 20 251
22 19 251
22 18 251
21 18 251
21 17 251
20 16 251
19 16 251
19 15 251
18 14 251
17 14 251
17 13 251
16 13 251
16 12 251
15 11 251
14 11 251
14 10 251
13 9 251
13 9 251
12 8 251
11 8 251
11 7 251
10 6 251
9 6 251
9 5 251
8 4 251
8 4 251
7 3 251
6 3 251
6 2 251
5 1 251
4 1 251
4 0 251
250 250 250
249 249 250
249 249 250
248 248 250
247 247 250
247 247 250
246 246 250
246 245 250
245 245 250
244 244 250
244 244 250
243 243 250
243 242 250
242 242 250
241 241 250
241 240 250
240 240 250
239 239 250
239 239 250
238 238 250
238 237 250
237 237 250
236 236 250
236 235 250
235 235 250
235 234 250
234 234 250
233 233 250
233 232 250
232 232 250
231 231 250
231 230 250
230 230 250
230 229 250
229 229 250
228 228 250
228 227 250
227 227 250
227 226 250
226 225 250
225 225 250
225 224 250
224 224 250
223 223 250
223 222 250
222 222 250
222 221 250
221 220 250
220 220 250
220 219 250
219 219 250
219 218 250
218 217 250
217 217 250
217 216 250
216 215 250
216 215 250
215 214 250
214 214 250
214 213 250
213 212 250
212 212 250
212 211 250
211 210 250
211 210 250
210 209 250
209 209 250
209 208 250
208 207 250
208 207 250
207 206 250
206 205 250
206 205 250
205 204 250
204 204 250
204 203 250
203 202 250
203 202 250
202 201 250
201 200 250
201 200 250
200 199 250
200 199 250
199 198 250
198 197 250
198 197 250
197 196 250
197 195 250
196 195 250
195 194 250
195 194 250
194 193 250
193 192 250
193 192 250
192 191 250
192 190 250
191 190 250
190 189 250
190 189 250
189 188 250
189 187 250
188 187 250
187 186 250
187 185 250
186 185 250
185 184 250
185 183 250
184 183 250
184 182 250
183 182 250
182 181 250
182 180 250
181 180 250
181 179 250
180 178 250
179 178 250
179 177 250
178 177 250
177 176 250
177 175 250
176 175 250
176 174 250
175 173 250
174 173 250
174 172 250
173 172 250
173 171 250
172 170 250
171 170 250
171 169 250
170 168 250
170 168 250
169 167 250
168 167 250
168 166 250
167 165 250
166 165 250
166 164 250
165 163 250
165 163 250
164 162 250
163 162 250
163 161 250
162 160 250
162 160 250
161 159 250
160 158 250
160 158 250
159 157 250
158 157 250
158 156 250
157 155 250
157 155 250
156 154 250
155 153 250
155 153 250
154 152 250
154 152 250
153 151 250
152 150 250
152 150 250
151 149 250
151 148 250
150 148 250
149 147 250
149 147 250
148 146 250
147 145 250
147 145 250
146 144 250
146 143 250
145 143 250
144 142 250
144 142 250
143 141 250
143 140 250
142 140 250
141 139 250
141 138 250
140 138 250
139 137 250
139 137 250
138 136 250
138 135 250
137 135 250
136 134 250
136 133 250
135 133 250
135 132 250
134 132 250
133 131 250
133 130 250
132 130 250
131 129 250
131 128 250
130 128 250
130 127 250
129 127 250
128 126 250
128 125 250
127 125 250
127 124 250
126 123 250
125 123 250
125 122 250
124 121 250
124 121 250
123 120 250
122 120 250
122 119 250
121 118 250
120 118 250
120 117 250
119 116 250
119 116 250
118 115 250
117 115 250
117 114 250
116 113 250
116 113 250
115 112 250
114 111 250
114 111 250
113 110 250
112 110 250
112 109 250
111 108 250
111 108 250
110 107 250
109 106 250
109 106 250
108 105 250
108 105 250
107 104 250
106 103 250
106 103 250
105 102 250
104 101 250
104 101 250
103 100 250
103 100 250
102 99 250
101 98 250
101 98 250
100 97 250
100 96 250
99 96 250
98 95 250
98 95 250
97 94 250
97 93 250
96 93 250
95 92 250
95 91 250
94 91 250
93 90 250
93 90 250
92 89 250
92 88 250
91 88 250
90 87 250
90 86 250
89 86 250
89 85 250
88 85 250
87 84 250
87 83 250
86 83 250
85 82 250
85 81 250
84 81 250
84 80 250
83 80 250
82 79 250
82 78 250
81 78 250
81 77 250
80 76 250
79 76 250
79 75 250
78 75 250
78 74 250
77 73 250
76 73 250
76 72 250
75 71 250
74 71 250
74 70 250
73 70 250
73 69 250
72 68 250
71 68 250
71 67 250
70 66 250
70 66 250
69 65 250
68 65 250
68 64 250
67 63 250
66 63 250
66 62 250
65 61 250
65 61 250
64 60 250
63 59 250
63 59 250
62 58 250
62 58 250
61 57 250
60 56 250
60 56 250
59 55 250
58 54 250
58 54 250
57 53 250
57 53 250
56 52 250
55 51 250
55 51 250
54 50 250
54 49 250
53 49 250
52 48 250
52 48 250
51 47 250
51 46 250
50 46 250
49 45 250
49 44 250
48 44 250
47 43 250
47 43 250
46 42 250
46 41 250
45 41 250
44 40 250
44 39 250
43 39 250
43 38 250
42 38 250
41 37 250
41 36 250
40 36 250
39 35 250
39 34 250
38 34 250
38 33 250
37 33 250
36 32 250
36 31 250
35 31 250
35 30 250
34 29 250
33 29 250
33 28 250
32 28 250
32 27 250
31 26 250
30 26 250
30 25 250
29 24 250
28 24 250
28 23 250
27 23 250
27 22 250
26 21 250
25 21 250
25 20 250
24 19 250
24 19 250
23 18 250
22 18 250
22 17 250
21 16 250
20 16 250
20 15 250
19 14 250
19 14 250
18 13 250
17 13 250
17 12 250
16 11 250
16 11 250
15 10 250
14 9 250
14 9 250
13 8 250
12 8 250
12 7 250
11 6 250
11 6 250
10 5 250
9 4 250
9 4 250
8 3 250
8 3 250
7 2 250
6 1 250
6 1 250
5 0 250
249 249 249
248 248 249
247 247 249
247 247 249
246 246 249
246 245 249
245 245 249
244 244 249
244 244 249
243 243 249
243 242 249
242 242 249
241 241 249
241 240 249
240 240 249
239 239 249
239 239 249
238 238 249
238 237 249
237 237 249
236 236 249
236 236 249
235 235 249
235 234 249
234 234 249
233 233 249
233 232 249
232 232 249
232 231 249
231 231 249
230 230 249
230 229 249
229 229 249
229 228 249
228 227 249
227 227 249
227 226 249
226 226 249
226 225 249
225 224 249
224 224 249
224 223 249
223 222 249
222 222 249
222 221 249
221 221 249
221 220 249
220 219 249
219 219 249
219 218 249
218 217 249
218 217 249
217 216 249
216 216 249
216 215 249
215 214 249
215 214 249
214 213 249
213 212 249
213 212 249
212 211 249
212 211 249
211 210 249
210 209 249
210 209 249
209 208 249
209 207 249
208 207 249
207 206 249
207 206 249
206 205 249
205 204 249
205 204 249
204 203 249
204 202 249
203 202 249
202 201 249
202 201 249
201 200 249
201 199 249
200 199 249
199 198 249
199 198 249
198 197 249
198 196 249
197 196 249
196 195 249
196 194 249
195 194 249
195 193 249
194 193 249
193 192 249
193 191 249
192 191 249
192 190 249
191 189 249
190 189 249
190 188 249
189 188 249
189 187 249
188 186 249
187 186 249
187 185 249
186 184 249
185 184 249
185 183 249
184 183 249
184 182 249
183 181 249
182 181 249
182 180 249
181 179 249
181 179 249
180 178 249
179 178 249
179 177 249
178 176 249
178 176 249
177 175 249
176 174 249
176 174 249
175 173 249
175 173 249
174 172 249
173 171 249
173 171 249
172 170 249
172 169 249
171 169 249
170 168 249
170 168 249
169 167 249
168 166 249
168 166 249
167 165 249
167 164 249
166 164 249
165 163 249
165 163 249
164 162 249
164 161 249
163 161 249
162 160 249
162 159 249
161 159 249
161 158 249
160 158 249
159 157 249
159 156 249
158 156 249
158 155 249
157 155 249
156 154 249
156 153 249
155 153 249
155 152 249
154 151 249
153 151 249
153 150 249
152 150 249
151 149 249
151 148 249
150 148 249
150 147 249
149 146 249
148 146 249
148 145 249
147 145 249
147 144 249
146 143 249
145 143 249
145 142 249
144 141 249
144 141 249
143 140 249
142 140 249
142 139 249
141 138 249
141 138 249
140 137 249
139 136 249
139 136 249
138 135 249
138 135 249
137 134 249
136 133 249
136 133 249
135 132 249
134 131 249
134 131 249
133 130 249
133 130 249
132 129 249
131 128 249
131 128 249
130 127 249
130 126 249
129 126 249
128 125 249
128 125 249
127 124 249
127 123 249
126 123 249
125 122 249
125 121 249
124 121 249
124 120 249
123 120 249
122 119 249
122 118 249
121 118 249
121 117 249
120 117 249
119 116 249
119 115 249
118 115 249
117 114 249
117 113 249
116 113 249
116 112 249
115 112 249
114 111 249
114 110 249
113 110 249
113 109 249
112 108 249
111 108 249
111 107 249
110 107 249
110 106 249
109 105 249
108 105 249
108 104 249
107 103 249
107 103 249
106 102 249
105 102 249
105 101 249
104 100 249
104 100 249
103 99 249
102 98 249
102 98 249
101 97 249
100 97 249
100 96 249
99 95 249
99 95 249
98 94 249
97 93 249
97 93 249
96 92 249
96 92 249
95 91 249
94 90 249
94 90 249
93 89 249
93 88 249
92 88 249
91 87 249
91 87 249
90 86 249
90 85 249
89 85 249
88 84 249
88 83 249
87 83 249
87 82 249
86 82 249
85 81 249
85 80 249
84 80 249
83 79 249
83 79 249
82 78 249
82 77 249
81 77 249
80 76 249
80 75 249
79 75 249
79 74 249
78 74 249
77 73 249
77 72 249
76 72 249
76 71 249
75 70 249
74 70 249
74 69 249
73 69 249
73 68 249
72 67 249
71 67 249
71 66 249
70 65 249
70 65 249
69 64 249
68 64 249
68 63 249
67 62 249
66 62 249
66 61 249
65 60 249
65 60 249
64 59 249
63 59 249
63 58 249
62 57 249
62 57 249
61 56 249
60 55 249
60 55 249
59 54 249
59 54 249
58 53 249
57 52 249
57 52 249
56 51 249
56 50 249
55 50 249
54 49 249
54 49 249
53 48 249
53 47 249
52 47 249
51 46 249
51 45 249
50 45 249
50 44 249
49 44 249
48 43 249
48 42 249
47 42 249
46 41 249
46 40 249
45 40 249
45 39 249
44 39 249
43 38 249
43 37 249
42 37 249
42 36 249
41 36 249
40 35 249
40 34 249
39 34 249
39 33 249
38 32 249
37 32 249
37 31 249
36 31 249
36 30 249
35 29 249
34 29 249
34 28 249
33 27 249
33 27 249
32 26 249
31 26 249
31 25 249
30 24 249
29 24 249
29 23 249
28 22 249
28 22 249
27 21 249
26 21 249
26 20 249
25 19 249
25 19 249
24 18 249
23 17 249
23 17 249
22 16 249
22 16 249
21 15 249
20 14 249
20 14 249
19 13 249
19 12 249
18 12 249
17 11 249
17 11 249
16 10 249
16 9 249
15 9 249
14 8 249
14 7 249
13 7 249
12 6 249
12 6 249
11 5 249
11 4 249
10 4 249
9 3 249
9 2 249
8 2 249
8 1 249
7 1 249
6 0 249
247 247 247
247 247 247
246 246 247
246 245 247
245 245 247
244 244 247
244 244 247
243 243 247
243 242 247
242 242 247
241 241 247
241 240 247
240 240 247
240 239 247
239 239 247
238 238 247
238 237 247
237 237 247
237 236 247
236 236 247
235 235 247
235 234 247
234 234 247
233 233 247
233 232 247
232 232 247
232 231 247
231 231 247
230 230 247
230 229 247
229 229 247
229 228 247
228 227 247
227 227 247
227 226 247
226 226 247
226 225 247
225 224 247
224 224 247
224 223 247
223 223 247
223 222 247
222 221 247
221 221 247
221 220 247
220 219 247
220 219 247
219 218 247
218 218 247
218 217 247
217 216 247
217 216 247
216 215 247
215 214 247
215 214 247
214 213 247
214 213 247
213 212 247
212 211 247
212 211 247
211 210 247
211 210 247
210 209 247
209 208 247
209 208 247
208 207 247
208 206 247
207 206 247
206 205 247
206 205 247
205 204 247
205 203 247
204 203 247
203 202 247
203 201 247
202 201 247
202 200 247
201 200 247
200 199 247
200 198 247
199 198 247
199 197 247
198 196 247
197 196 247
197 195 247
196 195 247
196 194 247
195 193 247
194 193 247
194 192 247
193 192 247
193 191 247
192 190 247
191 190 247
191 189 247
190 188 247
190 188 247
189 187 247
188 187 247
188 186 247
187 185 247
187 185 247
186 184 247
185 183 247
185 183 247
184 182 247
184 182 247
183 181 247
182 180 247
182 180 247
181 179 247
181 179 247
180 178 247
179 177 247
179 177 247
178 176 247
178 175 247
177 175 247
176 174 247
176 174 247
175 173 247
175 172 247
174 172 247
173 171 247
173 170 247
172 170 247
172 169 247
171 169 247
170 168 247
170 167 247
169 167 247
169 166 247
168 165 247
167 165 247
167 164 247
166 164 247
166 163 247
165 162 247
164 162 247
164 161 247
163 161 247
163 160 247
162 159 247
161 159 247
161 158 247
160 157 247
160 157 247
159 156 247
158 156 247
158 155 247
157 154 247
157 154 247
156 153 247
155 152 247
155 152 247
154 151 247
154 151 247
153 150 247
152 149 247
152 149 247
151 148 247
151 148 247
150 147 247
149 146 247
149 146 247
148 145 247
148 144 247
147 144 247
146 143 247
146 143 247
145 142 247
145 141 247
144 141 247
143 140 247
143 139 247
142 139 247
142 138 247
141 138 247
140 137 247
140 136 247
139 136 247
139 135 247
138 135 247
137 134 247
137 133 247
136 133 247
136 132 247
135 131 247
134 131 247
134 130 247
133 130 247
133 129 247
132 128 247
131 128 247
131 127 247
130 126 247
130 126 247
129 125 247
128 125 247
128 124 247
127 123 247
127 123 247
126 122 247
125 121 247
125 121 247
124 120 247
124 120 247
123 119 247
122 118 247
122 118 247
121 117 247
121 117 247
120 116 247
119 115 247
119 115 247
118 114 247
118 113 247
117 113 247
116 112 247
116 112 247
115 111 247
115 110 247
114 110 247
113 109 247
113 108 247
112 108 247
112 107 247
111 107 247
110 106 247
110 105 247
109 105 247
109 104 247
108 104 247
107 103 247
107 102 247
106 102 247
106 101 247
105 100 247
104 100 247
104 99 247
103 99 247
103 98 247
102 97 247
101 97 247
101 96 247
100 95 247
100 95 247
99 94 247
98 94 247
98 93 247
97 92 247
97 92 247
96 91 247
95 90 247
95 90 247
94 89 247
94 89 247
93 88 247
92 87 247
92 87 247
91 86 247
91 86 247
90 85 247
89 84 247
89 84 247
88 83 247
88 82 247
87 82 247
86 81 247
86 81 247
85 80 247
85 79 247
84 79 247
83 78 247
83 77 247
82 77 247
82 76 247
81 76 247
80 75 247
80 74 247
79 74 247
79 73 247
78 73 247
77 72 247
77 71 247
76 71 247
76 70 247
75 69 247
74 69 247
74 68 247
73 68 247
73 67 247
72 66 247
71 66 247
71 65 247
70 64 247
70 64 247
69 63 247
68 63 247
68 62 247
67 61 247
67 61 247
66 60 247
65 60 247
65 59 247
64 58 247
64 58 247
63 57 247
62 56 247
62 56 247
61 55 247
61 55 247
60 54 247
59 53 247
59 53 247
58 52 247
58 51 247
57 51 247
56 50 247
56 50 247
55 49 247
55 48 247
54 48 247
53 47 247
53 46 247
52 46 247
52 45 247
51 45 247
50 44 247
50 43 247
49 43 247
49 42 247
48 42 247
47 41 247
47 40 247
46 40 247
46 39 247
45 38 247
44 38 247
44 37 247
43 37 247
43 36 247
42 35 247
41 35 247
41 34 247
40 33 247
40 33 247
39 32 247
38 32 247
38 31 247
37 30 247
37 30 247
36 29 247
35 29 247
35 28 247
34 27 247
34 27 247
33 26 247
32 25 247
32 25 247
31 24 247
31 24 247
30 23 247
29 22 247
29 22 247
28 21 247
28 20 247
27 20 247
26 19 247
26 19 247
25 18 247
25 17 247
24 17 247
23 16 247
23 15 247
22 15 247
22 14 247
21 14 247
20 13 247
20 12 247
19 12 247
18 11 247
18 11 247
17 10 247
17 9 247
16 9 247
15 8 247
15 7 247
14 7 247
14 6 247
13 6 247
12 5 247
12 4 247
11 4 247
11 3 247
10 2 247
9 2 247
9 1 247
8 1 247
8 0 247
246 246 246
245 245 246
245 245 246
244 244 246
244 244 246
243 243 246
242 242 246
242 242 246
241 241 246
241 240 246
240 240 246
239 239 246
239 239 246
238 238 246
238 237 246
237 237 246
237 236 246
236 236 246
235 235 246
235 234 246
234 234 246
234 233 246
233 232 246
232 232 246
232 231 246
231 231 246
231 230 246
230 229 246
229 229 246
229 228 246
228 228 246
228 227 246
227 226 246
226 226 246
226 225 246
225 224 246
225 224 246
224 223 246
223 223 246
223 222 246
222 221 246
222 221 246
221 220 246
220 220 246
220 219 246
219 218 246
219 218 246
218 217 246
218 216 246
217 216 246
216 215 246
216 215 246
215 214 246
215 213 246
214 213 246
213 212 246
213 211 246
212 211 246
212 210 246
211 210 246
210 209 246
210 208 246
209 208 246
209 207 246
208 207 246
207 206 246
207 205 246
206 205 246
206 204 246
205 203 246
204 203 246
204 202 246
203 202 246
203 201 246
202 200 246
201 200 246
201 199 246
200 199 246
200 198 246
199 197 246
198 197 246
198 196 246
197 195 246
197 195 246
196 194 246
196 194 246
195 193 246
194 192 246
194 192 246
193 191 246
193 191 246
192 190 246
191 189 246
191 189 246
190 188 246
190 187 246
189 187 246
188 186 246
188 186 246
187 185 246
187 184 246
186 184 246
185 183 246
185 183 246
184 182 246
184 181 246
183 181 246
182 180 246
182 179 246
181 179 246
181 178 246
180 178 246
179 177 246
179 176 246
178 176 246
178 175 246
177 175 246
177 174 246
176 173 246
175 173 246
175 172 246
174 171 246
174 171 246
173 170 246
172 170 246
172 169 246
171 168 246
171 168 246
170 167 246
169 166 246
169 166 246
168 165 246
168 165 246
167 164 246
166 163 246
166 163 246
165 162 246
165 162 246
164 161 246
163 160 246
163 160 246
162 159 246
162 158 246
161 158 246
160 157 246
160 157 246
159 156 246
159 155 246
158 155 246
158 154 246
157 154 246
156 153 246
156 152 246
155 152 246
155 151 246
154 150 246
153 150 246
153 149 246
152 149 246
152 148 246
151 147 246
150 147 246
150 146 246
149 146 246
149 145 246
148 144 246
147 144 246
147 143 246
146 142 246
146 142 246
145 141 246
144 141 246
144 140 246
143 139 246
143 139 246
142 138 246
141 138 246
141 137 246
140 136 246
140 136 246
139 135 246
138 134 246
138 134 246
137 133 246
137 133 246
136 132 246
136 131 246
135 131 246
134 130 246
134 129 246
133 129 246
133 128 246
132 128 246
131 127 246
131 126 246
130 126 246
130 125 246
129 125 246
128 124 246
128 123 246
127 123 246
127 122 246
126 121 246
125 121 246
125 120 246
124 120 246
124 119 246
123 118 246
122 118 246
122 117 246
121 117 246
121 116 246
120 115 246
119 115 246
119 114 246
118 113 246
118 113 246
117 112 246
117 112 246
116 111 246
115 110 246
115 110 246
114 109 246
114 109 246
113 108 246
112 107 246
112 107 246
111 106 246
111 105 246
110 105 246
109 104 246
109 104 246
108 103 246
108 102 246
107 102 246
106 101 246
106 101 246
105 100 246
105 99 246
104 99 246
103 98 246
103 97 246
102 97 246
102 96 246
101 96 246
100 95 246
100 94 246
99 94 246
99 93 246
98 92 246
97 92 246
97 91 246
96 91 246
96 90 246
95 89 246
95 89 246
94 88 246
93 88 246
93 87 246
92 86 246
92 86 246
91 85 246
90 84 246
90 84 246
89 83 246
89 83 246
88 82 246
87 81 246
87 81 246
86 80 246
86 80 246
85 79 246
84 78 246
84 78 246
83 77 246
83 76 246
82 76 246
81 75 246
81 75 246
80 74 246
80 73 246
79 73 246
78 72 246
78 72 246
77 71 246
77 70 246
76 70 246
76 69 246
75 68 246
74 68 246
74 67 246
73 67 246
73 66 246
72 65 246
71 65 246
71 64 246
70 64 246
70 63 246
69 62 246
68 62 246
68 61 246
67 60 246
67 60 246
66 59 246
65 59 246
65 58 246
64 57 246
64 57 246
63 56 246
62 55 246
62 55 246
61 54 246
61 54 246
60 53 246
59 52 246
59 52 246
58 51 246
58 51 246
57 50 246
57 49 246
56 49 246
55 48 246
55 47 246
54 47 246
54 46 246
53 46 246
52 45 246
52 44 246
51 44 246
51 43 246
50 43 246
49 42 246
49 41 246
48 41 246
48 40 246
47 39 246
46 39 246
46 38 246
45 38 246
45 37 246
44 36 246
43 36 246
43 35 246
42 35 246
42 34 246
41 33 246
40 33 246
40 32 246
39 31 246
39 31 246
38 30 246
37 30 246
37 29 246
36 28 246
36 28 246
35 27 246
35 27 246
34 26 246
33 25 246
33 25 246
32 24 246
32 23 246
31 23 246
30 22 246
30 22 246
29 21 246
29 20 246
28 20 246
27 19 246
27 18 246
26 18 246
26 17 246
25 17 246
24 16 246
24 15 246
23 15 246
23 14 246
22 14 246
21 13 246
21 12 246
20 12 246
20 11 246
19 10 246
18 10 246
18 9 246
17 9 246
17 8 246
16 7 246
16 7 246
15 6 246
14 6 246
14 5 246
13 4 246
13 4 246
12 3 246
11 2 246
11 2 246
10 1 246
10 1 246
9 0 246
245 245 245
244 244 245
244 244 245
243 243 245
242 242 245
242 242 245
241 241 245
241 240 245
240 240 245
239 239 245
239 239 245
238 238 245
238 237 245
237 237 245
237 236 245
236 236 245
235 235 245
235 234 245
234 234 245
234 233 245
233 232 245
232 232 245
232 231 245
231 231 245
231 230 245
230 229 245
229 229 245
229 228 245
228 228 245
228 227 245
227 226 245
227 226 245
226 225 245
225 225 245
225 224 245
224 223 245
224 223 245
223 222 245
222 221 245
222 221 245
221 220 245
221 220 245
220 219 245
219 218 245
219 218 245
218 217 245
218 217 245
217 216 245
217 215 245
216 215 245
215 214 245
215 213 245
214 213 245
214 212 245
213 212 245
212 211 245
212 210 245
211 210 245
211 209 245
210 209 245
209 208 245
209 207 245
208 207 245
208 206 245
207 205 245
207 205 245
206 204 245
205 204 245
205 203 245
204 202 245
204 202 245
203 201 245
202 201 245
202 200 245
201 199 245
201 199 245
200 198 245
199 198 245
199 197 245
198 196 245
198 196 245
197 195 245
197 194 245
196 194 245
195 193 245
195 193 245
194 192 245
194 191 245
193 191 245
192 190 245
192 190 245
191 189 245
191 188 245
190 188 245
190 187 245
189 186 245
188 186 245
188 185 245
187 185 245
187 184 245
186 183 245
185 183 245
185 182 245
184 182 245
184 181 245
183 180 245
182 180 245
182 179 245
181 179 245
181 178 245
180 177 245
180 177 245
179 176 245
178 175 245
178 175 245
177 174 245
177 174 245
176 173 245
175 172 245
175 172 245
174 171 245
174 171 245
173 170 245
172 169 245
172 169 245
171 168 245
171 167 245
170 167 245
170 166 245
169 166 245
168 165 245
168 164 245
167 164 245
167 163 245
166 163 245
165 162 245
165 161 245
164 161 245
164 160 245
163 159 245
162 159 245
162 158 245
161 158 245
161 157 245
160 156 245
160 156 245
159 155 245
158 155 245
158 154 245
157 153 245
157 153 245
156 152 245
155 152 245
155 151 245
154 150 245
154 150 245
153 149 245
152 148 245
152 148 245
151 147 245
151 147 245
150 146 245
150 145 245
149 145 245
148 144 245
148 144 245
147 143 245
147 142 245
146 142 245
145 141 245
145 140 245
144 140 245
144 139 245
143 139 245
142 138 245
142 137 245
141 137 245
141 136 245
140 136 245
140 135 245
139 134 245
138 134 245
138 133 245
137 132 245
137 132 245
136 131 245
135 131 245
135 130 245
134 129 245
134 129 245
133 128 245
132 128 245
132 127 245
131 126 245
131 126 245
130 125 245
130 125 245
129 124 245
128 123 245
128 123 245
127 122 245
127 121 245
126 121 245
125 120 245
125 120 245
124 119 245
124 118 245
123 118 245
123 117 245
122 117 245
121 116 245
121 115 245
120 115 245
120 114 245
119 113 245
118 113 245
118 112 245
117 112 245
117 111 245
116 110 245
115 110 245
115 109 245
114 109 245
114 108 245
113 107 245
113 107 245
112 106 245
111 106 245
111 105 245
110 104 245
110 104 245
109 103 245
108 102 245
108 102 245
107 101 245
107 101 245
106 100 245
105 99 245
105 99 245
104 98 245
104 98 245
103 97 245
103 96 245
102 96 245
101 95 245
101 94 245
100 94 245
100 93 245
99 93 245
98 92 245
98 91 245
97 91 245
97 90 245
96 90 245
95 89 245
95 88 245
94 88 245
94 87 245
93 86 245
93 86 245
92 85 245
91 85 245
91 84 245
90 83 245
90 83 245
89 82 245
88 82 245
88 81 245
87 80 245
87 80 245
86 79 245
85 79 245
85 78 245
84 77 245
84 77 245
83 76 245
83 75 245
82 75 245
81 74 245
81 74 245
80 73 245
80 72 245
79 72 245
78 71 245
78 71 245
77 70 245
77 69 245
76 69 245
75 68 245
75 67 245
74 67 245
74 66 245
73 66 245
73 65 245
72 64 245
71 64 245
71 63 245
70 63 245
70 62 245
69 61 245
68 61 245
68 60 245
67 60 245
67 59 245
66 58 245
65 58 245
65 57 245
64 56 245
64 56 245
63 55 245
63 55 245
62 54 245
61 53 245
61 53 245
60 52 245
60 52 245
59 51 245
58 50 245
58 50 245
57 49 245
57 48 245
56 48 245
56 47 245
55 47 245
54 46 245
54 45 245
53 45 245
53 44 245
52 44 245
51 43 245
51 42 245
50 42 245
50 41 245
49 40 245
48 40 245
48 39 245
47 39 245
47 38 245
46 37 245
46 37 245
45 36 245
44 36 245
44 35 245
43 34 245
43 34 245
42 33 245
41 33 245
41 32 245
40 31 245
40 31 245
39 30 245
38 29 245
38 29 245
37 28 245
37 28 245
36 27 245
36 26 245
35 26 245
34 25 245
34 25 245
33 24 245
33 23 245
32 23 245
31 22 245
31 21 245
30 21 245
30 20 245
29 20 245
28 19 245
28 18 245
27 18 245
27 17 245
26 17 245
26 16 245
25 15 245
24 15 245
24 14 245
23 13 245
23 13 245
22 12 245
21 12 245
21 11 245
20 10 245
20 10 245
19 9 245
18 9 245
18 8 245
17 7 245
17 7 245
16 6 245
16 6 245
15 5 245
14 4 245
14 4 245
13 3 245
13 2 245
12 2 245
11 1 245
11 1 245
10 0 245
243 243 243
243 243 243
242 242 243
242 242 243
241 241 243
241 240 243
240 240 243
239 239 243
239 239 243
238 238 243
238 237 243
237 237 243
236 236 243
236 236 243
235 235 243
235 234 243
234 234 243
234 233 243
233 232 243
232 232 243
232 231 243
231 231 243
231 230 243
230 229 243
230 229 243
229 228 243
228 228 243
228 227 243
227 226 243
227 226 243
226 225 243
225 225 243
225 224 243
224 223 243
224 223 243
223 222 243
223 222 243
222 221 243
221 220 243
221 220 243
220 219 243
220 218 243
219 218 243
218 217 243
218 217 243
217 216 243
217 215 243
216 215 243
216 214 243
215 214 243
214 213 243
214 212 243
213 212 243
213 211 243
212 211 243
211 210 243
211 209 243
210 209 243
210 208 243
209 207 243
209 207 243
208 206 243
207 206 243
207 205 243
206 204 243
206 204 243
205 203 243
205 203 243
204 202 243
203 201 243
203 201 243
202 200 243
202 200 243
201 199 243
200 198 243
200 198 243
199 197 243
199 196 243
198 196 243
198 195 243
197 195 243
196 194 243
196 193 243
195 193 243
195 192 243
194 192 243
193 191 243
193 190 243
192 190 243
192 189 243
191 189 243
191 188 243
190 187 243
189 187 243
189 186 243
188 185 243
188 185 243
187 184 243
187 184 243
186 183 243
185 182 243
185 182 243
184 181 243
184 181 243
183 180 243
182 179 243
182 179 243
181 178 243
181 178 243
180 177 243
180 176 243
179 176 243
178 175 243
178 175 243
177 174 243
177 173 243
176 173 243
175 172 243
175 171 243
174 171 243
174 170 243
173 170 243
173 169 243
172 168 243
171 168 243
171 167 243
170 167 243
170 166 243
169 165 243
168 165 243
168 164 243
167 164 243
167 163 243
166 162 243
166 162 243
165 161 243
164 160 243
164 160 243
163 159 243
163 159 243
162 158 243
162 157 243
161 157 243
160 156 243
160 156 243
159 155 243
159 154 243
158 154 243
157 153 243
157 153 243
156 152 243
156 151 243
155 151 243
155 150 243
154 149 243
153 149 243
153 148 243
152 148 243
152 147 243
151 146 243
150 146 243
150 145 243
149 145 243
149 144 243
148 143 243
148 143 243
147 142 243
146 142 243
146 141 243
145 140 243
145 140 243
144 139 243
143 139 243
143 138 243
142 137 243
142 137 243
141 136 243
141 135 243
140 135 243
139 134 243
139 134 243
138 133 243
138 132 243
137 132 243
137 131 243
136 131 243
135 130 243
135 129 243
134 129 243
134 128 243
133 128 243
132 127 243
132 126 243
131 126 243
131 125 243
130 124 243
130 124 243
129 123 243
128 123 243
128 122 243
127 121 243
127 121 243
126 120 243
125 120 243
125 119 243
124 118 243
124 118 243
123 117 243
123 117 243
122 116 243
121 115 243
121 115 243
120 114 243
120 113 243
119 113 243
118 112 243
118 112 243
117 111 243
117 110 243
116 110 243
116 109 243
115 109 243
114 108 243
114 107 243
113 107 243
113 106 243
112 106 243
112 105 243
111 104 243
110 104 243
110 103 243
109 103 243
109 102 243
108 101 243
107 101 243
107 100 243
106 99 243
106 99 243
105 98 243
105 98 243
104 97 243
103 96 243
103 96 243
102 95 243
102 95 243
101 94 243
100 93 243
100 93 243
99 92 243
99 92 243
98 91 243
98 90 243
97 90 243
96 89 243
96 88 243
95 88 243
95 87 243
94 87 243
93 86 243
93 85 243
92 85 243
92 84 243
91 84 243
91 83 243
90 82 243
89 82 243
89 81 243
88 81 243
88 80 243
87 79 243
87 79 243
86 78 243
85 77 243
85 77 243
84 76 243
84 76 243
83 75 243
82 74 243
82 74 243
81 73 243
81 73 243
80 72 243
80 71 243
79 71 243
78 70 243
78 70 243
77 69 243
77 68 243
76 68 243
75 67 243
75 67 243
74 66 243
74 65 243
73 65 243
73 64 243
72 63 243
71 63 243
71 62 243
70 62 243
70 61 243
69 60 243
68 60 243
68 59 243
67 59 243
67 58 243
66 57 243
66 57 243
65 56 243
64 56 243
64 55 243
63 54 243
63 54 243
62 53 243
62 52 243
61 52 243
60 51 243
60 51 243
59 50 243
59 49 243
58 49 243
57 48 243
57 48 243
56 47 243
56 46 243
55 46 243
55 45 243
54 45 243
53 44 243
53 43 243
52 43 243
52 42 243
51 41 243
50 41 243
50 40 243
49 40 243
49 39 243
48 38 243
48 38 243
47 37 243
46 37 243
46 36 243
45 35 243
45 35 243
44 34 243
44 34 243
43 33 243
42 32 243
42 32 243
41 31 243
41 31 243
40 30 243
39 29 243
39 29 243
38 28 243
38 27 243
37 27 243
37 26 243
36 26 243
35 25 243
35 24 243
34 24 243
34 23 243
33 23 243
32 22 243
32 21 243
31 21 243
31 20 243
30 20 243
30 19 243
29 18 243
28 18 243
28 17 243
27 16 243
27 16 243
26 15 243
25 15 243
25 14 243
24 13 243
24 13 243
23 12 243
23 12 243
22 11 243
21 10 243
21 10 243
20 9 243
20 9 243
19 8 243
19 7 243
18 7 243
17 6 243
17 5 243
16 5 243
16 4 243
15 4 243
14 3 243
14 2 243
13 2 243
13 1 243
12 1 243
12 0 243
242 242 242
242 242 242
241 241 242
240 240 242
240 240 242
239 239 242
239 239 242
238 238 242
238 237 242
237 237 242
236 236 242
236 236 242
235 235 242
235 234 242
234 234 242
234 233 242
233 232 242
232 232 242
232 231 242
231 231 242
231 230 242
230 229 242
230 229 242
229 228 242
228 228 242
228 227 242
227 226 242
227 226 242
226 225 242
226 225 242
225 224 242
224 223 242
224 223 242
223 222 242
223 222 242
222 221 242
221 220 242
221 220 242
220 219 242
220 219 242
219 218 242
219 217 242
218 217 242
217 216 242
217 215 242
216 215 242
216 214 242
215 214 242
215 213 242
214 212 242
213 212 242
213 211 242
212 211 242
212 210 242
211 209 242
211 209 242
210 208 242
209 208 242
209 207 242
208 206 242
208 206 242
207 205 242
207 205 242
206 204 242
205 203 242
205 203 242
204 202 242
204 202 242
203 201 242
203 200 242
202 200 242
201 199 242
201 198 242
200 198 242
200 197 242
199 197 242
198 196 242
198 195 242
197 195 242
197 194 242
196 194 242
196 193 242
195 192 242
194 192 242
194 191 242
193 191 242
193 190 242
192 189 242
192 189 242
191 188 242
190 188 242
190 187 242
189 186 242
189 186 242
188 185 242
188 185 242
187 184 242
186 183 242
186 183 242
185 182 242
185 181 242
184 181 242
184 180 242
183 180 242
182 179 242
182 178 242
181 178 242
181 177 242
180 177 242
180 176 242
179 175 242
178 175 242
178 174 242
177 174 242
177 173 242
176 172 242
176 172 242
175 171 242
174 171 242
174 170 242
173 169 242
173 169 242
172 168 242
171 168 242
171 167 242
170 166 242
170 166 242
169 165 242
169 164 242
168 164 242
167 163 242
167 163 242
166 162 242
166 161 242
165 161 242
165 160 242
164 160 242
163 159 242
163 158 242
162 158 242
162 157 242
161 157 242
161 156 242
160 155 242
159 155 242
159 154 242
158 154 242
158 153 242
157 152 242
157 152 242
156 151 242
155 151 242
155 150 242
154 149 242
154 149 242
153 148 242
153 147 242
152 147 242
151 146 242
151 146 242
150 145 242
150 144 242
149 144 242
148 143 242
148 143 242
147 142 242
147 141 242
146 141 242
146 140 242
145 140 242
144 139 242
144 138 242
143 138 242
143 137 242
142 137 242
142 136 242
141 135 242
140 135 242
140 134 242
139 134 242
139 133 242
138 132 242
138 132 242
137 131 242
136 131 242
136 130 242
135 129 242
135 129 242
134 128 242
134 127 242
133 127 242
132 126 242
132 126 242
131 125 242
131 124 242
130 124 242
130 123 242
129 123 242
128 122 242
128 121 242
127 121 242
127 120 242
126 120 242
125 119 242
125 118 242
124 118 242
124 117 242
123 117 242
123 116 242
122 115 242
121 115 242
121 114 242
120 114 242
120 113 242
119 112 242
119 112 242
118 111 242
117 110 242
117 110 242
116 109 242
116 109 242
115 108 242
115 107 242
114 107 242
113 106 242
113 106 242
112 105 242
112 104 242
111 104 242
111 103 242
110 103 242
109 102 242
109 101 242
108 101 242
108 100 242
107 100 242
107 99 242
106 98 242
105 98 242
105 97 242
104 97 242
104 96 242
103 95 242
102 95 242
102 94 242
101 93 242
101 93 242
100 92 242
100 92 242
99 91 242
98 90 242
98 90 242
97 89 242
97 89 242
96 88 242
96 87 242
95 87 242
94 86 242
94 86 242
93 85 242
93 84 242
92 84 242
92 83 242
91 83 242
90 82 242
90 81 242
89 81 242
89 80 242
88 80 242
88 79 242
87 78 242
86 78 242
86 77 242
85 76 242
85 76 242
84 75 242
84 75 242
83 74 242
82 73 242
82 73 242
81 72 242
81 72 242
80 71 242
79 70 242
79 70 242
78 69 242
78 69 242
77 68 242
77 67 242
76 67 242
75 66 242
75 66 242
74 65 242
74 64 242
73 64 242
73 63 242
72 63 242
71 62 242
71 61 242
70 61 242
70 60 242
69 59 242
69 59 242
68 58 242
67 58 242
67 57 242
66 56 242
66 56 242
65 55 242
65 55 242
64 54 242
63 53 242
63 53 242
62 52 242
62 52 242
61 51 242
61 50 242
60 50 242
59 49 242
59 49 242
58 48 242
58 47 242
57 47 242
57 46 242
56 46 242
55 45 242
55 44 242
54 44 242
54 43 242
53 42 242
52 42 242
52 41 242
51 41 242
51 40 242
50 39 242
50 39 242
49 38 242
48 38 242
48 37 242
47 36 242
47 36 242
46 35 242
46 35 242
45 34 242
44 33 242
44 33 242
43 32 242
43 32 242
42 31 242
42 30 242
41 30 242
40 29 242
40 29 242
39 28 242
39 27 242
38 27 242
38 26 242
37 25 242
36 25 242
36 24 242
35 24 242
35 23 242
34 22 242
34 22 242
33 21 242
32 21 242
32 20 242
31 19 242
31 19 242
30 18 242
29 18 242
29 17 242
28 16 242
28 16 242
27 15 242
27 15 242
26 14 242
25 13 242
25 13 242
24 12 242
24 12 242
23 11 242
23 10 242
22 10 242
21 9 242
21 8 242
20 8 242
20 7 242
19 7 242
19 6 242
18 5 242
17 5 242
17 4 242
16 4 242
16 3 242
15 2 242
15 2 242
14 1 242
13 1 242
13 0 242
241 241 241
240 240 241
240 240 241
239 239 241
239 238 241
238 238 241
237 237 241
237 237 241
236 236 241
236 235 241
235 235 241
235 234 241
234 234 241
234 233 241
233 232 241
232 232 241
232 231 241
231 231 241
231 230 241
230 229 241
230 229 241
229 228 241
228 228 241
228 227 241
227 226 241
227 226 241
226 225 241
226 225 241
225 224 241
224 223 241
224 223 241
223 222 241
223 222 241
222 221 241
222 220 241
221 220 241
220 219 241
220 219 241
219 218 241
219 217 241
218 217 241
218 216 241
217 216 241
216 215 241
216 214 241
215 214 241
215 213 241
214 213 241
214 212 241
213 211 241
212 211 241
212 210 241
211 210 241
211 209 241
210 208 241
210 208 241
209 207 241
209 206 241
208 206 241
207 205 241
207 205 241
206 204 241
206 203 241
205 203 241
205 202 241
204 202 241
203 201 241
203 200 241
202 200 241
202 199 241
201 199 241
201 198 241
200 197 241
199 197 241
199 196 241
198 196 241
198 195 241
197 194 241
197 194 241
196 193 241
195 193 241
195 192 241
194 191 241
194 191 241
193 190 241
193 190 241
192 189 241
191 188 241
191 188 241
190 187 241
190 187 241
189 186 241
189 185 241
188 185 241
187 184 241
187 184 241
186 183 241
186 182 241
185 182 241
185 181 241
184 181 241
183 180 241
183 179 241
182 179 241
182 178 241
181 178 241
181 177 241
180 176 241
180 176 241
179 175 241
178 174 241
178 174 241
177 173 241
177 173 241
176 172 241
176 171 241
175 171 241
174 170 241
174 170 241
173 169 241
173 168 241
172 168 241
172 167 241
171 167 241
170 166 241
170 165 241
169 165 241
169 164 241
168 164 241
168 163 241
167 162 241
166 162 241
166 161 241
165 161 241
165 160 241
164 159 241
164 159 241
163 158 241
162 158 241
162 157 241
161 156 241
161 156 241
160 155 241
160 155 241
159 154 241
158 153 241
158 153 241
157 152 241
157 152 241
156 151 241
156 150 241
155 150 241
155 149 241
154 149 241
153 148 241
153 147 241
152 147 241
152 146 241
151 146 241
151 145 241
150 144 241
149 144 241
149 143 241
148 142 241
148 142 241
147 141 241
147 141 241
146 140 241
145 139 241
145 139 241
144 138 241
144 138 241
143 137 241
143 136 241
142 136 241
141 135 241
141 135 241
140 134 241
140 133 241
139 133 241
139 132 241
138 132 241
137 131 241
137 130 241
136 130 241
136 129 241
135 129 241
135 128 241
134 127 241
133 127 241
133 126 241
132 126 241
132 125 241
131 124 241
131 124 241
130 123 241
129 123 241
129 122 241
128 121 241
128 121 241
127 120 241
127 120 241
126 119 241
126 118 241
125 118 241
124 117 241
124 117 241
123 116 241
123 115 241
122 115 241
122 114 241
121 114 241
120 113 241
120 112 241
119 112 241
119 111 241
118 110 241
118 110 241
117 109 241
116 109 241
116 108 241
115 107 241
115 107 241
114 106 241
114 106 241
113 105 241
112 104 241
112 104 241
111 103 241
111 103 241
110 102 241
110 101 241
109 101 241
108 100 241
108 100 241
107 99 241
107 98 241
106 98 241
106 97 241
105 97 241
104 96 241
104 95 241
103 95 241
103 94 241
102 94 241
102 93 241
101 92 241
100 92 241
100 91 241
99 91 241
99 90 241
98 89 241
98 89 241
97 88 241
97 88 241
96 87 241
95 86 241
95 86 241
94 85 241
94 85 241
93 84 241
93 83 241
92 83 241
91 82 241
91 82 241
90 81 241
90 80 241
89 80 241
89 79 241
88 78 241
87 78 241
87 77 241
86 77 241
86 76 241
85 75 241
85 75 241
84 74 241
83 74 241
83 73 241
82 72 241
82 72 241
81 71 241
81 71 241
80 70 241
79 69 241
79 69 241
78 68 241
78 68 241
77 67 241
77 66 241
76 66 241
75 65 241
75 65 241
74 64 241
74 63 241
73 63 241
73 62 241
72 62 241
72 61 241
71 60 241
70 60 241
70 59 241
69 59 241
69 58 241
68 57 241
68 57 241
67 56 241
66 56 241
66 55 241
65 54 241
65 54 241
64 53 241
64 53 241
63 52 241
62 51 241
62 51 241
61 50 241
61 50 241
60 49 241
60 48 241
59 48 241
58 47 241
58 46 241
57 46 241
57 45 241
56 45 241
56 44 241
55 43 241
54 43 241
54 42 241
53 42 241
53 41 241
52 40 241
52 40 241
51 39 241
50 39 241
50 38 241
49 37 241
49 37 241
48 36 241
48 36 241
47 35 241
46 34 241
46 34 241
45 33 241
45 33 241
44 32 241
44 31 241
43 31 241
43 30 241
42 30 241
41 29 241
41 28 241
40 28 241
40 27 241
39 27 241
39 26 241
38 25 241
37 25 241
37 24 241
36 24 241
36 23 241
35 22 241
35 22 241
34 21 241
33 21 241
33 20 241
32 19 241
32 19 241
31 18 241
31 18 241
30 17 241
29 16 241
29 16 241
28 15 241
28 14 241
27 14 241
27 13 241
26 13 241
25 12 241
25 11 241
24 11 241
24 10 241
23 10 241
23 9 241
22 8 241
21 8 241
21 7 241
20 7 241
20 6 241
19 5 241
19 5 241
18 4 241
18 4 241
17 3 241
16 2 241
16 2 241
15 1 241
15 1 241
14 0 241
240 240 240
239 239 240
238 238 240
238 238 240
237 237 240
237 237 240
236 236 240
236 235 240
235 235 240
235 234 240
234 234 240
233 233 240
233 232 240
232 232 240
232 231 240
231 231 240
231 230 240
230 229 240
230 229 240
229 228 240
228 228 240
228 227 240
227 226 240
227 226 240
226 225 240
226 225 240
225 224 240
224 223 240
224 223 240
223 222 240
223 222 240
222 221 240
222 220 240
221 220 240
221 219 240
220 219 240
219 218 240
219 217 240
218 217 240
218 216 240
217 216 240
217 215 240
216 214 240
215 214 240
215 213 240
214 213 240
214 212 240
213 211 240
213 211 240
212 210 240
212 210 240
211 209 240
210 208 240
210 208 240
209 207 240
209 207 240
208 206 240
208 205 240
207 205 240
206 204 240
206 204 240
205 203 240
205 202 240
204 202 240
204 201 240
203 201 240
203 200 240
202 199 240
201 199 240
201 198 240
200 198 240
200 197 240
199 196 240
199 196 240
198 195 240
197 195 240
197 194 240
196 193 240
196 193 240
195 192 240
195 192 240
194 191 240
194 190 240
193 190 240
192 189 240
192 189 240
191 188 240
191 187 240
190 187 240
190 186 240
189 186 240
188 185 240
188 184 240
187 184 240
187 183 240
186 183 240
186 182 240
185 181 240
185 181 240
184 180 240
183 180 240
183 179 240
182 178 240
182 178 240
181 177 240
181 177 240
180 176 240
179 175 240
179 175 240
178 174 240
178 174 240
177 173 240
177 172 240
176 172 240
176 171 240
175 171 240
174 170 240
174 169 240
173 169 240
173 168 240
172 168 240
172 167 240
171 166 240
170 166 240
170 165 240
169 165 240
169 164 240
168 163 240
168 163 240
167 162 240
167 162 240
166 161 240
165 160 240
165 160 240
164 159 240
164 159 240
163 158 240
163 157 240
162 157 240
162 156 240
161 156 240
160 155 240
160 154 240
159 154 240
159 153 240
158 153 240
158 152 240
157 151 240
156 151 240
156 150 240
155 150 240
155 149 240
154 148 240
154 148 240
153 147 240
153 147 240
152 146 240
151 145 240
151 145 240
150 144 240
150 144 240
149 143 240
149 142 240
148 142 240
147 141 240
147 141 240
146 140 240
146 139 240
145 139 240
145 138 240
144 138 240
144 137 240
143 136 240
142 136 240
142 135 240
141 135 240
141 134 240
140 133 240
140 133 240
139 132 240
138 132 240
138 131 240
137 130 240
137 130 240
136 129 240
136 129 240
135 128 240
135 127 240
134 127 240
133 126 240
133 126 240
132 125 240
132 124 240
131 124 240
131 123 240
130 123 240
129 122 240
129 121 240
128 121 240
128 120 240
127 120 240
127 119 240
126 118 240
126 118 240
125 117 240
124 117 240
124 116 240
123 115 240
123 115 240
122 114 240
122 114 240
121 113 240
120 112 240
120 112 240
119 111 240
119 111 240
118 110 240
118 109 240
117 109 240
117 108 240
116 108 240
115 107 240
115 106 240
114 106 240
114 105 240
113 104 240
113 104 240
112 103 240
111 103 240
111 102 240
110 101 240
110 101 240
109 100 240
109 100 240
108 99 240
108 98 240
107 98 240
106 97 240
106 97 240
105 96 240
105 95 240
104 95 240
104 94 240
103 94 240
102 93 240
102 92 240
101 92 240
101 91 240
100 91 240
100 90 240
99 89 240
99 89 240
98 88 240
97 88 240
97 87 240
96 86 240
96 86 240
95 85 240
95 85 240
94 84 240
93 83 240
93 83 240
92 82 240
92 82 240
91 81 240
91 80 240
90 80 240
90 79 240
89 79 240
88 78 240
88 77 240
87 77 240
87 76 240
86 76 240
86 75 240
85 74 240
85 74 240
84 73 240
83 73 240
83 72 240
82 71 240
82 71 240
81 70 240
81 70 240
80 69 240
79 68 240
79 68 240
78 67 240
78 67 240
77 66 240
77 65 240
76 65 240
76 64 240
75 64 240
74 63 240
74 62 240
73 62 240
73 61 240
72 61 240
72 60 240
71 59 240
70 59 240
70 58 240
69 58 240
69 57 240
68 56 240
68 56 240
67 55 240
67 55 240
66 54 240
65 53 240
65 53 240
64 52 240
64 52 240
63 51 240
63 50 240
62 50 240
61 49 240
61 49 240
60 48 240
60 47 240
59 47 240
59 46 240
58 46 240
58 45 240
57 44 240
56 44 240
56 43 240
55 43 240
55 42 240
54 41 240
54 41 240
53 40 240
52 40 240
52 39 240
51 38 240
51 38 240
50 37 240
50 37 240
49 36 240
49 35 240
48 35 240
47 34 240
47 34 240
46 33 240
46 32 240
45 32 240
45 31 240
44 31 240
43 30 240
43 29 240
42 29 240
42 28 240
41 28 240
41 27 240
40 26 240
40 26 240
39 25 240
38 25 240
38 24 240
37 23 240
37 23 240
36 22 240
36 22 240
35 21 240
34 20 240
34 20 240
33 19 240
33 19 240
32 18 240
32 17 240
31 17 240
31 16 240
30 16 240
29 15 240
29 14 240
28 14 240
28 13 240
27 13 240
27 12 240
26 11 240
25 11 240
25 10 240
24 10 240
24 9 240
23 8 240
23 8 240
22 7 240
22 7 240
21 6 240
20 5 240
20 5 240
19 4 240
19 4 240
18 3 240
18 2 240
17 2 240
17 1 240
16 1 240
15 0 240
238 238 238
238 238 238
237 237 238
237 237 238
236 236 238
236 235 238
235 235 238
234 234 238
234 234 238
233 233 238
233 232 238
232 232 238
232 231 238
231 231 238
231 230 238
230 229 238
229 229 238
229 228 238
228 228 238
228 227 238
227 226 238
227 226 238
226 225 238
226 225 238
225 224 238
224 223 238
224 223 238
223 222 238
223 222 238
222 221 238
222 220 238
221 220 238
221 219 238
220 219 238
219 218 238
219 217 238
218 217 238
218 216 238
217 216 238
217 215 238
216 214 238
216 214 238
215 213 238
214 213 238
214 212 238
213 211 238
213 211 238
212 210 238
212 210 238
211 209 238
211 208 238
210 208 238
209 207 238
209 207 238
208 206 238
208 205 238
207 205 238
207 204 238
206 204 238
206 203 238
205 203 238
204 202 238
204 201 238
203 201 238
203 200 238
202 200 238
202 199 238
201 198 238
201 198 238
200 197 238
199 197 238
199 196 238
198 195 238
198 195 238
197 194 238
197 194 238
196 193 238
196 192 238
195 192 238
194 191 238
194 191 238
193 190 238
193 189 238
192 189 238
192 188 238
191 188 238
191 187 238
190 186 238
189 186 238
189 185 238
188 185 238
188 184 238
187 183 238
187 183 238
186 182 238
186 182 238
185 181 238
184 180 238
184 180 238
183 179 238
183 179 238
182 178 238
182 177 238
181 177 238
181 176 238
180 176 238
179 175 238
179 174 238
178 174 238
178 173 238
177 173 238
177 172 238
176 171 238
176 171 238
175 170 238
174 170 238
174 169 238
173 168 238
173 168 238
172 167 238
172 167 238
171 166 238
171 165 238
170 165 238
169 164 238
169 164 238
168 163 238
168 162 238
167 162 238
167 161 238
166 161 238
166 160 238
165 159 238
164 159 238
164 158 238
163 158 238
163 157 238
162 157 238
162 156 238
161 155 238
161 155 238
160 154 238
159 154 238
159 153 238
158 152 238
158 152 238
157 151 238
157 151 238
156 150 238
156 149 238
155 149 238
154 148 238
154 148 238
153 147 238
153 146 238
152 146 238
152 145 238
151 145 238
151 144 238
150 143 238
149 143 238
149 142 238
148 142 238
148 141 238
147 140 238
147 140 238
146 139 238
146 139 238
145 138 238
144 137 238
144 137 238
143 136 238
143 136 238
142 135 238
142 134 238
141 134 238
141 133 238
140 133 238
139 132 238
139 131 238
138 131 238
138 130 238
137 130 238
137 129 238
136 128 238
136 128 238
135 127 238
134 127 238
134 126 238
133 125 238
133 125 238
132 124 238
132 124 238
131 123 238
131 122 238
130 122 238
129 121 238
129 121 238
128 120 238
128 119 238
127 119 238
127 118 238
126 118 238
126 117 238
125 116 238
124 116 238
124 115 238
123 115 238
123 114 238
122 113 238
122 113 238
121 112 238
121 112 238
120 111 238
119 111 238
119 110 238
118 109 238
118 109 238
117 108 238
117 108 238
116 107 238
116 106 238
115 106 238
114 105 238
114 105 238
113 104 238
113 103 238
112 103 238
112 102 238
111 102 238
111 101 238
110 100 238
109 100 238
109 99 238
108 99 238
108 98 238
107 97 238
107 97 238
106 96 238
106 96 238
105 95 238
104 94 238
104 94 238
103 93 238
103 93 238
102 92 238
102 91 238
101 91 238
101 90 238
100 90 238
99 89 238
99 88 238
98 88 238
98 87 238
97 87 238
97 86 238
96 85 238
96 85 238
95 84 238
94 84 238
94 83 238
93 82 238
93 82 238
92 81 238
92 81 238
91 80 238
91 79 238
90 79 238
89 78 238
89 78 238
88 77 238
88 76 238
87 76 238
87 75 238
86 75 238
86 74 238
85 73 238
84 73 238
84 72 238
83 72 238
83 71 238
82 70 238
82 70 238
81 69 238
81 69 238
80 68 238
79 68 238
79 67 238
78 66 238
78 66 238
77 65 238
77 65 238
76 64 238
76 63 238
75 63 238
74 62 238
74 62 238
73 61 238
73 60 238
72 60 238
72 59 238
71 59 238
71 58 238
70 57 238
69 57 238
69 56 238
68 56 238
68 55 238
67 54 238
67 54 238
66 53 238
66 53 238
65 52 238
64 51 238
64 51 238
63 50 238
63 50 238
62 49 238
62 48 238
61 48 238
61 47 238
60 47 238
59 46 238
59 45 238
58 45 238
58 44 238
57 44 238
57 43 238
56 42 238
56 42 238
55 41 238
54 41 238
54 40 238
53 39 238
53 39 238
52 38 238
52 38 238
51 37 238
51 36 238
50 36 238
49 35 238
49 35 238
48 34 238
48 33 238
47 33 238
47 32 238
46 32 238
46 31 238
45 30 238
44 30 238
44 29 238
43 29 238
43 28 238
42 27 238
42 27 238
41 26 238
41 26 238
40 25 238
39 24 238
39 24 238
38 23 238
38 23 238
37 22 238
37 22 238
36 21 238
36 20 238
35 20 238
34 19 238
34 19 238
33 18 238
33 17 238
32 17 238
32 16 238
31 16 238
31 15 238
30 14 238
29 14 238
29 13 238
28 13 238
28 12 238
27 11 238
27 11 238
26 10 238
26 10 238
25 9 238
24 8 238
24 8 238
23 7 238
23 7 238
22 6 238
22 5 238
21 5 238
21 4 238
20 4 238
19 3 238
19 2 238
18 2 238
18 1 238
17 1 238
17 0 238
237 237 237
237 236 237
236 236 237
235 235 237
235 235 237
234 234 237
234 233 237
233 233 237
233 232 237
232 232 237
232 231 237
231 231 237
230 230 237
230 229 237
229 229 237
229 228 237
228 228 237
228 227 237
227 226 237
227 226 237
226 225 237
226 225 237
225 224 237
224 223 237
224 223 237
223 222 237
223 222 237
222 221 237
222 220 237
221 220 237
221 219 237
220 219 237
219 218 237
219 217 237
218 217 237
218 216 237
217 216 237
217 215 237
216 214 237
216 214 237
215 213 237
215 213 237
214 212 237
213 212 237
213 211 237
212 210 237
212 210 237
211 209 237
211 209 237
210 208 237
210 207 237
209 207 237
209 206 237
208 206 237
207 205 237
207 204 237
206 204 237
206 203 237
205 203 237
205 202 237
204 201 237
204 201 237
203 200 237
202 200 237
202 199 237
201 198 237
201 198 237
200 197 237
200 197 237
199 196 237
199 195 237
198 195 237
198 194 237
197 194 237
196 193 237
196 193 237
195 192 237
195 191 237
194 191 237
194 190 237
193 190 237
193 189 237
192 188 237
191 188 237
191 187 237
190 187 237
190 186 237
189 185 237
189 185 237
188 184 237
188 184 237
187 183 237
187 182 237
186 182 237
185 181 237
185 181 237
184 180 237
184 179 237
183 179 237
183 178 237
182 178 237
182 177 237
181 176 237
180 176 237
180 175 237
179 175 237
179 174 237
178 173 237
178 173 237
177 172 237
177 172 237
176 171 237
176 171 237
175 170 237
174 169 237
174 169 237
173 168 237
173 168 237
172 167 237
172 166 237
171 166 237
171 165 237
170 165 237
170 164 237
169 163 237
168 163 237
168 162 237
167 162 237
167 161 237
166 160 237
166 160 237
165 159 237
165 159 237
164 158 237
163 157 237
163 157 237
162 156 237
162 156 237
161 155 237
161 154 237
160 154 237
160 153 237
159 153 237
159 152 237
158 152 237
157 151 237
157 150 237
156 150 237
156 149 237
155 149 237
155 148 237
154 147 237
154 147 237
153 146 237
152 146 237
152 145 237
151 144 237
151 144 237
150 143 237
150 143 237
149 142 237
149 141 237
148 141 237
148 140 237
147 140 237
146 139 237
146 138 237
145 138 237
145 137 237
144 137 237
144 136 237
143 135 237
143 135 237
142 134 237
142 134 237
141 133 237
140 132 237
140 132 237
139 131 237
139 131 237
138 130 237
138 130 237
137 129 237
137 128 237
136 128 237
135 127 237
135 127 237
134 126 237
134 125 237
133 125 237
133 124 237
132 124 237
132 123 237
131 122 237
131 122 237
130 121 237
129 121 237
129 120 237
128 119 237
128 119 237
127 118 237
127 118 237
126 117 237
126 116 237
125 116 237
124 115 237
124 115 237
123 114 237
123 113 237
122 113 237
122 112 237
121 112 237
121 111 237
120 111 237
120 110 237
119 109 237
118 109 237
118 108 237
117 108 237
117 107 237
116 106 237
116 106 237
115 105 237
115 105 237
114 104 237
113 103 237
113 103 237
112 102 237
112 102 237
111 101 237
111 100 237
110 100 237
110 99 237
109 99 237
109 98 237
108 97 237
107 97 237
107 96 237
106 96 237
106 95 237
105 94 237
105 94 237
104 93 237
104 93 237
103 92 237
103 91 237
102 91 237
101 90 237
101 90 237
100 89 237
100 89 237
99 88 237
99 87 237
98 87 237
98 86 237
97 86 237
96 85 237
96 84 237
95 84 237
95 83 237
94 83 237
94 82 237
93 81 237
93 81 237
92 80 237
92 80 237
91 79 237
90 78 237
90 78 237
89 77 237
89 77 237
88 76 237
88 75 237
87 75 237
87 74 237
86 74 237
85 73 237
85 72 237
84 72 237
84 71 237
83 71 237
83 70 237
82 70 237
82 69 237
81 68 237
81 68 237
80 67 237
79 67 237
79 66 237
78 65 237
78 65 237
77 64 237
77 64 237
76 63 237
76 62 237
75 62 237
75 61 237
74 61 237
73 60 237
73 59 237
72 59 237
72 58 237
71 58 237
71 57 237
70 56 237
70 56 237
69 55 237
68 55 237
68 54 237
67 53 237
67 53 237
66 52 237
66 52 237
65 51 237
65 51 237
64 50 237
64 49 237
63 49 237
62 48 237
62 48 237
61 47 237
61 46 237
60 46 237
60 45 237
59 45 237
59 44 237
58 43 237
57 43 237
57 42 237
56 42 237
56 41 237
55 40 237
55 40 237
54 39 237
54 39 237
53 38 237
53 37 237
52 37 237
51 36 237
51 36 237
50 35 237
50 34 237
49 34 237
49 33 237
48 33 237
48 32 237
47 31 237
46 31 237
46 30 237
45 30 237
45 29 237
44 29 237
44 28 237
43 27 237
43 27 237
42 26 237
42 26 237
41 25 237
40 24 237
40 24 237
39 23 237
39 23 237
38 22 237
38 21 237
37 21 237
37 20 237
36 20 237
36 19 237
35 18 237
34 18 237
34 17 237
33 17 237
33 16 237
32 15 237
32 15 237
31 14 237
31 14 237
30 13 237
29 12 237
29 12 237
28 11 237
28 11 237
27 10 237
27 10 237
26 9 237
26 8 237
25 8 237
25 7 237
24 7 237
23 6 237
23 5 237
22 5 237
22 4 237
21 4 237
21 3 237
20 2 237
20 2 237
19 1 237
18 1 237
18 0 237
236 236 236
235 235 236
235 235 236
234 234 236
234 233 236
233 233 236
233 232 236
232 232 236
231 231 236
231 230 236
230 230 236
230 229 236
229 229 236
229 228 236
228 228 236
228 227 236
227 226 236
227 226 236
226 225 236
225 225 236
225 224 236
224 223 236
224 223 236
223 222 236
223 222 236
222 221 236
222 220 236
221 220 236
221 219 236
220 219 236
219 218 236
219 217 236
218 217 236
218 216 236
217 216 236
217 215 236
216 215 236
216 214 236
215 213 236
215 213 236
214 212 236
214 212 236
213 211 236
212 210 236
212 210 236
211 209 236
211 209 236
210 208 236
210 207 236
209 207 236
209 206 236
208 206 236
208 205 236
207 204 236
206 204 236
206 203 236
205 203 236
205 202 236
204 202 236
204 201 236
203 200 236
203 200 236
202 199 236
202 199 236
201 198 236
201 197 236
200 197 236
199 196 236
199 196 236
198 195 236
198 194 236
197 194 236
197 193 236
196 193 236
196 192 236
195 191 236
195 191 236
194 190 236
193 190 236
193 189 236
192 189 236
192 188 236
191 187 236
191 187 236
190 186 236
190 186 236
189 185 236
189 184 236
188 184 236
187 183 236
187 183 236
186 182 236
186 181 236
185 181 236
185 180 236
184 180 236
184 179 236
183 178 236
183 178 236
182 177 236
182 177 236
181 176 236
180 176 236
180 175 236
179 174 236
179 174 236
178 173 236
178 173 236
177 172 236
177 171 236
176 171 236
176 170 236
175 170 236
174 169 236
174 168 236
173 168 236
173 167 236
172 167 236
172 166 236
171 165 236
171 165 236
170 164 236
170 164 236
169 163 236
168 163 236
168 162 236
167 161 236
167 161 236
166 160 236
166 160 236
165 159 236
165 158 236
164 158 236
164 157 236
163 157 236
163 156 236
162 155 236
161 155 236
161 154 236
160 154 236
160 153 236
159 152 236
159 152 236
158 151 236
158 151 236
157 150 236
157 150 236
156 149 236
155 148 236
155 148 236
154 147 236
154 147 236
153 146 236
153 145 236
152 145 236
152 144 236
151 144 236
151 143 236
150 142 236
149 142 236
149 141 236
148 141 236
148 140 236
147 139 236
147 139 236
146 138 236
146 138 236
145 137 236
145 137 236
144 136 236
144 135 236
143 135 236
142 134 236
142 134 236
141 133 236
141 132 236
140 132 236
140 131 236
139 131 236
139 130 236
138 129 236
138 129 236
137 128 236
136 128 236
136 127 236
135 126 236
135 126 236
134 125 236
134 125 236
133 124 236
133 124 236
132 123 236
132 122 236
131 122 236
130 121 236
130 121 236
129 120 236
129 119 236
128 119 236
128 118 236
127 118 236
127 117 236
126 116 236
126 116 236
125 115 236
125 115 236
124 114 236
123 113 236
123 113 236
122 112 236
122 112 236
121 111 236
121 111 236
120 110 236
120 109 236
119 109 236
119 108 236
118 108 236
117 107 236
117 106 236
116 106 236
116 105 236
115 105 236
115 104 236
114 103 236
114 103 236
113 102 236
113 102 236
112 101 236
111 100 236
111 100 236
110 99 236
110 99 236
109 98 236
109 98 236
108 97 236
108 96 236
107 96 236
107 95 236
106 95 236
106 94 236
105 93 236
104 93 236
104 92 236
103 92 236
103 91 236
102 90 236
102 90 236
101 89 236
101 89 236
100 88 236
100 87 236
99 87 236
98 86 236
98 86 236
97 85 236
97 85 236
96 84 236
96 83 236
95 83 236
95 82 236
94 82 236
94 81 236
93 80 236
92 80 236
92 79 236
91 79 236
91 78 236
90 77 236
90 77 236
89 76 236
89 76 236
88 75 236
88 74 236
87 74 236
87 73 236
86 73 236
85 72 236
85 72 236
84 71 236
84 70 236
83 70 236
83 69 236
82 69 236
82 68 236
81 67 236
81 67 236
80 66 236
79 66 236
79 65 236
78 64 236
78 64 236
77 63 236
77 63 236
76 62 236
76 61 236
75 61 236
75 60 236
74 60 236
73 59 236
73 59 236
72 58 236
72 57 236
71 57 236
71 56 236
70 56 236
70 55 236
69 54 236
69 54 236
68 53 236
68 53 236
67 52 236
66 51 236
66 51 236
65 50 236
65 50 236
64 49 236
64 48 236
63 48 236
63 47 236
62 47 236
62 46 236
61 46 236
60 45 236
60 44 236
59 44 236
59 43 236
58 43 236
58 42 236
57 41 236
57 41 236
56 40 236
56 40 236
55 39 236
54 38 236
54 38 236
53 37 236
53 37 236
52 36 236
52 35 236
51 35 236
51 34 236
50 34 236
50 33 236
49 33 236
49 32 236
48 31 236
47 31 236
47 30 236
46 30 236
46 29 236
45 28 236
45 28 236
44 27 236
44 27 236
43 26 236
43 25 236
42 25 236
41 24 236
41 24 236
40 23 236
40 22 236
39 22 236
39 21 236
38 21 236
38 20 236
37 20 236
37 19 236
36 18 236
36 18 236
35 17 236
34 17 236
34 16 236
33 15 236
33 15 236
32 14 236
32 14 236
31 13 236
31 12 236
30 12 236
30 11 236
29 11 236
28 10 236
28 9 236
27 9 236
27 8 236
26 8 236
26 7 236
25 7 236
25 6 236
24 5 236
24 5 236
23 4 236
22 4 236
22 3 236
21 2 236
21 2 236
20 1 236
20 1 236
19 0 236
234 234 234
234 234 234
233 233 234
233 233 234
232 232 234
232 232 234
231 231 234
231 230 234
230 230 234
230 229 234
229 229 234
229 228 234
228 227 234
228 227 234
227 226 234
226 226 234
226 225 234
225 225 234
225 224 234
224 223 234
224 223 234
223 222 234
223 222 234
222 221 234
222 220 234
221 220 234
221 219 234
220 219 234
219 218 234
219 217 234
218 217 234
218 216 234
217 216 234
217 215 234
216 215 234
216 214 234
215 213 234
215 213 234
214 212 234
214 212 234
213 211 234
213 210 234
212 210 234
211 209 234
211 209 234
210 208 234
210 207 234
209 207 234
209 206 234
208 206 234
208 205 234
207 205 234
207 204 234
206 203 234
206 203 234
205 202 234
204 202 234
204 201 234
203 200 234
203 200 234
202 199 234
202 199 234
201 198 234
201 197 234
200 197 234
200 196 234
199 196 234
199 195 234
198 195 234
197 194 234
197 193 234
196 193 234
196 192 234
195 192 234
195 191 234
194 190 234
194 190 234
193 189 234
193 189 234
192 188 234
192 187 234
191 187 234
191 186 234
190 186 234
189 185 234
189 185 234
188 184 234
188 183 234
187 183 234
187 182 234
186 182 234
186 181 234
185 180 234
185 180 234
184 179 234
184 179 234
183 178 234
182 177 234
182 177 234
181 176 234
181 176 234
180 175 234
180 175 234
179 174 234
179 173 234
178 173 234
178 172 234
177 172 234
177 171 234
176 170 234
176 170 234
175 169 234
174 169 234
174 168 234
173 167 234
173 167 234
172 166 234
172 166 234
171 165 234
171 165 234
170 164 234
170 163 234
169 163 234
169 162 234
168 162 234
167 161 234
167 160 234
166 160 234
166 159 234
165 159 234
165 158 234
164 158 234
164 157 234
163 156 234
163 156 234
162 155 234
162 155 234
161 154 234
160 153 234
160 153 234
159 152 234
159 152 234
158 151 234
158 150 234
157 150 234
157 149 234
156 149 234
156 148 234
155 148 234
155 147 234
154 146 234
154 146 234
153 145 234
152 145 234
152 144 234
151 143 234
151 143 234
150 142 234
150 142 234
149 141 234
149 140 234
148 140 234
148 139 234
147 139 234
147 138 234
146 138 234
145 137 234
145 136 234
144 136 234
144 135 234
143 135 234
143 134 234
142 133 234
142 133 234
141 132 234
141 132 234
140 131 234
140 130 234
139 130 234
138 129 234
138 129 234
137 128 234
137 128 234
136 127 234
136 126 234
135 126 234
135 125 234
134 125 234
134 124 234
133 123 234
133 123 234
132 122 234
132 122 234
131 121 234
130 120 234
130 120 234
129 119 234
129 119 234
128 118 234
128 118 234
127 117 234
127 116 234
126 116 234
126 115 234
125 115 234
125 114 234
124 113 234
123 113 234
123 112 234
122 112 234
122 111 234
121 110 234
121 110 234
120 109 234
120 109 234
119 108 234
119 108 234
118 107 234
118 106 234
117 106 234
117 105 234
116 105 234
115 104 234
115 103 234
114 103 234
114 102 234
113 102 234
113 101 234
112 100 234
112 100 234
111 99 234
111 99 234
110 98 234
110 98 234
109 97 234
108 96 234
108 96 234
107 95 234
107 95 234
106 94 234
106 93 234
105 93 234
105 92 234
104 92 234
104 91 234
103 91 234
103 90 234
102 89 234
101 89 234
101 88 234
100 88 234
100 87 234
99 86 234
99 86 234
98 85 234
98 85 234
97 84 234
97 83 234
96 83 234
96 82 234
95 82 234
95 81 234
94 81 234
93 80 234
93 79 234
92 79 234
92 78 234
91 78 234
91 77 234
90 76 234
90 76 234
89 75 234
89 75 234
88 74 234
88 73 234
87 73 234
86 72 234
86 72 234
85 71 234
85 71 234
84 70 234
84 69 234
83 69 234
83 68 234
82 68 234
82 67 234
81 66 234
81 66 234
80 65 234
79 65 234
79 64 234
78 63 234
78 63 234
77 62 234
77 62 234
76 61 234
76 61 234
75 60 234
75 59 234
74 59 234
74 58 234
73 58 234
73 57 234
72 56 234
71 56 234
71 55 234
70 55 234
70 54 234
69 53 234
69 53 234
68 52 234
68 52 234
67 51 234
67 51 234
66 50 234
66 49 234
65 49 234
64 48 234
64 48 234
63 47 234
63 46 234
62 46 234
62 45 234
61 45 234
61 44 234
60 43 234
60 43 234
59 42 234
59 42 234
58 41 234
58 41 234
57 40 234
56 39 234
56 39 234
55 38 234
55 38 234
54 37 234
54 36 234
53 36 234
53 35 234
52 35 234
52 34 234
51 33 234
51 33 234
50 32 234
49 32 234
49 31 234
48 31 234
48 30 234
47 29 234
47 29 234
46 28 234
46 28 234
45 27 234
45 26 234
44 26 234
44 25 234
43 25 234
42 24 234
42 24 234
41 23 234
41 22 234
40 22 234
40 21 234
39 21 234
39 20 234
38 19 234
38 19 234
37 18 234
37 18 234
36 17 234
36 16 234
35 16 234
34 15 234
34 15 234
33 14 234
33 14 234
32 13 234
32 12 234
31 12 234
31 11 234
30 11 234
30 10 234
29 9 234
29 9 234
28 8 234
27 8 234
27 7 234
26 6 234
26 6 234
25 5 234
25 5 234
24 4 234
24 4 234
23 3 234
23 2 234
22 2 234
22 1 234
21 1 234
21 0 234
233 233 233
233 233 233
232 232 233
232 231 233
231 231 233
231 230 233
230 230 233
230 229 233
229 229 233
228 228 233
228 227 233
227 227 233
227 226 233
226 226 233
226 225 233
225 224 233
225 224 233
224 223 233
224 223 233
223 222 233
223 222 233
222 221 233
222 220 233
221 220 233
220 219 233
220 219 233
219 218 233
219 217 233
218 217 233
218 216 233
217 216 233
217 215 233
216 215 233
216 214 233
215 213 233
215 213 233
214 212 233
214 212 233
213 211 233
213 210 233
212 210 233
211 209 233
211 209 233
210 208 233
210 207 233
209 207 233
209 206 233
208 206 233
208 205 233
207 205 233
207 204 233
206 203 233
206 203 233
205 202 233
205 202 233
204 201 233
204 200 233
203 200 233
202 199 233
202 199 233
201 198 233
201 198 233
200 197 233
200 196 233
199 196 233
199 195 233
198 195 233
198 194 233
197 193 233
197 193 233
196 192 233
196 192 233
195 191 233
195 191 233
194 190 233
193 189 233
193 189 233
192 188 233
192 188 233
191 187 233
191 186 233
190 186 233
190 185 233
189 185 233
189 184 233
188 184 233
188 183 233
187 182 233
187 182 233
186 181 233
186 181 233
185 180 233
184 179 233
184 179 233
183 178 233
183 178 233
182 177 233
182 177 233
181 176 233
181 175 233
180 175 233
180 174 233
179 174 233
179 173 233
178 172 233
178 172 233
177 171 233
177 171 233
176 170 233
175 170 233
175 169 233
174 168 233
174 168 233
173 167 233
173 167 233
172 166 233
172 165 233
171 165 233
171 164 233
170 164 233
170 163 233
169 162 233
169 162 233
168 161 233
168 161 233
167 160 233
166 160 233
166 159 233
165 158 233
165 158 233
164 157 233
164 157 233
163 156 233
163 155 233
162 155 233
162 154 233
161 154 233
161 153 233
160 153 233
160 152 233
159 151 233
158 151 233
158 150 233
157 150 233
157 149 233
156 148 233
156 148 233
155 147 233
155 147 233
154 146 233
154 146 233
153 145 233
153 144 233
152 144 233
152 143 233
151 143 233
151 142 233
150 141 233
149 141 233
149 140 233
148 140 233
148 139 233
147 139 233
147 138 233
146 137 233
146 137 233
145 136 233
145 136 233
144 135 233
144 134 233
143 134 233
143 133 233
142 133 233
142 132 233
141 132 233
140 131 233
140 130 233
139 130 233
139 129 233
138 129 233
138 128 233
137 127 233
137 127 233
136 126 233
136 126 233
135 125 233
135 124 233
134 124 233
134 123 233
133 123 233
133 122 233
132 122 233
131 121 233
131 120 233
130 120 233
130 119 233
129 119 233
129 118 233
128 117 233
128 117 233
127 116 233
127 116 233
126 115 233
126 115 233
125 114 233
125 113 233
124 113 233
124 112 233
123 112 233
122 111 233
122 110 233
121 110 233
121 109 233
120 109 233
120 108 233
119 108 233
119 107 233
118 106 233
118 106 233
117 105 233
117 105 233
116 104 233
116 103 233
115 103 233
115 102 233
114 102 233
113 101 233
113 101 233
112 100 233
112 99 233
111 99 233
111 98 233
110 98 233
110 97 233
109 96 233
109 96 233
108 95 233
108 95 233
107 94 233
107 94 233
106 93 233
106 92 233
105 92 233
104 91 233
104 91 233
103 90 233
103 89 233
102 89 233
102 88 233
101 88 233
101 87 233
100 87 233
100 86 233
99 85 233
99 85 233
98 84 233
98 84 233
97 83 233
97 82 233
96 82 233
95 81 233
95 81 233
94 80 233
94 79 233
93 79 233
93 78 233
92 78 233
92 77 233
91 77 233
91 76 233
90 75 233
90 75 233
89 74 233
89 74 233
88 73 233
87 72 233
87 72 233
86 71 233
86 71 233
85 70 233
85 70 233
84 69 233
84 68 233
83 68 233
83 67 233
82 67 233
82 66 233
81 65 233
81 65 233
80 64 233
80 64 233
79 63 233
78 63 233
78 62 233
77 61 233
77 61 233
76 60 233
76 60 233
75 59 233
75 58 233
74 58 233
74 57 233
73 57 233
73 56 233
72 56 233
72 55 233
71 54 233
71 54 233
70 53 233
69 53 233
69 52 233
68 51 233
68 51 233
67 50 233
67 50 233
66 49 233
66 49 233
65 48 233
65 47 233
64 47 233
64 46 233
63 46 233
63 45 233
62 44 233
62 44 233
61 43 233
60 43 233
60 42 233
59 41 233
59 41 233
58 40 233
58 40 233
57 39 233
57 39 233
56 38 233
56 37 233
55 37 233
55 36 233
54 36 233
54 35 233
53 34 233
53 34 233
52 33 233
51 33 233
51 32 233
50 32 233
50 31 233
49 30 233
49 30 233
48 29 233
48 29 233
47 28 233
47 27 233
46 27 233
46 26 233
45 26 233
45 25 233
44 25 233
44 24 233
43 23 233
42 23 233
42 22 233
41 22 233
41 21 233
40 20 233
40 20 233
39 19 233
39 19 233
38 18 233
38 18 233
37 17 233
37 16 233
36 16 233
36 15 233
35 15 233
35 14 233
34 13 233
33 13 233
33 12 233
32 12 233
32 11 233
31 11 233
31 10 233
30 9 233
30 9 233
29 8 233
29 8 233
28 7 233
28 6 233
27 6 233
27 5 233
26 5 233
25 4 233
25 4 233
24 3 233
24 2 233
23 2 233
23 1 233
22 1 233
22 0 233
232 232 232
231 231 232
231 231 232
230 230 232
230 230 232
229 229 232
229 228 232
228 228 232
228 227 232
227 227 232
227 226 232
226 226 232
226 225 232
225 224 232
225 224 232
224 223 232
224 223 232
223 222 232
223 221 232
222 221 232
221 220 232
221 220 232
220 219 232
220 219 232
219 218 232
219 217 232
218 217 232
218 216 232
217 216 232
217 215 232
216 214 232
216 214 232
215 213 232
215 213 232
214 212 232
214 212 232
213 211 232
213 210 232
212 210 232
212 209 232
211 209 232
210 208 232
210 208 232
209 207 232
209 206 232
208 206 232
208 205 232
207 205 232
207 204 232
206 203 232
206 203 232
205 202 232
205 202 232
204 201 232
204 201 232
203 200 232
203 199 232
202 199 232
202 198 232
201 198 232
201 197 232
200 196 232
199 196 232
199 195 232
198 195 232
198 194 232
197 194 232
197 193 232
196 192 232
196 192 232
195 191 232
195 191 232
194 190 232
194 190 232
193 189 232
193 188 232
192 188 232
192 187 232
191 187 232
191 186 232
190 185 232
190 185 232
189 184 232
188 184 232
188 183 232
187 183 232
187 182 232
186 181 232
186 181 232
185 180 232
185 180 232
184 179 232
184 178 232
183 178 232
183 177 232
182 177 232
182 176 232
181 176 232
181 175 232
180 174 232
180 174 232
179 173 232
179 173 232
178 172 232
177 171 232
177 171 232
176 170 232
176 170 232
175 169 232
175 169 232
174 168 232
174 167 232
173 167 232
173 166 232
172 166 232
172 165 232
171 165 232
171 164 232
170 163 232
170 163 232
169 162 232
169 162 232
168 161 232
168 160 232
167 160 232
166 159 232
166 159 232
165 158 232
165 158 232
164 157 232
164 156 232
163 156 232
163 155 232
162 155 232
162 154 232
161 153 232
161 153 232
160 152 232
160 152 232
159 151 232
159 151 232
158 150 232
158 149 232
157 149 232
157 148 232
156 148 232
156 147 232
155 146 232
154 146 232
154 145 232
153 145 232
153 144 232
152 144 232
152 143 232
151 142 232
151 142 232
150 141 232
150 141 232
149 140 232
149 140 232
148 139 232
148 138 232
147 138 232
147 137 232
146 137 232
146 136 232
145 135 232
145 135 232
144 134 232
143 134 232
143 133 232
142 133 232
142 132 232
141 131 232
141 131 232
140 130 232
140 130 232
139 129 232
139 128 232
138 128 232
138 127 232
137 127 232
137 126 232
136 126 232
136 125 232
135 124 232
135 124 232
134 123 232
134 123 232
133 122 232
132 121 232
132 121 232
131 120 232
131 120 232
130 119 232
130 119 232
129 118 232
129 117 232
128 117 232
128 116 232
127 116 232
127 115 232
126 115 232
126 114 232
125 113 232
125 113 232
124 112 232
124 112 232
123 111 232
123 110 232
122 110 232
121 109 232
121 109 232
120 108 232
120 108 232
119 107 232
119 106 232
118 106 232
118 105 232
117 105 232
117 104 232
116 103 232
116 103 232
115 102 232
115 102 232
114 101 232
114 101 232
113 100 232
113 99 232
112 99 232
112 98 232
111 98 232
110 97 232
110 96 232
109 96 232
109 95 232
108 95 232
108 94 232
107 94 232
107 93 232
106 92 232
106 92 232
105 91 232
105 91 232
104 90 232
104 90 232
103 89 232
103 88 232
102 88 232
102 87 232
101 87 232
101 86 232
100 85 232
99 85 232
99 84 232
98 84 232
98 83 232
97 83 232
97 82 232
96 81 232
96 81 232
95 80 232
95 80 232
94 79 232
94 78 232
93 78 232
93 77 232
92 77 232
92 76 232
91 76 232
91 75 232
90 74 232
90 74 232
89 73 232
89 73 232
88 72 232
87 71 232
87 71 232
86 70 232
86 70 232
85 69 232
85 69 232
84 68 232
84 67 232
83 67 232
83 66 232
82 66 232
82 65 232
81 65 232
81 64 232
80 63 232
80 63 232
79 62 232
79 62 232
78 61 232
78 60 232
77 60 232
76 59 232
76 59 232
75 58 232
75 58 232
74 57 232
74 56 232
73 56 232
73 55 232
72 55 232
72 54 232
71 53 232
71 53 232
70 52 232
70 52 232
69 51 232
69 51 232
68 50 232
68 49 232
67 49 232
67 48 232
66 48 232
65 47 232
65 47 232
64 46 232
64 45 232
63 45 232
63 44 232
62 44 232
62 43 232
61 42 232
61 42 232
60 41 232
60 41 232
59 40 232
59 40 232
58 39 232
58 38 232
57 38 232
57 37 232
56 37 232
56 36 232
55 35 232
54 35 232
54 34 232
53 34 232
53 33 232
52 33 232
52 32 232
51 31 232
51 31 232
50 30 232
50 30 232
49 29 232
49 28 232
48 28 232
48 27 232
47 27 232
47 26 232
46 26 232
46 25 232
45 24 232
45 24 232
44 23 232
43 23 232
43 22 232
42 22 232
42 21 232
41 20 232
41 20 232
40 19 232
40 19 232
39 18 232
39 17 232
38 17 232
38 16 232
37 16 232
37 15 232
36 15 232
36 14 232
35 13 232
35 13 232
34 12 232
34 12 232
33 11 232
32 10 232
32 10 232
31 9 232
31 9 232
30 8 232
30 8 232
29 7 232
29 6 232
28 6 232
28 5 232
27 5 232
27 4 232
26 3 232
26 3 232
25 2 232
25 2 232
24 1 232
24 1 232
23 0 232
231 231 231
230 230 231
230 229 231
229 229 231
229 228 231
228 228 231
228 227 231
227 227 231
227 226 231
226 225 231
225 225 231
225 224 231
224 224 231
224 223 231
223 223 231
223 222 231
222 221 231
222 221 231
221 220 231
221 220 231
220 219 231
220 219 231
219 218 231
219 217 231
218 217 231
218 216 231
217 216 231
217 215 231
216 214 231
216 214 231
215 213 231
215 213 231
214 212 231
214 212 231
213 211 231
213 210 231
212 210 231
212 209 231
211 209 231
210 208 231
210 208 231
209 207 231
209 206 231
208 206 231
208 205 231
207 205 231
207 204 231
206 203 231
206 203 231
205 202 231
205 202 231
204 201 231
204 201 231
203 200 231
203 199 231
202 199 231
202 198 231
201 198 231
201 197 231
200 197 231
200 196 231
199 195 231
199 195 231
198 194 231
198 194 231
197 193 231
197 193 231
196 192 231
195 191 231
195 191 231
194 190 231
194 190 231
193 189 231
193 188 231
192 188 231
192 187 231
191 187 231
191 186 231
190 186 231
190 185 231
189 184 231
189 184 231
188 183 231
188 183 231
187 182 231
187 182 231
186 181 231
186 180 231
185 180 231
185 179 231
184 179 231
184 178 231
183 177 231
183 177 231
182 176 231
182 176 231
181 175 231
180 175 231
180 174 231
179 173 231
179 173 231
178 172 231
178 172 231
177 171 231
177 171 231
176 170 231
176 169 231
175 169 231
175 168 231
174 168 231
174 167 231
173 166 231
173 166 231
172 165 231
172 165 231
171 164 231
171 164 231
170 163 231
170 162 231
169 162 231
169 161 231
168 161 231
168 160 231
167 160 231
167 159 231
166 158 231
166 158 231
165 157 231
164 157 231
164 156 231
163 156 231
163 155 231
162 154 231
162 154 231
161 153 231
161 153 231
160 152 231
160 151 231
159 151 231
159 150 231
158 150 231
158 149 231
157 149 231
157 148 231
156 147 231
156 147 231
155 146 231
155 146 231
154 145 231
154 145 231
153 144 231
153 143 231
152 143 231
152 142 231
151 142 231
151 141 231
150 140 231
149 140 231
149 139 231
148 139 231
148 138 231
147 138 231
147 137 231
146 136 231
146 136 231
145 135 231
145 135 231
144 134 231
144 134 231
143 133 231
143 132 231
142 132 231
142 131 231
141 131 231
141 130 231
140 129 231
140 129 231
139 128 231
139 128 231
138 127 231
138 127 231
137 126 231
137 125 231
136 125 231
136 124 231
135 124 231
134 123 231
134 123 231
133 122 231
133 121 231
132 121 231
132 120 231
131 120 231
131 119 231
130 119 231
130 118 231
129 117 231
129 117 231
128 116 231
128 116 231
127 115 231
127 114 231
126 114 231
126 113 231
125 113 231
125 112 231
124 112 231
124 111 231
123 110 231
123 110 231
122 109 231
122 109 231
121 108 231
121 108 231
120 107 231
119 106 231
119 106 231
118 105 231
118 105 231
117 104 231
117 103 231
116 103 231
116 102 231
115 102 231
115 101 231
114 101 231
114 100 231
113 99 231
113 99 231
112 98 231
112 98 231
111 97 231
111 97 231
110 96 231
110 95 231
109 95 231
109 94 231
108 94 231
108 93 231
107 92 231
107 92 231
106 91 231
106 91 231
105 90 231
104 90 231
104 89 231
103 88 231
103 88 231
102 87 231
102 87 231
101 86 231
101 86 231
100 85 231
100 84 231
99 84 231
99 83 231
98 83 231
98 82 231
97 82 231
97 81 231
96 80 231
96 80 231
95 79 231
95 79 231
94 78 231
94 77 231
93 77 231
93 76 231
92 76 231
92 75 231
91 75 231
91 74 231
90 73 231
89 73 231
89 72 231
88 72 231
88 71 231
87 71 231
87 70 231
86 69 231
86 69 231
85 68 231
85 68 231
84 67 231
84 66 231
83 66 231
83 65 231
82 65 231
82 64 231
81 64 231
81 63 231
80 62 231
80 62 231
79 61 231
79 61 231
78 60 231
78 60 231
77 59 231
77 58 231
76 58 231
76 57 231
75 57 231
75 56 231
74 55 231
73 55 231
73 54 231
72 54 231
72 53 231
71 53 231
71 52 231
70 51 231
70 51 231
69 50 231
69 50 231
68 49 231
68 49 231
67 48 231
67 47 231
66 47 231
66 46 231
65 46 231
65 45 231
64 45 231
64 44 231
63 43 231
63 43 231
62 42 231
62 42 231
61 41 231
61 40 231
60 40 231
60 39 231
59 39 231
58 38 231
58 38 231
57 37 231
57 36 231
56 36 231
56 35 231
55 35 231
55 34 231
54 34 231
54 33 231
53 32 231
53 32 231
52 31 231
52 31 231
51 30 231
51 29 231
50 29 231
50 28 231
49 28 231
49 27 231
48 27 231
48 26 231
47 25 231
47 25 231
46 24 231
46 24 231
45 23 231
45 23 231
44 22 231
43 21 231
43 21 231
42 20 231
42 20 231
41 19 231
41 18 231
40 18 231
40 17 231
39 17 231
39 16 231
38 16 231
38 15 231
37 14 231
37 14 231
36 13 231
36 13 231
35 12 231
35 12 231
34 11 231
34 10 231
33 10 231
33 9 231
32 9 231
32 8 231
31 8 231
31 7 231
30 6 231
30 6 231
29 5 231
28 5 231
28 4 231
27 3 231
27 3 231
26 2 231
26 2 231
25 1 231
25 1 231
24 0 231
229 229 229
229 229 229
228 228 229
228 228 229
227 227 229
227 226 229
226 226 229
226 225 229
225 225 229
225 224 229
224 224 229
224 223 229
223 222 229
223 222 229
222 221 229
222 221 229
221 220 229
221 220 229
220 219 229
220 218 229
219 218 229
219 217 229
218 217 229
218 216 229
217 216 229
217 215 229
216 214 229
216 214 229
215 213 229
215 213 229
214 212 229
214 212 229
213 211 229
213 210 229
212 210 229
211 209 229
211 209 229
210 208 229
210 208 229
209 207 229
209 206 229
208 206 229
208 205 229
207 205 229
207 204 229
206 204 229
206 203 229
205 202 229
205 202 229
204 201 229
204 201 229
203 200 229
203 199 229
202 199 229
202 198 229
201 198 229
201 197 229
200 197 229
200 196 229
199 195 229
199 195 229
198 194 229
198 194 229
197 193 229
197 193 229
196 192 229
196 191 229
195 191 229
195 190 229
194 190 229
194 189 229
193 189 229
193 188 229
192 187 229
192 187 229
191 186 229
191 186 229
190 185 229
190 185 229
189 184 229
189 183 229
188 183 229
187 182 229
187 182 229
186 181 229
186 181 229
185 180 229
185 179 229
184 179 229
184 178 229
183 178 229
183 177 229
182 176 229
182 176 229
181 175 229
181 175 229
180 174 229
180 174 229
179 173 229
179 172 229
178 172 229
178 171 229
177 171 229
177 170 229
176 170 229
176 169 229
175 168 229
175 168 229
174 167 229
174 167 229
173 166 229
173 166 229
172 165 229
172 164 229
171 164 229
171 163 229
170 163 229
170 162 229
169 162 229
169 161 229
168 160 229
168 160 229
167 159 229
167 159 229
166 158 229
166 158 229
165 157 229
165 156 229
164 156 229
163 155 229
163 155 229
162 154 229
162 153 229
161 153 229
161 152 229
160 152 229
160 151 229
159 151 229
159 150 229
158 149 229
158 149 229
157 148 229
157 148 229
156 147 229
156 147 229
155 146 229
155 145 229
154 145 229
154 144 229
153 144 229
153 143 229
152 143 229
152 142 229
151 141 229
151 141 229
150 140 229
150 140 229
149 139 229
149 139 229
148 138 229
148 137 229
147 137 229
147 136 229
146 136 229
146 135 229
145 135 229
145 134 229
144 133 229
144 133 229
143 132 229
143 132 229
142 131 229
142 130 229
141 130 229
141 129 229
140 129 229
139 128 229
139 128 229
138 127 229
138 126 229
137 126 229
137 125 229
136 125 229
136 124 229
135 124 229
135 123 229
134 122 229
134 122 229
133 121 229
133 121 229
132 120 229
132 120 229
131 119 229
131 118 229
130 118 229
130 117 229
129 117 229
129 116 229
128 116 229
128 115 229
127 114 229
127 114 229
126 113 229
126 113 229
125 112 229
125 112 229
124 111 229
124 110 229
123 110 229
123 109 229
122 109 229
122 108 229
121 108 229
121 107 229
120 106 229
120 106 229
119 105 229
119 105 229
118 104 229
118 103 229
117 103 229
117 102 229
116 102 229
116 101 229
115 101 229
114 100 229
114 99 229
113 99 229
113 98 229
112 98 229
112 97 229
111 97 229
111 96 229
110 95 229
110 95 229
109 94 229
109 94 229
108 93 229
108 93 229
107 92 229
107 91 229
106 91 229
106 90 229
105 90 229
105 89 229
104 89 229
104 88 229
103 87 229
103 87 229
102 86 229
102 86 229
101 85 229
101 85 229
100 84 229
100 83 229
99 83 229
99 82 229
98 82 229
98 81 229
97 80 229
97 80 229
96 79 229
96 79 229
95 78 229
95 78 229
94 77 229
94 76 229
93 76 229
93 75 229
92 75 229
92 74 229
91 74 229
90 73 229
90 72 229
89 72 229
89 71 229
88 71 229
88 70 229
87 70 229
87 69 229
86 68 229
86 68 229
85 67 229
85 67 229
84 66 229
84 66 229
83 65 229
83 64 229
82 64 229
82 63 229
81 63 229
81 62 229
80 62 229
80 61 229
79 60 229
79 60 229
78 59 229
78 59 229
77 58 229
77 57 229
76 57 229
76 56 229
75 56 229
75 55 229
74 55 229
74 54 229
73 53 229
73 53 229
72 52 229
72 52 229
71 51 229
71 51 229
70 50 229
70 49 229
69 49 229
69 48 229
68 48 229
68 47 229
67 47 229
66 46 229
66 45 229
65 45 229
65 44 229
64 44 229
64 43 229
63 43 229
63 42 229
62 41 229
62 41 229
61 40 229
61 40 229
60 39 229
60 39 229
59 38 229
59 37 229
58 37 229
58 36 229
57 36 229
57 35 229
56 34 229
56 34 229
55 33 229
55 33 229
54 32 229
54 32 229
53 31 229
53 30 229
52 30 229
52 29 229
51 29 229
51 28 229
50 28 229
50 27 229
49 26 229
49 26 229
48 25 229
48 25 229
47 24 229
47 24 229
46 23 229
46 22 229
45 22 229
45 21 229
44 21 229
44 20 229
43 20 229
42 19 229
42 18 229
41 18 229
41 17 229
40 17 229
40 16 229
39 16 229
39 15 229
38 14 229
38 14 229
37 13 229
37 13 229
36 12 229
36 11 229
35 11 229
35 10 229
34 10 229
34 9 229
33 9 229
33 8 229
32 7 229
32 7 229
31 6 229
31 6 229
30 5 229
30 5 229
29 4 229
29 3 229
28 3 229
28 2 229
27 2 229
27 1 229
26 1 229
26 0 229
228 228 228
228 228 228
227 227 228
227 226 228
226 226 228
226 225 228
225 225 228
225 224 228
224 224 228
224 223 228
223 222 228
223 222 228
222 221 228
222 221 228
221 220 228
221 220 228
220 219 228
220 218 228
219 218 228
219 217 228
218 217 228
218 216 228
217 216 228
216 215 228
216 214 228
215 214 228
215 213 228
214 213 228
214 212 228
213 212 228
213 211 228
212 210 228
212 210 228
211 209 228
211 209 228
210 208 228
210 208 228
209 207 228
209 206 228
208 206 228
208 205 228
207 205 228
207 204 228
206 204 228
206 203 228
205 202 228
205 202 228
204 201 228
204 201 228
203 200 228
203 200 228
202 199 228
202 198 228
201 198 228
201 197 228
200 197 228
200 196 228
199 196 228
199 195 228
198 194 228
198 194 228
197 193 228
197 193 228
196 192 228
196 192 228
195 191 228
195 190 228
194 190 228
194 189 228
193 189 228
193 188 228
192 188 228
192 187 228
191 186 228
191 186 228
190 185 228
190 185 228
189 184 228
189 184 228
188 183 228
188 182 228
187 182 228
187 181 228
186 181 228
186 180 228
185 179 228
185 179 228
184 178 228
184 178 228
183 177 228
183 177 228
182 176 228
182 175 228
181 175 228
181 174 228
180 174 228
180 173 228
179 173 228
179 172 228
178 171 228
178 171 228
177 170 228
177 170 228
176 169 228
176 169 228
175 168 228
175 167 228
174 167 228
174 166 228
173 166 228
173 165 228
172 165 228
172 164 228
171 163 228
171 163 228
170 162 228
170 162 228
169 161 228
169 161 228
168 160 228
168 159 228
167 159 228
167 158 228
166 158 228
166 157 228
165 157 228
165 156 228
164 155 228
164 155 228
163 154 228
163 154 228
162 153 228
162 153 228
161 152 228
161 151 228
160 151 228
160 150 228
159 150 228
159 149 228
158 149 228
158 148 228
157 147 228
156 147 228
156 146 228
155 146 228
155 145 228
154 145 228
154 144 228
153 143 228
153 143 228
152 142 228
152 142 228
151 141 228
151 141 228
150 140 228
150 139 228
149 139 228
149 138 228
148 138 228
148 137 228
147 137 228
147 136 228
146 135 228
146 135 228
145 134 228
145 134 228
144 133 228
144 133 228
143 132 228
143 131 228
142 131 228
142 130 228
141 130 228
141 129 228
140 129 228
140 128 228
139 127 228
139 127 228
138 126 228
138 126 228
137 125 228
137 125 228
136 124 228
136 123 228
135 123 228
135 122 228
134 122 228
134 121 228
133 121 228
133 120 228
132 119 228
132 119 228
131 118 228
131 118 228
130 117 228
130 117 228
129 116 228
129 115 228
128 115 228
128 114 228
127 114 228
127 113 228
126 113 228
126 112 228
125 111 228
125 111 228
124 110 228
124 110 228
123 109 228
123 109 228
122 108 228
122 107 228
121 107 228
121 106 228
120 106 228
120 105 228
119 105 228
119 104 228
118 103 228
118 103 228
117 102 228
117 102 228
116 101 228
116 101 228
115 100 228
115 99 228
114 99 228
114 98 228
113 98 228
113 97 228
112 97 228
112 96 228
111 95 228
111 95 228
110 94 228
110 94 228
109 93 228
109 93 228
108 92 228
108 91 228
107 91 228
107 90 228
106 90 228
106 89 228
105 89 228
105 88 228
104 87 228
104 87 228
103 86 228
103 86 228
102 85 228
102 85 228
101 84 228
101 83 228
100 83 228
100 82 228
99 82 228
99 81 228
98 81 228
97 80 228
97 79 228
96 79 228
96 78 228
95 78 228
95 77 228
94 77 228
94 76 228
93 75 228
93 75 228
92 74 228
92 74 228
91 73 228
91 73 228
90 72 228
90 71 228
89 71 228
89 70 228
88 70 228
88 69 228
87 69 228
87 68 228
86 67 228
86 67 228
85 66 228
85 66 228
84 65 228
84 65 228
83 64 228
83 63 228
82 63 228
82 62 228
81 62 228
81 61 228
80 61 228
80 60 228
79 59 228
79 59 228
78 58 228
78 58 228
77 57 228
77 57 228
76 56 228
76 55 228
75 55 228
75 54 228
74 54 228
74 53 228
73 53 228
73 52 228
72 51 228
72 51 228
71 50 228
71 50 228
70 49 228
70 49 228
69 48 228
69 47 228
68 47 228
68 46 228
67 46 228
67 45 228
66 45 228
66 44 228
65 43 228
65 43 228
64 42 228
64 42 228
63 41 228
63 41 228
62 40 228
62 39 228
61 39 228
61 38 228
60 38 228
60 37 228
59 37 228
59 36 228
58 35 228
58 35 228
57 34 228
57 34 228
56 33 228
56 33 228
55 32 228
55 31 228
54 31 228
54 30 228
53 30 228
53 29 228
52 29 228
52 28 228
51 27 228
51 27 228
50 26 228
50 26 228
49 25 228
49 25 228
48 24 228
48 23 228
47 23 228
47 22 228
46 22 228
46 21 228
45 21 228
45 20 228
44 19 228
44 19 228
43 18 228
43 18 228
42 17 228
42 17 228
41 16 228
41 15 228
40 15 228
40 14 228
39 14 228
39 13 228
38 13 228
37 12 228
37 11 228
36 11 228
36 10 228
35 10 228
35 9 228
34 9 228
34 8 228
33 7 228
33 7 228
32 6 228
32 6 228
31 5 228
31 5 228
30 4 228
30 3 228
29 3 228
29 2 228
28 2 228
28 1 228
27 1 228
27 0 228
227 227 227
226 226 227
226 226 227
225 225 227
225 225 227
224 224 227
224 223 227
223 223 227
223 222 227
222 222 227
222 221 227
221 221 227
221 220 227
220 219 227
220 219 227
219 218 227
219 218 227
218 217 227
218 217 227
217 216 227
217 215 227
216 215 227
216 214 227
215 214 227
215 213 227
214 213 227
214 212 227
213 211 227
213 211 227
212 210 227
212 210 227
211 209 227
211 209 227
210 208 227
210 207 227
209 207 227
209 206 227
208 206 227
208 205 227
207 205 227
207 204 227
206 204 227
206 203 227
205 202 227
205 202 227
204 201 227
204 201 227
203 200 227
203 200 227
202 199 227
202 198 227
201 198 227
201 197 227
200 197 227
200 196 227
199 196 227
199 195 227
198 194 227
198 194 227
197 193 227
197 193 227
196 192 227
196 192 227
195 191 227
195 190 227
194 190 227
194 189 227
193 189 227
193 188 227
192 188 227
192 187 227
191 186 227
191 186 227
190 185 227
190 185 227
189 184 227
189 184 227
188 183 227
188 182 227
187 182 227
187 181 227
186 181 227
186 180 227
185 180 227
185 179 227
184 178 227
184 178 227
184 177 227
183 177 227
183 176 227
182 176 227
182 175 227
181 175 227
181 174 227
180 173 227
180 173 227
179 172 227
179 172 227
178 171 227
178 171 227
177 170 227
177 169 227
176 169 227
176 168 227
175 168 227
175 167 227
174 167 227
174 166 227
173 165 227
173 165 227
172 164 227
172 164 227
171 163 227
171 163 227
170 162 227
170 161 227
169 161 227
169 160 227
168 160 227
168 159 227
167 159 227
167 158 227
166 157 227
166 157 227
165 156 227
165 156 227
164 155 227
164 155 227
163 154 227
163 153 227
162 153 227
162 152 227
161 152 227
161 151 227
160 151 227
160 150 227
159 150 227
159 149 227
158 148 227
158 148 227
157 147 227
157 147 227
156 146 227
156 146 227
155 145 227
155 144 227
154 144 227
154 143 227
153 143 227
153 142 227
152 142 227
152 141 227
151 140 227
151 140 227
150 139 227
150 139 227
149 138 227
149 138 227
148 137 227
148 136 227
147 136 227
147 135 227
146 135 227
146 134 227
145 134 227
145 133 227
144 132 227
144 132 227
143 131 227
143 131 227
142 130 227
142 130 227
141 129 227
141 128 227
140 128 227
140 127 227
139 127 227
139 126 227
138 126 227
138 125 227
137 124 227
137 124 227
136 123 227
136 123 227
135 122 227
135 122 227
134 121 227
134 121 227
133 120 227
133 119 227
132 119 227
132 118 227
131 118 227
131 117 227
130 117 227
130 116 227
129 115 227
129 115 227
128 114 227
128 114 227
127 113 227
127 113 227
126 112 227
126 111 227
125 111 227
125 110 227
124 110 227
124 109 227
123 109 227
123 108 227
122 107 227
122 107 227
121 106 227
121 106 227
120 105 227
120 105 227
119 104 227
119 103 227
118 103 227
118 102 227
117 102 227
117 101 227
116 101 227
116 100 227
115 99 227
115 99 227
114 98 227
114 98 227
113 97 227
113 97 227
112 96 227
112 95 227
111 95 227
111 94 227
110 94 227
110 93 227
109 93 227
109 92 227
108 92 227
108 91 227
107 90 227
107 90 227
106 89 227
106 89 227
105 88 227
105 88 227
104 87 227
104 86 227
103 86 227
103 85 227
102 85 227
102 84 227
101 84 227
101 83 227
100 82 227
100 82 227
99 81 227
99 81 227
98 80 227
98 80 227
97 79 227
97 78 227
96 78 227
96 77 227
95 77 227
95 76 227
94 76 227
94 75 227
93 74 227
93 74 227
92 73 227
92 73 227
91 72 227
91 72 227
90 71 227
90 70 227
89 70 227
89 69 227
88 69 227
88 68 227
87 68 227
87 67 227
86 67 227
86 66 227
85 65 227
85 65 227
84 64 227
84 64 227
83 63 227
83 63 227
82 62 227
82 61 227
81 61 227
81 60 227
80 60 227
80 59 227
79 59 227
79 58 227
78 57 227
78 57 227
77 56 227
77 56 227
76 55 227
76 55 227
75 54 227
75 53 227
74 53 227
74 52 227
73 52 227
73 51 227
72 51 227
72 50 227
71 49 227
71 49 227
71 48 227
70 48 227
70 47 227
69 47 227
69 46 227
68 45 227
68 45 227
67 44 227
67 44 227
66 43 227
66 43 227
65 42 227
65 41 227
64 41 227
64 40 227
63 40 227
63 39 227
62 39 227
62 38 227
61 38 227
61 37 227
60 36 227
60 36 227
59 35 227
59 35 227
58 34 227
58 34 227
57 33 227
57 32 227
56 32 227
56 31 227
55 31 227
55 30 227
54 30 227
54 29 227
53 28 227
53 28 227
52 27 227
52 27 227
51 26 227
51 26 227
50 25 227
50 24 227
49 24 227
49 23 227
48 23 227
48 22 227
47 22 227
47 21 227
46 20 227
46 20 227
45 19 227
45 19 227
44 18 227
44 18 227
43 17 227
43 16 227
42 16 227
42 15 227
41 15 227
41 14 227
40 14 227
40 13 227
39 13 227
39 12 227
38 11 227
38 11 227
37 10 227
37 10 227
36 9 227
36 9 227
35 8 227
35 7 227
34 7 227
34 6 227
33 6 227
33 5 227
32 5 227
32 4 227
31 3 227
31 3 227
30 2 227
30 2 227
29 1 227
29 1 227
28 0 227
226 226 226
225 225 226
225 224 226
224 224 226
224 223 226
223 223 226
223 222 226
222 222 226
222 221 226
221 220 226
221 220 226
220 219 226
220 219 226
219 218 226
219 218 226
218 217 226
218 216 226
217 216 226
217 215 226
216 215 226
216 214 226
215 214 226
215 213 226
214 213 226
214 212 226
213 211 226
213 211 226
212 210 226
212 210 226
211 209 226
211 209 226
210 208 226
210 207 226
209 207 226
209 206 226
208 206 226
208 205 226
207 205 226
207 204 226
206 203 226
206 203 226
205 202 226
205 202 226
204 201 226
204 201 226
203 200 226
203 200 226
202 199 226
202 198 226
201 198 226
201 197 226
200 197 226
200 196 226
199 196 226
199 195 226
199 194 226
198 194 226
198 193 226
197 193 226
197 192 226
196 192 226
196 191 226
195 190 226
195 190 226
194 189 226
194 189 226
193 188 226
193 188 226
192 187 226
192 187 226
191 186 226
191 185 226
190 185 226
190 184 226
189 184 226
189 183 226
188 183 226
188 182 226
187 181 226
187 181 226
186 180 226
186 180 226
185 179 226
185 179 226
184 178 226
184 177 226
183 177 226
183 176 226
182 176 226
182 175 226
181 175 226
181 174 226
180 174 226
180 173 226
179 172 226
179 172 226
178 171 226
178 171 226
177 170 226
177 170 226
176 169 226
176 168 226
175 168 226
175 167 226
174 167 226
174 166 226
173 166 226
173 165 226
172 164 226
172 164 226
171 163 226
171 163 226
170 162 226
170 162 226
170 161 226
169 161 226
169 160 226
168 159 226
168 159 226
167 158 226
167 158 226
166 157 226
166 157 226
165 156 226
165 155 226
164 155 226
164 154 226
163 154 226
163 153 226
162 153 226
162 152 226
161 151 226
161 151 226
160 150 226
160 150 226
159 149 226
159 149 226
158 148 226
158 148 226
157 147 226
157 146 226
156 146 226
156 145 226
155 145 226
155 144 226
154 144 226
154 143 226
153 142 226
153 142 226
152 141 226
152 141 226
151 140 226
151 140 226
150 139 226
150 138 226
149 138 226
149 137 226
148 137 226
148 136 226
147 136 226
147 135 226
146 135 226
146 134 226
145 133 226
145 133 226
144 132 226
144 132 226
143 131 226
143 131 226
142 130 226
142 129 226
142 129 226
141 128 226
141 128 226
140 127 226
140 127 226
139 126 226
139 125 226
138 125 226
138 124 226
137 124 226
137 123 226
136 123 226
136 122 226
135 122 226
135 121 226
134 120 226
134 120 226
133 119 226
133 119 226
132 118 226
132 118 226
131 117 226
131 116 226
130 116 226
130 115 226
129 115 226
129 114 226
128 114 226
128 113 226
127 112 226
127 112 226
126 111 226
126 111 226
125 110 226
125 110 226
124 109 226
124 109 226
123 108 226
123 107 226
122 107 226
122 106 226
121 106 226
121 105 226
120 105 226
120 104 226
119 103 226
119 103 226
118 102 226
118 102 226
117 101 226
117 101 226
116 100 226
116 99 226
115 99 226
115 98 226
114 98 226
114 97 226
113 97 226
113 96 226
113 96 226
112 95 226
112 94 226
111 94 226
111 93 226
110 93 226
110 92 226
109 92 226
109 91 226
108 90 226
108 90 226
107 89 226
107 89 226
106 88 226
106 88 226
105 87 226
105 86 226
104 86 226
104 85 226
103 85 226
103 84 226
102 84 226
102 83 226
101 83 226
101 82 226
100 81 226
100 81 226
99 80 226
99 80 226
98 79 226
98 79 226
97 78 226
97 77 226
96 77 226
96 76 226
95 76 226
95 75 226
94 75 226
94 74 226
93 73 226
93 73 226
92 72 226
92 72 226
91 71 226
91 71 226
90 70 226
90 70 226
89 69 226
89 68 226
88 68 226
88 67 226
87 67 226
87 66 226
86 66 226
86 65 226
85 64 226
85 64 226
85 63 226
84 63 226
84 62 226
83 62 226
83 61 226
82 60 226
82 60 226
81 59 226
81 59 226
80 58 226
80 58 226
79 57 226
79 57 226
78 56 226
78 55 226
77 55 226
77 54 226
76 54 226
76 53 226
75 53 226
75 52 226
74 51 226
74 51 226
73 50 226
73 50 226
72 49 226
72 49 226
71 48 226
71 47 226
70 47 226
70 46 226
69 46 226
69 45 226
68 45 226
68 44 226
67 44 226
67 43 226
66 42 226
66 42 226
65 41 226
65 41 226
64 40 226
64 40 226
63 39 226
63 38 226
62 38 226
62 37 226
61 37 226
61 36 226
60 36 226
60 35 226
59 34 226
59 34 226
58 33 226
58 33 226
57 32 226
57 32 226
56 31 226
56 31 226
56 30 226
55 29 226
55 29 226
54 28 226
54 28 226
53 27 226
53 27 226
52 26 226
52 25 226
51 25 226
51 24 226
50 24 226
50 23 226
49 23 226
49 22 226
48 21 226
48 21 226
47 20 226
47 20 226
46 19 226
46 19 226
45 18 226
45 18 226
44 17 226
44 16 226
43 16 226
43 15 226
42 15 226
42 14 226
41 14 226
41 13 226
40 12 226
40 12 226
39 11 226
39 11 226
38 10 226
38 10 226
37 9 226
37 8 226
36 8 226
36 7 226
35 7 226
35 6 226
34 6 226
34 5 226
33 5 226
33 4 226
32 3 226
32 3 226
31 2 226
31 2 226
30 1 226
30 1 226
29 0 226
224 224 224
224 224 224
223 223 224
223 223 224
222 222 224
222 221 224
221 221 224
221 220 224
220 220 224
220 219 224
219 219 224
219 218 224
218 218 224
218 217 224
217 216 224
217 216 224
216 215 224
216 215 224
216 214 224
215 214 224
215 213 224
214 212 224
214 212 224
213 211 224
213 211 224
212 210 224
212 210 224
211 209 224
211 209 224
210 208 224
210 207 224
209 207 224
209 206 224
208 206 224
208 205 224
207 205 224
207 204 224
206 203 224
206 203 224
205 202 224
205 202 224
204 201 224
204 201 224
203 200 224
203 200 224
202 199 224
202 198 224
201 198 224
201 197 224
200 197 224
200 196 224
200 196 224
199 195 224
199 194 224
198 194 224
198 193 224
197 193 224
197 192 224
196 192 224
196 191 224
195 191 224
195 190 224
194 189 224
194 189 224
193 188 224
193 188 224
192 187 224
192 187 224
191 186 224
191 185 224
190 185 224
190 184 224
189 184 224
189 183 224
188 183 224
188 182 224
187 182 224
187 181 224
186 180 224
186 180 224
185 179 224
185 179 224
184 178 224
184 178 224
184 177 224
183 176 224
183 176 224
182 175 224
182 175 224
181 174 224
181 174 224
180 173 224
180 173 224
179 172 224
179 171 224
178 171 224
178 170 224
177 170 224
177 169 224
176 169 224
176 168 224
175 167 224
175 167 224
174 166 224
174 166 224
173 165 224
173 165 224
172 164 224
172 164 224
171 163 224
171 162 224
170 162 224
170 161 224
169 161 224
169 160 224
168 160 224
168 159 224
168 158 224
167 158 224
167 157 224
166 157 224
166 156 224
165 156 224
165 155 224
164 155 224
164 154 224
163 153 224
163 153 224
162 152 224
162 152 224
161 151 224
161 151 224
160 150 224
160 149 224
159 149 224
159 148 224
158 148 224
158 147 224
157 147 224
157 146 224
156 146 224
156 145 224
155 144 224
155 144 224
154 143 224
154 143 224
153 142 224
153 142 224
152 141 224
152 141 224
152 140 224
151 139 224
151 139 224
150 138 224
150 138 224
149 137 224
149 137 224
148 136 224
148 135 224
147 135 224
147 134 224
146 134 224
146 133 224
145 133 224
145 132 224
144 132 224
144 131 224
143 130 224
143 130 224
142 129 224
142 129 224
141 128 224
141 128 224
140 127 224
140 126 224
139 126 224
139 125 224
138 125 224
138 124 224
137 124 224
137 123 224
136 123 224
136 122 224
136 121 224
135 121 224
135 120 224
134 120 224
134 119 224
133 119 224
133 118 224
132 117 224
132 117 224
131 116 224
131 116 224
130 115 224
130 115 224
129 114 224
129 114 224
128 113 224
128 112 224
127 112 224
127 111 224
126 111 224
126 110 224
125 110 224
125 109 224
124 108 224
124 108 224
123 107 224
123 107 224
122 106 224
122 106 224
121 105 224
121 105 224
120 104 224
120 103 224
119 103 224
119 102 224
119 102 224
118 101 224
118 101 224
117 100 224
117 99 224
116 99 224
116 98 224
115 98 224
115 97 224
114 97 224
114 96 224
113 96 224
113 95 224
112 94 224
112 94 224
111 93 224
111 93 224
110 92 224
110 92 224
109 91 224
109 90 224
108 90 224
108 89 224
107 89 224
107 88 224
106 88 224
106 87 224
105 87 224
105 86 224
104 85 224
104 85 224
103 84 224
103 84 224
103 83 224
102 83 224
102 82 224
101 81 224
101 81 224
100 80 224
100 80 224
99 79 224
99 79 224
98 78 224
98 78 224
97 77 224
97 76 224
96 76 224
96 75 224
95 75 224
95 74 224
94 74 224
94 73 224
93 73 224
93 72 224
92 71 224
92 71 224
91 70 224
91 70 224
90 69 224
90 69 224
89 68 224
89 67 224
88 67 224
88 66 224
87 66 224
87 65 224
87 65 224
86 64 224
86 64 224
85 63 224
85 62 224
84 62 224
84 61 224
83 61 224
83 60 224
82 60 224
82 59 224
81 58 224
81 58 224
80 57 224
80 57 224
79 56 224
79 56 224
78 55 224
78 55 224
77 54 224
77 53 224
76 53 224
76 52 224
75 52 224
75 51 224
74 51 224
74 50 224
73 49 224
73 49 224
72 48 224
72 48 224
71 47 224
71 47 224
71 46 224
70 46 224
70 45 224
69 44 224
69 44 224
68 43 224
68 43 224
67 42 224
67 42 224
66 41 224
66 40 224
65 40 224
65 39 224
64 39 224
64 38 224
63 38 224
63 37 224
62 37 224
62 36 224
61 35 224
61 35 224
60 34 224
60 34 224
59 33 224
59 33 224
58 32 224
58 31 224
57 31 224
57 30 224
56 30 224
56 29 224
55 29 224
55 28 224
55 28 224
54 27 224
54 26 224
53 26 224
53 25 224
52 25 224
52 24 224
51 24 224
51 23 224
50 22 224
50 22 224
49 21 224
49 21 224
48 20 224
48 20 224
47 19 224
47 19 224
46 18 224
46 17 224
45 17 224
45 16 224
44 16 224
44 15 224
43 15 224
43 14 224
42 13 224
42 13 224
41 12 224
41 12 224
40 11 224
40 11 224
39 10 224
39 10 224
39 9 224
38 8 224
38 8 224
37 7 224
37 7 224
36 6 224
36 6 224
35 5 224
35 4 224
34 4 224
34 3 224
33 3 224
33 2 224
32 2 224
32 1 224
31 1 224
31 0 224
223 223 223
222 222 223
222 222 223
222 221 223
221 221 223
221 220 223
220 220 223
220 219 223
219 218 223
219 218 223
218 217 223
218 217 223
217 216 223
217 216 223
216 215 223
216 215 223
215 214 223
215 213 223
214 213 223
214 212 223
213 212 223
213 211 223
212 211 223
212 210 223
211 210 223
211 209 223
211 208 223
210 208 223
210 207 223
209 207 223
209 206 223
208 206 223
208 205 223
207 205 223
207 204 223
206 203 223
206 203 223
205 202 223
205 202 223
204 201 223
204 201 223
203 200 223
203 199 223
202 199 223
202 198 223
201 198 223
201 197 223
200 197 223
200 196 223
200 196 223
199 195 223
199 194 223
198 194 223
198 193 223
197 193 223
197 192 223
196 192 223
196 191 223
195 191 223
195 190 223
194 189 223
194 189 223
193 188 223
193 188 223
192 187 223
192 187 223
191 186 223
191 186 223
190 185 223
190 184 223
189 184 223
189 183 223
189 183 223
188 182 223
188 182 223
187 181 223
187 180 223
186 180 223
186 179 223
185 179 223
185 178 223
184 178 223
184 177 223
183 177 223
183 176 223
182 175 223
182 175 223
181 174 223
181 174 223
180 173 223
180 173 223
179 172 223
179 172 223
178 171 223
178 170 223
178 170 223
177 169 223
177 169 223
176 168 223
176 168 223
175 167 223
175 167 223
174 166 223
174 165 223
173 165 223
173 164 223
172 164 223
172 163 223
171 163 223
171 162 223
170 161 223
170 161 223
169 160 223
169 160 223
168 159 223
168 159 223
167 158 223
167 158 223
166 157 223
166 156 223
166 156 223
165 155 223
165 155 223
164 154 223
164 154 223
163 153 223
163 153 223
162 152 223
162 151 223
161 151 223
161 150 223
160 150 223
160 149 223
159 149 223
159 148 223
158 148 223
158 147 223
157 146 223
157 146 223
156 145 223
156 145 223
155 144 223
155 144 223
155 143 223
154 142 223
154 142 223
153 141 223
153 141 223
152 140 223
152 140 223
151 139 223
151 139 223
150 138 223
150 137 223
149 137 223
149 136 223
148 136 223
148 135 223
147 135 223
147 134 223
146 134 223
146 133 223
145 132 223
145 132 223
144 131 223
144 131 223
144 130 223
143 130 223
143 129 223
142 129 223
142 128 223
141 127 223
141 127 223
140 126 223
140 126 223
139 125 223
139 125 223
138 124 223
138 123 223
137 123 223
137 122 223
136 122 223
136 121 223
135 121 223
135 120 223
134 120 223
134 119 223
133 118 223
133 118 223
133 117 223
132 117 223
132 116 223
131 116 223
131 115 223
130 115 223
130 114 223
129 113 223
129 113 223
128 112 223
128 112 223
127 111 223
127 111 223
126 110 223
126 110 223
125 109 223
125 108 223
124 108 223
124 107 223
123 107 223
123 106 223
122 106 223
122 105 223
122 104 223
121 104 223
121 103 223
120 103 223
120 102 223
119 102 223
119 101 223
118 101 223
118 100 223
117 99 223
117 99 223
116 98 223
116 98 223
115 97 223
115 97 223
114 96 223
114 96 223
113 95 223
113 94 223
112 94 223
112 93 223
111 93 223
111 92 223
111 92 223
110 91 223
110 91 223
109 90 223
109 89 223
108 89 223
108 88 223
107 88 223
107 87 223
106 87 223
106 86 223
105 85 223
105 85 223
104 84 223
104 84 223
103 83 223
103 83 223
102 82 223
102 82 223
101 81 223
101 80 223
100 80 223
100 79 223
100 79 223
99 78 223
99 78 223
98 77 223
98 77 223
97 76 223
97 75 223
96 75 223
96 74 223
95 74 223
95 73 223
94 73 223
94 72 223
93 72 223
93 71 223
92 70 223
92 70 223
91 69 223
91 69 223
90 68 223
90 68 223
89 67 223
89 66 223
89 66 223
88 65 223
88 65 223
87 64 223
87 64 223
86 63 223
86 63 223
85 62 223
85 61 223
84 61 223
84 60 223
83 60 223
83 59 223
82 59 223
82 58 223
81 58 223
81 57 223
80 56 223
80 56 223
79 55 223
79 55 223
78 54 223
78 54 223
77 53 223
77 53 223
77 52 223
76 51 223
76 51 223
75 50 223
75 50 223
74 49 223
74 49 223
73 48 223
73 47 223
72 47 223
72 46 223
71 46 223
71 45 223
70 45 223
70 44 223
69 44 223
69 43 223
68 42 223
68 42 223
67 41 223
67 41 223
66 40 223
66 40 223
66 39 223
65 39 223
65 38 223
64 37 223
64 37 223
63 36 223
63 36 223
62 35 223
62 35 223
61 34 223
61 34 223
60 33 223
60 32 223
59 32 223
59 31 223
58 31 223
58 30 223
57 30 223
57 29 223
56 28 223
56 28 223
55 27 223
55 27 223
55 26 223
54 26 223
54 25 223
53 25 223
53 24 223
52 23 223
52 23 223
51 22 223
51 22 223
50 21 223
50 21 223
49 20 223
49 20 223
48 19 223
48 18 223
47 18 223
47 17 223
46 17 223
46 16 223
45 16 223
45 15 223
44 15 223
44 14 223
44 13 223
43 13 223
43 12 223
42 12 223
42 11 223
41 11 223
41 10 223
40 9 223
40 9 223
39 8 223
39 8 223
38 7 223
38 7 223
37 6 223
37 6 223
36 5 223
36 4 223
35 4 223
35 3 223
34 3 223
34 2 223
33 2 223
33 1 223
33 1 223
32 0 223
222 222 222
221 221 222
221 221 222
220 220 222
220 219 222
219 219 222
219 218 222
218 218 222
218 217 222
217 217 222
217 216 222
216 216 222
216 215 222
216 214 222
215 214 222
215 213 222
214 213 222
214 212 222
213 212 222
213 211 222
212 211 222
212 210 222
211 209 222
211 209 222
210 208 222
210 208 222
209 207 222
209 207 222
208 206 222
208 206 222
208 205 222
207 204 222
207 204 222
206 203 222
206 203 222
205 202 222
205 202 222
204 201 222
204 201 222
203 200 222
203 199 222
202 199 222
202 198 222
201 198 222
201 197 222
200 197 222
200 196 222
199 196 222
199 195 222
199 194 222
198 194 222
198 193 222
197 193 222
197 192 222
196 192 222
196 191 222
195 191 222
195 190 222
194 189 222
194 189 222
193 188 222
193 188 222
192 187 222
192 187 222
191 186 222
191 186 222
191 185 222
190 184 222
190 184 222
189 183 222
189 183 222
188 182 222
188 182 222
187 181 222
187 181 222
186 180 222
186 179 222
185 179 222
185 178 222
184 178 222
184 177 222
183 177 222
183 176 222
182 176 222
182 175 222
182 174 222
181 174 222
181 173 222
180 173 222
180 172 222
179 172 222
179 171 222
178 171 222
178 170 222
177 169 222
177 169 222
176 168 222
176 168 222
175 167 222
175 167 222
174 166 222
174 166 222
174 165 222
173 164 222
173 164 222
172 163 222
172 163 222
171 162 222
171 162 222
170 161 222
170 161 222
169 160 222
169 159 222
168 159 222
168 158 222
167 158 222
167 157 222
166 157 222
166 156 222
166 156 222
165 155 222
165 154 222
164 154 222
164 153 222
163 153 222
163 152 222
162 152 222
162 151 222
161 151 222
161 150 222
160 149 222
160 149 222
159 148 222
159 148 222
158 147 222
158 147 222
157 146 222
157 146 222
157 145 222
156 144 222
156 144 222
155 143 222
155 143 222
154 142 222
154 142 222
153 141 222
153 141 222
152 140 222
152 139 222
151 139 222
151 138 222
150 138 222
150 137 222
149 137 222
149 136 222
149 136 222
148 135 222
148 134 222
147 134 222
147 133 222
146 133 222
146 132 222
145 132 222
145 131 222
144 131 222
144 130 222
143 129 222
143 129 222
142 128 222
142 128 222
141 127 222
141 127 222
140 126 222
140 126 222
140 125 222
139 124 222
139 124 222
138 123 222
138 123 222
137 122 222
137 122 222
136 121 222
136 121 222
135 120 222
135 119 222
134 119 222
134 118 222
133 118 222
133 117 222
132 117 222
132 116 222
132 116 222
131 115 222
131 114 222
130 114 222
130 113 222
129 113 222
129 112 222
128 112 222
128 111 222
127 111 222
127 110 222
126 109 222
126 109 222
125 108 222
125 108 222
124 107 222
124 107 222
123 106 222
123 106 222
123 105 222
122 104 222
122 104 222
121 103 222
121 103 222
120 102 222
120 102 222
119 101 222
119 101 222
118 100 222
118 99 222
117 99 222
117 98 222
116 98 222
116 97 222
115 97 222
115 96 222
115 96 222
114 95 222
114 94 222
113 94 222
113 93 222
112 93 222
112 92 222
111 92 222
111 91 222
110 91 222
110 90 222
109 89 222
109 89 222
108 88 222
108 88 222
107 87 222
107 87 222
106 86 222
106 86 222
106 85 222
105 84 222
105 84 222
104 83 222
104 83 222
103 82 222
103 82 222
102 81 222
102 81 222
101 80 222
101 79 222
100 79 222
100 78 222
99 78 222
99 77 222
98 77 222
98 76 222
98 76 222
97 75 222
97 74 222
96 74 222
96 73 222
95 73 222
95 72 222
94 72 222
94 71 222
93 71 222
93 70 222
92 69 222
92 69 222
91 68 222
91 68 222
90 67 222
90 67 222
89 66 222
89 66 222
89 65 222
88 64 222
88 64 222
87 63 222
87 63 222
86 62 222
86 62 222
85 61 222
85 61 222
84 60 222
84 59 222
83 59 222
83 58 222
82 58 222
82 57 222
81 57 222
81 56 222
81 56 222
80 55 222
80 54 222
79 54 222
79 53 222
78 53 222
78 52 222
77 52 222
77 51 222
76 51 222
76 50 222
75 49 222
75 49 222
74 48 222
74 48 222
73 47 222
73 47 222
73 46 222
72 46 222
72 45 222
71 44 222
71 44 222
70 43 222
70 43 222
69 42 222
69 42 222
68 41 222
68 41 222
67 40 222
67 39 222
66 39 222
66 38 222
65 38 222
65 37 222
64 37 222
64 36 222
64 36 222
63 35 222
63 34 222
62 34 222
62 33 222
61 33 222
61 32 222
60 32 222
60 31 222
59 31 222
59 30 222
58 29 222
58 29 222
57 28 222
57 28 222
56 27 222
56 27 222
56 26 222
55 26 222
55 25 222
54 24 222
54 24 222
53 23 222
53 23 222
52 22 222
52 22 222
51 21 222
51 21 222
50 20 222
50 19 222
49 19 222
49 18 222
48 18 222
48 17 222
47 17 222
47 16 222
47 16 222
46 15 222
46 14 222
45 14 222
45 13 222
44 13 222
44 12 222
43 12 222
43 11 222
42 11 222
42 10 222
41 9 222
41 9 222
40 8 222
40 8 222
39 7 222
39 7 222
39 6 222
38 6 222
38 5 222
37 4 222
37 4 222
36 3 222
36 3 222
35 2 222
35 2 222
34 1 222
34 1 222
33 0 222
220 220 220
220 220 220
219 219 220
219 219 220
219 218 220
218 218 220
218 217 220
217 217 220
217 216 220
216 215 220
216 215 220
215 214 220
215 214 220
214 213 220
214 213 220
213 212 220
213 212 220
212 211 220
212 210 220
212 210 220
211 209 220
211 209 220
210 208 220
210 208 220
209 207 220
209 207 220
208 206 220
208 205 220
207 205 220
207 204 220
206 204 220
206 203 220
206 203 220
205 202 220
205 202 220
204 201 220
204 201 220
203 200 220
203 199 220
202 199 220
202 198 220
201 198 220
201 197 220
200 197 220
200 196 220
199 196 220
199 195 220
199 194 220
198 194 220
198 193 220
197 193 220
197 192 220
196 192 220
196 191 220
195 191 220
195 190 220
194 189 220
194 189 220
193 188 220
193 188 220
192 187 220
192 187 220
192 186 220
191 186 220
191 185 220
190 184 220
190 184 220
189 183 220
189 183 220
188 182 220
188 182 220
187 181 220
187 181 220
186 180 220
186 180 220
185 179 220
185 178 220
185 178 220
184 177 220
184 177 220
183 176 220
183 176 220
182 175 220
182 175 220
181 174 220
181 173 220
180 173 220
180 172 220
179 172 220
179 171 220
178 171 220
178 170 220
178 170 220
177 169 220
177 168 220
176 168 220
176 167 220
175 167 220
175 166 220
174 166 220
174 165 220
173 165 220
173 164 220
172 164 220
172 163 220
172 162 220
171 162 220
171 161 220
170 161 220
170 160 220
169 160 220
169 159 220
168 159 220
168 158 220
167 157 220
167 157 220
166 156 220
166 156 220
165 155 220
165 155 220
165 154 220
164 154 220
164 153 220
163 152 220
163 152 220
162 151 220
162 151 220
161 150 220
161 150 220
160 149 220
160 149 220
159 148 220
159 147 220
158 147 220
158 146 220
158 146 220
157 145 220
157 145 220
156 144 220
156 144 220
155 143 220
155 143 220
154 142 220
154 141 220
153 141 220
153 140 220
152 140 220
152 139 220
151 139 220
151 138 220
151 138 220
150 137 220
150 136 220
149 136 220
149 135 220
148 135 220
148 134 220
147 134 220
147 133 220
146 133 220
146 132 220
145 131 220
145 131 220
144 130 220
144 130 220
144 129 220
143 129 220
143 128 220
142 128 220
142 127 220
141 126 220
141 126 220
140 125 220
140 125 220
139 124 220
139 124 220
138 123 220
138 123 220
138 122 220
137 122 220
137 121 220
136 120 220
136 120 220
135 119 220
135 119 220
134 118 220
134 118 220
133 117 220
133 117 220
132 116 220
132 115 220
131 115 220
131 114 220
131 114 220
130 113 220
130 113 220
129 112 220
129 112 220
128 111 220
128 110 220
127 110 220
127 109 220
126 109 220
126 108 220
125 108 220
125 107 220
124 107 220
124 106 220
124 106 220
123 105 220
123 104 220
122 104 220
122 103 220
121 103 220
121 102 220
120 102 220
120 101 220
119 101 220
119 100 220
118 99 220
118 99 220
117 98 220
117 98 220
117 97 220
116 97 220
116 96 220
115 96 220
115 95 220
114 94 220
114 94 220
113 93 220
113 93 220
112 92 220
112 92 220
111 91 220
111 91 220
111 90 220
110 89 220
110 89 220
109 88 220
109 88 220
108 87 220
108 87 220
107 86 220
107 86 220
106 85 220
106 85 220
105 84 220
105 83 220
104 83 220
104 82 220
104 82 220
103 81 220
103 81 220
102 80 220
102 80 220
101 79 220
101 78 220
100 78 220
100 77 220
99 77 220
99 76 220
98 76 220
98 75 220
97 75 220
97 74 220
97 73 220
96 73 220
96 72 220
95 72 220
95 71 220
94 71 220
94 70 220
93 70 220
93 69 220
92 68 220
92 68 220
91 67 220
91 67 220
90 66 220
90 66 220
90 65 220
89 65 220
89 64 220
88 64 220
88 63 220
87 62 220
87 62 220
86 61 220
86 61 220
85 60 220
85 60 220
84 59 220
84 59 220
83 58 220
83 57 220
83 57 220
82 56 220
82 56 220
81 55 220
81 55 220
80 54 220
80 54 220
79 53 220
79 52 220
78 52 220
78 51 220
77 51 220
77 50 220
77 50 220
76 49 220
76 49 220
75 48 220
75 48 220
74 47 220
74 46 220
73 46 220
73 45 220
72 45 220
72 44 220
71 44 220
71 43 220
70 43 220
70 42 220
70 41 220
69 41 220
69 40 220
68 40 220
68 39 220
67 39 220
67 38 220
66 38 220
66 37 220
65 36 220
65 36 220
64 35 220
64 35 220
63 34 220
63 34 220
63 33 220
62 33 220
62 32 220
61 31 220
61 31 220
60 30 220
60 30 220
59 29 220
59 29 220
58 28 220
58 28 220
57 27 220
57 27 220
56 26 220
56 25 220
56 25 220
55 24 220
55 24 220
54 23 220
54 23 220
53 22 220
53 22 220
52 21 220
52 20 220
51 20 220
51 19 220
50 19 220
50 18 220
49 18 220
49 17 220
49 17 220
48 16 220
48 15 220
47 15 220
47 14 220
46 14 220
46 13 220
45 13 220
45 12 220
44 12 220
44 11 220
43 10 220
43 10 220
43 9 220
42 9 220
42 8 220
41 8 220
41 7 220
40 7 220
40 6 220
39 6 220
39 5 220
38 4 220
38 4 220
37 3 220
37 3 220
36 2 220
36 2 220
36 1 220
35 1 220
35 0 220
219 219 219
219 219 219
218 218 219
218 217 219
217 217 219
217 216 219
216 216 219
216 215 219
215 215 219
215 214 219
215 214 219
214 213 219
214 213 219
213 212 219
213 211 219
212 211 219
212 210 219
211 210 219
211 209 219
210 209 219
210 208 219
209 208 219
209 207 219
209 206 219
208 206 219
208 205 219
207 205 219
207 204 219
206 204 219
206 203 219
205 203 219
205 202 219
204 202 219
204 201 219
204 200 219
203 200 219
203 199 219
202 199 219
202 198 219
201 198 219
201 197 219
200 197 219
200 196 219
199 196 219
199 195 219
198 194 219
198 194 219
198 193 219
197 193 219
197 192 219
196 192 219
196 191 219
195 191 219
195 190 219
194 189 219
194 189 219
193 188 219
193 188 219
192 187 219
192 187 219
192 186 219
191 186 219
191 185 219
190 185 219
190 184 219
189 183 219
189 183 219
188 182 219
188 182 219
187 181 219
187 181 219
187 180 219
186 180 219
186 179 219
185 178 219
185 178 219
184 177 219
184 177 219
183 176 219
183 176 219
182 175 219
182 175 219
181 174 219
181 174 219
181 173 219
180 172 219
180 172 219
179 171 219
179 171 219
178 170 219
178 170 219
177 169 219
177 169 219
176 168 219
176 167 219
175 167 219
175 166 219
175 166 219
174 165 219
174 165 219
173 164 219
173 164 219
172 163 219
172 163 219
171 162 219
171 161 219
170 161 219
170 160 219
170 160 219
169 159 219
169 159 219
168 158 219
168 158 219
167 157 219
167 157 219
166 156 219
166 155 219
165 155 219
165 154 219
164 154 219
164 153 219
164 153 219
163 152 219
163 152 219
162 151 219
162 150 219
161 150 219
161 149 219
160 149 219
160 148 219
159 148 219
159 147 219
158 147 219
158 146 219
158 146 219
157 145 219
157 144 219
156 144 219
156 143 219
155 143 219
155 142 219
154 142 219
154 141 219
153 141 219
153 140 219
153 139 219
152 139 219
152 138 219
151 138 219
151 137 219
150 137 219
150 136 219
149 136 219
149 135 219
148 135 219
148 134 219
147 133 219
147 133 219
147 132 219
146 132 219
146 131 219
145 131 219
145 130 219
144 130 219
144 129 219
143 129 219
143 128 219
142 127 219
142 127 219
142 126 219
141 126 219
141 125 219
140 125 219
140 124 219
139 124 219
139 123 219
138 122 219
138 122 219
137 121 219
137 121 219
136 120 219
136 120 219
136 119 219
135 119 219
135 118 219
134 118 219
134 117 219
133 116 219
133 116 219
132 115 219
132 115 219
131 114 219
131 114 219
130 113 219
130 113 219
130 112 219
129 111 219
129 111 219
128 110 219
128 110 219
127 109 219
127 109 219
126 108 219
126 108 219
125 107 219
125 107 219
125 106 219
124 105 219
124 105 219
123 104 219
123 104 219
122 103 219
122 103 219
121 102 219
121 102 219
120 101 219
120 100 219
119 100 219
119 99 219
119 99 219
118 98 219
118 98 219
117 97 219
117 97 219
116 96 219
116 96 219
115 95 219
115 94 219
114 94 219
114 93 219
113 93 219
113 92 219
113 92 219
112 91 219
112 91 219
111 90 219
111 90 219
110 89 219
110 88 219
109 88 219
109 87 219
108 87 219
108 86 219
108 86 219
107 85 219
107 85 219
106 84 219
106 83 219
105 83 219
105 82 219
104 82 219
104 81 219
103 81 219
103 80 219
102 80 219
102 79 219
102 79 219
101 78 219
101 77 219
100 77 219
100 76 219
99 76 219
99 75 219
98 75 219
98 74 219
97 74 219
97 73 219
97 72 219
96 72 219
96 71 219
95 71 219
95 70 219
94 70 219
94 69 219
93 69 219
93 68 219
92 68 219
92 67 219
91 66 219
91 66 219
91 65 219
90 65 219
90 64 219
89 64 219
89 63 219
88 63 219
88 62 219
87 62 219
87 61 219
86 60 219
86 60 219
85 59 219
85 59 219
85 58 219
84 58 219
84 57 219
83 57 219
83 56 219
82 55 219
82 55 219
81 54 219
81 54 219
80 53 219
80 53 219
80 52 219
79 52 219
79 51 219
78 51 219
78 50 219
77 49 219
77 49 219
76 48 219
76 48 219
75 47 219
75 47 219
74 46 219
74 46 219
74 45 219
73 44 219
73 44 219
72 43 219
72 43 219
71 42 219
71 42 219
70 41 219
70 41 219
69 40 219
69 40 219
68 39 219
68 38 219
68 38 219
67 37 219
67 37 219
66 36 219
66 36 219
65 35 219
65 35 219
64 34 219
64 33 219
63 33 219
63 32 219
63 32 219
62 31 219
62 31 219
61 30 219
61 30 219
60 29 219
60 29 219
59 28 219
59 27 219
58 27 219
58 26 219
57 26 219
57 25 219
57 25 219
56 24 219
56 24 219
55 23 219
55 23 219
54 22 219
54 21 219
53 21 219
53 20 219
52 20 219
52 19 219
51 19 219
51 18 219
51 18 219
50 17 219
50 16 219
49 16 219
49 15 219
48 15 219
48 14 219
47 14 219
47 13 219
46 13 219
46 12 219
46 12 219
45 11 219
45 10 219
44 10 219
44 9 219
43 9 219
43 8 219
42 8 219
42 7 219
41 7 219
41 6 219
40 5 219
40 5 219
40 4 219
39 4 219
39 3 219
38 3 219
38 2 219
37 2 219
37 1 219
36 1 219
36 0 219
218 218 218
217 217 218
217 217 218
216 216 218
216 216 218
216 215 218
215 215 218
215 214 218
214 213 218
214 213 218
213 212 218
213 212 218
212 211 218
212 211 218
211 210 218
211 210 218
211 209 218
210 209 218
210 208 218
209 207 218
209 207 218
208 206 218
208 206 218
207 205 218
207 205 218
207 204 218
206 204 218
206 203 218
205 203 218
205 202 218
204 201 218
204 201 218
203 200 218
203 200 218
202 199 218
202 199 218
202 198 218
201 198 218
201 197 218
200 197 218
200 196 218
199 195 218
199 195 218
198 194 218
198 194 218
197 193 218
197 193 218
197 192 218
196 192 218
196 191 218
195 191 218
195 190 218
194 189 218
194 189 218
193 188 218
193 188 218
192 187 218
192 187 218
192 186 218
191 186 218
191 185 218
190 185 218
190 184 218
189 183 218
189 183 218
188 182 218
188 182 218
187 181 218
187 181 218
187 180 218
186 180 218
186 179 218
185 179 218
185 178 218
184 177 218
184 177 218
183 176 218
183 176 218
183 175 218
182 175 218
182 174 218
181 174 218
181 173 218
180 173 218
180 172 218
179 171 218
179 171 218
178 170 218
178 170 218
178 169 218
177 169 218
177 168 218
176 168 218
176 167 218
175 167 218
175 166 218
174 165 218
174 165 218
173 164 218
173 164 218
173 163 218
172 163 218
172 162 218
171 162 218
171 161 218
170 161 218
170 160 218
169 159 218
169 159 218
168 158 218
168 158 218
168 157 218
167 157 218
167 156 218
166 156 218
166 155 218
165 155 218
165 154 218
164 153 218
164 153 218
163 152 218
163 152 218
163 151 218
162 151 218
162 150 218
161 150 218
161 149 218
160 149 218
160 148 218
159 147 218
159 147 218
159 146 218
158 146 218
158 145 218
157 145 218
157 144 218
156 144 218
156 143 218
155 142 218
155 142 218
154 141 218
154 141 218
154 140 218
153 140 218
153 139 218
152 139 218
152 138 218
151 138 218
151 137 218
150 136 218
150 136 218
149 135 218
149 135 218
149 134 218
148 134 218
148 133 218
147 133 218
147 132 218
146 132 218
146 131 218
145 130 218
145 130 218
144 129 218
144 129 218
144 128 218
143 128 218
143 127 218
142 127 218
142 126 218
141 126 218
141 125 218
140 124 218
140 124 218
139 123 218
139 123 218
139 122 218
138 122 218
138 121 218
137 121 218
137 120 218
136 120 218
136 119 218
135 118 218
135 118 218
135 117 218
134 117 218
134 116 218
133 116 218
133 115 218
132 115 218
132 114 218
131 114 218
131 113 218
130 112 218
130 112 218
130 111 218
129 111 218
129 110 218
128 110 218
128 109 218
127 109 218
127 108 218
126 108 218
126 107 218
125 106 218
125 106 218
125 105 218
124 105 218
124 104 218
123 104 218
123 103 218
122 103 218
122 102 218
121 102 218
121 101 218
120 100 218
120 100 218
120 99 218
119 99 218
119 98 218
118 98 218
118 97 218
117 97 218
117 96 218
116 96 218
116 95 218
116 94 218
115 94 218
115 93 218
114 93 218
114 92 218
113 92 218
113 91 218
112 91 218
112 90 218
111 90 218
111 89 218
111 88 218
110 88 218
110 87 218
109 87 218
109 86 218
108 86 218
108 85 218
107 85 218
107 84 218
106 84 218
106 83 218
106 82 218
105 82 218
105 81 218
104 81 218
104 80 218
103 80 218
103 79 218
102 79 218
102 78 218
101 78 218
101 77 218
101 76 218
100 76 218
100 75 218
99 75 218
99 74 218
98 74 218
98 73 218
97 73 218
97 72 218
96 72 218
96 71 218
96 70 218
95 70 218
95 69 218
94 69 218
94 68 218
93 68 218
93 67 218
92 67 218
92 66 218
92 66 218
91 65 218
91 64 218
90 64 218
90 63 218
89 63 218
89 62 218
88 62 218
88 61 218
87 61 218
87 60 218
87 60 218
86 59 218
86 58 218
85 58 218
85 57 218
84 57 218
84 56 218
83 56 218
83 55 218
82 55 218
82 54 218
82 54 218
81 53 218
81 52 218
80 52 218
80 51 218
79 51 218
79 50 218
78 50 218
78 49 218
77 49 218
77 48 218
77 47 218
76 47 218
76 46 218
75 46 218
75 45 218
74 45 218
74 44 218
73 44 218
73 43 218
72 43 218
72 42 218
72 41 218
71 41 218
71 40 218
70 40 218
70 39 218
69 39 218
69 38 218
68 38 218
68 37 218
68 37 218
67 36 218
67 35 218
66 35 218
66 34 218
65 34 218
65 33 218
64 33 218
64 32 218
63 32 218
63 31 218
63 31 218
62 30 218
62 29 218
61 29 218
61 28 218
60 28 218
60 27 218
59 27 218
59 26 218
58 26 218
58 25 218
58 25 218
57 24 218
57 23 218
56 23 218
56 22 218
55 22 218
55 21 218
54 21 218
54 20 218
53 20 218
53 19 218
53 19 218
52 18 218
52 17 218
51 17 218
51 16 218
50 16 218
50 15 218
49 15 218
49 14 218
48 14 218
48 13 218
48 13 218
47 12 218
47 11 218
46 11 218
46 10 218
45 10 218
45 9 218
44 9 218
44 8 218
44 8 218
43 7 218
43 7 218
42 6 218
42 5 218
41 5 218
41 4 218
40 4 218
40 3 218
39 3 218
39 2 218
39 2 218
38 1 218
38 1 218
37 0 218
217 217 217
216 216 217
216 215 217
215 215 217
215 214 217
214 214 217
214 213 217
213 213 217
213 212 217
213 212 217
212 211 217
212 211 217
211 210 217
211 210 217
210 209 217
210 208 217
209 208 217
209 207 217
209 207 217
208 206 217
208 206 217
207 205 217
207 205 217
206 204 217
206 204 217
205 203 217
205 202 217
205 202 217
204 201 217
204 201 217
203 200 217
203 200 217
202 199 217
202 199 217
201 198 217
201 198 217
200 197 217
200 196 217
200 196 217
199 195 217
199 195 217
198 194 217
198 194 217
197 193 217
197 193 217
196 192 217
196 192 217
196 191 217
195 191 217
195 190 217
194 189 217
194 189 217
193 188 217
193 188 217
192 187 217
192 187 217
192 186 217
191 186 217
191 185 217
190 185 217
190 184 217
189 183 217
189 183 217
188 182 217
188 182 217
188 181 217
187 181 217
187 180 217
186 180 217
186 179 217
185 179 217
185 178 217
184 177 217
184 177 217
184 176 217
183 176 217
183 175 217
182 175 217
182 174 217
181 174 217
181 173 217
180 173 217
180 172 217
180 172 217
179 171 217
179 170 217
178 170 217
178 169 217
177 169 217
177 168 217
176 168 217
176 167 217
175 167 217
175 166 217
175 166 217
174 165 217
174 164 217
173 164 217
173 163 217
172 163 217
172 162 217
171 162 217
171 161 217
171 161 217
170 160 217
170 160 217
169 159 217
169 158 217
168 158 217
168 157 217
167 157 217
167 156 217
167 156 217
166 155 217
166 155 217
165 154 217
165 154 217
164 153 217
164 153 217
163 152 217
163 151 217
163 151 217
162 150 217
162 150 217
161 149 217
161 149 217
160 148 217
160 148 217
159 147 217
159 147 217
159 146 217
158 145 217
158 145 217
157 144 217
157 144 217
156 143 217
156 143 217
155 142 217
155 142 217
155 141 217
154 141 217
154 140 217
153 139 217
153 139 217
152 138 217
152 138 217
151 137 217
151 137 217
150 136 217
150 136 217
150 135 217
149 135 217
149 134 217
148 134 217
148 133 217
147 132 217
147 132 217
146 131 217
146 131 217
146 130 217
145 130 217
145 129 217
144 129 217
144 128 217
143 128 217
143 127 217
142 126 217
142 126 217
142 125 217
141 125 217
141 124 217
140 124 217
140 123 217
139 123 217
139 122 217
138 122 217
138 121 217
138 120 217
137 120 217
137 119 217
136 119 217
136 118 217
135 118 217
135 117 217
134 117 217
134 116 217
134 116 217
133 115 217
133 115 217
132 114 217
132 113 217
131 113 217
131 112 217
130 112 217
130 111 217
130 111 217
129 110 217
129 110 217
128 109 217
128 109 217
127 108 217
127 107 217
126 107 217
126 106 217
125 106 217
125 105 217
125 105 217
124 104 217
124 104 217
123 103 217
123 103 217
122 102 217
122 101 217
121 101 217
121 100 217
121 100 217
120 99 217
120 99 217
119 98 217
119 98 217
118 97 217
118 97 217
117 96 217
117 96 217
117 95 217
116 94 217
116 94 217
115 93 217
115 93 217
114 92 217
114 92 217
113 91 217
113 91 217
113 90 217
112 90 217
112 89 217
111 88 217
111 88 217
110 87 217
110 87 217
109 86 217
109 86 217
109 85 217
108 85 217
108 84 217
107 84 217
107 83 217
106 82 217
106 82 217
105 81 217
105 81 217
105 80 217
104 80 217
104 79 217
103 79 217
103 78 217
102 78 217
102 77 217
101 77 217
101 76 217
100 75 217
100 75 217
100 74 217
99 74 217
99 73 217
98 73 217
98 72 217
97 72 217
97 71 217
96 71 217
96 70 217
96 69 217
95 69 217
95 68 217
94 68 217
94 67 217
93 67 217
93 66 217
92 66 217
92 65 217
92 65 217
91 64 217
91 64 217
90 63 217
90 62 217
89 62 217
89 61 217
88 61 217
88 60 217
88 60 217
87 59 217
87 59 217
86 58 217
86 58 217
85 57 217
85 56 217
84 56 217
84 55 217
84 55 217
83 54 217
83 54 217
82 53 217
82 53 217
81 52 217
81 52 217
80 51 217
80 50 217
80 50 217
79 49 217
79 49 217
78 48 217
78 48 217
77 47 217
77 47 217
76 46 217
76 46 217
75 45 217
75 45 217
75 44 217
74 43 217
74 43 217
73 42 217
73 42 217
72 41 217
72 41 217
71 40 217
71 40 217
71 39 217
70 39 217
70 38 217
69 37 217
69 37 217
68 36 217
68 36 217
67 35 217
67 35 217
67 34 217
66 34 217
66 33 217
65 33 217
65 32 217
64 31 217
64 31 217
63 30 217
63 30 217
63 29 217
62 29 217
62 28 217
61 28 217
61 27 217
60 27 217
60 26 217
59 26 217
59 25 217
59 24 217
58 24 217
58 23 217
57 23 217
57 22 217
56 22 217
56 21 217
55 21 217
55 20 217
55 20 217
54 19 217
54 18 217
53 18 217
53 17 217
52 17 217
52 16 217
51 16 217
51 15 217
50 15 217
50 14 217
50 14 217
49 13 217
49 12 217
48 12 217
48 11 217
47 11 217
47 10 217
46 10 217
46 9 217
46 9 217
45 8 217
45 8 217
44 7 217
44 7 217
43 6 217
43 5 217
42 5 217
42 4 217
42 4 217
41 3 217
41 3 217
40 2 217
40 2 217
39 1 217
39 1 217
38 0 217
215 215 215
215 215 215
214 214 215
214 214 215
214 213 215
213 213 215
213 212 215
212 211 215
212 211 215
211 210 215
211 210 215
210 209 215
210 209 215
210 208 215
209 208 215
209 207 215
208 207 215
208 206 215
207 206 215
207 205 215
206 204 215
206 204 215
206 203 215
205 203 215
205 202 215
204 202 215
204 201 215
203 201 215
203 200 215
203 200 215
202 199 215
202 199 215
201 198 215
201 197 215
200 197 215
200 196 215
199 196 215
199 195 215
199 195 215
198 194 215
198 194 215
197 193 215
197 193 215
196 192 215
196 192 215
195 191 215
195 190 215
195 190 215
194 189 215
194 189 215
193 188 215
193 188 215
192 187 215
192 187 215
192 186 215
191 186 215
191 185 215
190 185 215
190 184 215
189 183 215
189 183 215
188 182 215
188 182 215
188 181 215
187 181 215
187 180 215
186 180 215
186 179 215
185 179 215
185 178 215
184 178 215
184 177 215
184 176 215
183 176 215
183 175 215
182 175 215
182 174 215
181 174 215
181 173 215
181 173 215
180 172 215
180 172 215
179 171 215
179 170 215
178 170 215
178 169 215
177 169 215
177 168 215
177 168 215
176 167 215
176 167 215
175 166 215
175 166 215
174 165 215
174 165 215
173 164 215
173 163 215
173 163 215
172 162 215
172 162 215
171 161 215
171 161 215
170 160 215
170 160 215
170 159 215
169 159 215
169 158 215
168 158 215
168 157 215
167 156 215
167 156 215
166 155 215
166 155 215
166 154 215
165 154 215
165 153 215
164 153 215
164 152 215
163 152 215
163 151 215
162 151 215
162 150 215
162 149 215
161 149 215
161 148 215
160 148 215
160 147 215
159 147 215
159 146 215
159 146 215
158 145 215
158 145 215
157 144 215
157 144 215
156 143 215
156 142 215
155 142 215
155 141 215
155 141 215
154 140 215
154 140 215
153 139 215
153 139 215
152 138 215
152 138 215
151 137 215
151 137 215
151 136 215
150 135 215
150 135 215
149 134 215
149 134 215
148 133 215
148 133 215
148 132 215
147 132 215
147 131 215
146 131 215
146 130 215
145 129 215
145 129 215
144 128 215
144 128 215
144 127 215
143 127 215
143 126 215
142 126 215
142 125 215
141 125 215
141 124 215
140 124 215
140 123 215
140 122 215
139 122 215
139 121 215
138 121 215
138 120 215
137 120 215
137 119 215
137 119 215
136 118 215
136 118 215
135 117 215
135 117 215
134 116 215
134 115 215
133 115 215
133 114 215
133 114 215
132 113 215
132 113 215
131 112 215
131 112 215
130 111 215
130 111 215
129 110 215
129 110 215
129 109 215
128 108 215
128 108 215
127 107 215
127 107 215
126 106 215
126 106 215
126 105 215
125 105 215
125 104 215
124 104 215
124 103 215
123 103 215
123 102 215
122 101 215
122 101 215
122 100 215
121 100 215
121 99 215
120 99 215
120 98 215
119 98 215
119 97 215
118 97 215
118 96 215
118 95 215
117 95 215
117 94 215
116 94 215
116 93 215
115 93 215
115 92 215
115 92 215
114 91 215
114 91 215
113 90 215
113 90 215
112 89 215
112 88 215
111 88 215
111 87 215
111 87 215
110 86 215
110 86 215
109 85 215
109 85 215
108 84 215
108 84 215
107 83 215
107 83 215
107 82 215
106 81 215
106 81 215
105 80 215
105 80 215
104 79 215
104 79 215
104 78 215
103 78 215
103 77 215
102 77 215
102 76 215
101 76 215
101 75 215
100 74 215
100 74 215
100 73 215
99 73 215
99 72 215
98 72 215
98 71 215
97 71 215
97 70 215
96 70 215
96 69 215
96 69 215
95 68 215
95 67 215
94 67 215
94 66 215
93 66 215
93 65 215
93 65 215
92 64 215
92 64 215
91 63 215
91 63 215
90 62 215
90 62 215
89 61 215
89 60 215
89 60 215
88 59 215
88 59 215
87 58 215
87 58 215
86 57 215
86 57 215
85 56 215
85 56 215
85 55 215
84 54 215
84 54 215
83 53 215
83 53 215
82 52 215
82 52 215
82 51 215
81 51 215
81 50 215
80 50 215
80 49 215
79 49 215
79 48 215
78 47 215
78 47 215
78 46 215
77 46 215
77 45 215
76 45 215
76 44 215
75 44 215
75 43 215
74 43 215
74 42 215
74 42 215
73 41 215
73 40 215
72 40 215
72 39 215
71 39 215
71 38 215
71 38 215
70 37 215
70 37 215
69 36 215
69 36 215
68 35 215
68 35 215
67 34 215
67 33 215
67 33 215
66 32 215
66 32 215
65 31 215
65 31 215
64 30 215
64 30 215
63 29 215
63 29 215
63 28 215
62 28 215
62 27 215
61 26 215
61 26 215
60 25 215
60 25 215
60 24 215
59 24 215
59 23 215
58 23 215
58 22 215
57 22 215
57 21 215
56 21 215
56 20 215
56 19 215
55 19 215
55 18 215
54 18 215
54 17 215
53 17 215
53 16 215
52 16 215
52 15 215
52 15 215
51 14 215
51 13 215
50 13 215
50 12 215
49 12 215
49 11 215
49 11 215
48 10 215
48 10 215
47 9 215
47 9 215
46 8 215
46 8 215
45 7 215
45 6 215
45 6 215
44 5 215
44 5 215
43 4 215
43 4 215
42 3 215
42 3 215
41 2 215
41 2 215
41 1 215
40 1 215
40 0 215
214 214 214
214 213 214
213 213 214
213 212 214
212 212 214
212 211 214
211 211 214
211 210 214
211 210 214
210 209 214
210 209 214
209 208 214
209 208 214
208 207 214
208 206 214
207 206 214
207 205 214
207 205 214
206 204 214
206 204 214
205 203 214
205 203 214
204 202 214
204 202 214
204 201 214
203 201 214
203 200 214
202 200 214
202 199 214
201 198 214
201 198 214
201 197 214
200 197 214
200 196 214
199 196 214
199 195 214
198 195 214
198 194 214
198 194 214
197 193 214
197 193 214
196 192 214
196 191 214
195 191 214
195 190 214
194 190 214
194 189 214
194 189 214
193 188 214
193 188 214
192 187 214
192 187 214
191 186 214
191 186 214
191 185 214
190 184 214
190 184 214
189 183 214
189 183 214
188 182 214
188 182 214
188 181 214
187 181 214
187 180 214
186 180 214
186 179 214
185 179 214
185 178 214
185 178 214
184 177 214
184 176 214
183 176 214
183 175 214
182 175 214
182 174 214
181 174 214
181 173 214
181 173 214
180 172 214
180 172 214
179 171 214
179 171 214
178 170 214
178 169 214
178 169 214
177 168 214
177 168 214
176 167 214
176 167 214
175 166 214
175 166 214
175 165 214
174 165 214
174 164 214
173 164 214
173 163 214
172 163 214
172 162 214
172 161 214
171 161 214
171 160 214
170 160 214
170 159 214
169 159 214
169 158 214
168 158 214
168 157 214
168 157 214
167 156 214
167 156 214
166 155 214
166 154 214
165 154 214
165 153 214
165 153 214
164 152 214
164 152 214
163 151 214
163 151 214
162 150 214
162 150 214
162 149 214
161 149 214
161 148 214
160 147 214
160 147 214
159 146 214
159 146 214
158 145 214
158 145 214
158 144 214
157 144 214
157 143 214
156 143 214
156 142 214
155 142 214
155 141 214
155 141 214
154 140 214
154 139 214
153 139 214
153 138 214
152 138 214
152 137 214
152 137 214
151 136 214
151 136 214
150 135 214
150 135 214
149 134 214
149 134 214
149 133 214
148 132 214
148 132 214
147 131 214
147 131 214
146 130 214
146 130 214
145 129 214
145 129 214
145 128 214
144 128 214
144 127 214
143 127 214
143 126 214
142 126 214
142 125 214
142 124 214
141 124 214
141 123 214
140 123 214
140 122 214
139 122 214
139 121 214
139 121 214
138 120 214
138 120 214
137 119 214
137 119 214
136 118 214
136 117 214
136 117 214
135 116 214
135 116 214
134 115 214
134 115 214
133 114 214
133 114 214
132 113 214
132 113 214
132 112 214
131 112 214
131 111 214
130 110 214
130 110 214
129 109 214
129 109 214
129 108 214
128 108 214
128 107 214
127 107 214
127 106 214
126 106 214
126 105 214
126 105 214
125 104 214
125 104 214
124 103 214
124 102 214
123 102 214
123 101 214
123 101 214
122 100 214
122 100 214
121 99 214
121 99 214
120 98 214
120 98 214
119 97 214
119 97 214
119 96 214
118 95 214
118 95 214
117 94 214
117 94 214
116 93 214
116 93 214
116 92 214
115 92 214
115 91 214
114 91 214
114 90 214
113 90 214
113 89 214
113 88 214
112 88 214
112 87 214
111 87 214
111 86 214
110 86 214
110 85 214
110 85 214
109 84 214
109 84 214
108 83 214
108 83 214
107 82 214
107 82 214
106 81 214
106 80 214
106 80 214
105 79 214
105 79 214
104 78 214
104 78 214
103 77 214
103 77 214
103 76 214
102 76 214
102 75 214
101 75 214
101 74 214
100 73 214
100 73 214
100 72 214
99 72 214
99 71 214
98 71 214
98 70 214
97 70 214
97 69 214
97 69 214
96 68 214
96 68 214
95 67 214
95 67 214
94 66 214
94 65 214
93 65 214
93 64 214
93 64 214
92 63 214
92 63 214
91 62 214
91 62 214
90 61 214
90 61 214
90 60 214
89 60 214
89 59 214
88 58 214
88 58 214
87 57 214
87 57 214
87 56 214
86 56 214
86 55 214
85 55 214
85 54 214
84 54 214
84 53 214
83 53 214
83 52 214
83 51 214
82 51 214
82 50 214
81 50 214
81 49 214
80 49 214
80 48 214
80 48 214
79 47 214
79 47 214
78 46 214
78 46 214
77 45 214
77 45 214
77 44 214
76 43 214
76 43 214
75 42 214
75 42 214
74 41 214
74 41 214
74 40 214
73 40 214
73 39 214
72 39 214
72 38 214
71 38 214
71 37 214
70 36 214
70 36 214
70 35 214
69 35 214
69 34 214
68 34 214
68 33 214
67 33 214
67 32 214
67 32 214
66 31 214
66 31 214
65 30 214
65 29 214
64 29 214
64 28 214
64 28 214
63 27 214
63 27 214
62 26 214
62 26 214
61 25 214
61 25 214
61 24 214
60 24 214
60 23 214
59 23 214
59 22 214
58 21 214
58 21 214
57 20 214
57 20 214
57 19 214
56 19 214
56 18 214
55 18 214
55 17 214
54 17 214
54 16 214
54 16 214
53 15 214
53 14 214
52 14 214
52 13 214
51 13 214
51 12 214
51 12 214
50 11 214
50 11 214
49 10 214
49 10 214
48 9 214
48 9 214
48 8 214
47 8 214
47 7 214
46 6 214
46 6 214
45 5 214
45 5 214
44 4 214
44 4 214
44 3 214
43 3 214
43 2 214
42 2 214
42 1 214
41 1 214
41 0 214
213 213 213
212 212 213
212 212 213
211 211 213
211 211 213
211 210 213
210 210 213
210 209 213
209 208 213
209 208 213
208 207 213
208 207 213
208 206 213
207 206 213
207 205 213
206 205 213
206 204 213
205 204 213
205 203 213
205 203 213
204 202 213
204 202 213
203 201 213
203 200 213
202 200 213
202 199 213
202 199 213
201 198 213
201 198 213
200 197 213
200 197 213
199 196 213
199 196 213
199 195 213
198 195 213
198 194 213
197 194 213
197 193 213
196 192 213
196 192 213
196 191 213
195 191 213
195 190 213
194 190 213
194 189 213
193 189 213
193 188 213
193 188 213
192 187 213
192 187 213
191 186 213
191 186 213
191 185 213
190 184 213
190 184 213
189 183 213
189 183 213
188 182 213
188 182 213
188 181 213
187 181 213
187 180 213
186 180 213
186 179 213
185 179 213
185 178 213
185 178 213
184 177 213
184 176 213
183 176 213
183 175 213
182 175 213
182 174 213
182 174 213
181 173 213
181 173 213
180 172 213
180 172 213
179 171 213
179 171 213
179 170 213
178 170 213
178 169 213
177 168 213
177 168 213
176 167 213
176 167 213
176 166 213
175 166 213
175 165 213
174 165 213
174 164 213
173 164 213
173 163 213
173 163 213
172 162 213
172 162 213
171 161 213
171 160 213
170 160 213
170 159 213
170 159 213
169 158 213
169 158 213
168 157 213
168 157 213
167 156 213
167 156 213
167 155 213
166 155 213
166 154 213
165 154 213
165 153 213
164 152 213
164 152 213
164 151 213
163 151 213
163 150 213
162 150 213
162 149 213
161 149 213
161 148 213
161 148 213
160 147 213
160 147 213
159 146 213
159 146 213
158 145 213
158 144 213
158 144 213
157 143 213
157 143 213
156 142 213
156 142 213
155 141 213
155 141 213
155 140 213
154 140 213
154 139 213
153 139 213
153 138 213
152 138 213
152 137 213
152 136 213
151 136 213
151 135 213
150 135 213
150 134 213
149 134 213
149 133 213
149 133 213
148 132 213
148 132 213
147 131 213
147 131 213
147 130 213
146 130 213
146 129 213
145 128 213
145 128 213
144 127 213
144 127 213
144 126 213
143 126 213
143 125 213
142 125 213
142 124 213
141 124 213
141 123 213
141 123 213
140 122 213
140 122 213
139 121 213
139 120 213
138 120 213
138 119 213
138 119 213
137 118 213
137 118 213
136 117 213
136 117 213
135 116 213
135 116 213
135 115 213
134 115 213
134 114 213
133 114 213
133 113 213
132 112 213
132 112 213
132 111 213
131 111 213
131 110 213
130 110 213
130 109 213
129 109 213
129 108 213
129 108 213
128 107 213
128 107 213
127 106 213
127 106 213
126 105 213
126 104 213
126 104 213
125 103 213
125 103 213
124 102 213
124 102 213
123 101 213
123 101 213
123 100 213
122 100 213
122 99 213
121 99 213
121 98 213
120 98 213
120 97 213
120 96 213
119 96 213
119 95 213
118 95 213
118 94 213
117 94 213
117 93 213
117 93 213
116 92 213
116 92 213
115 91 213
115 91 213
114 90 213
114 90 213
114 89 213
113 88 213
113 88 213
112 87 213
112 87 213
111 86 213
111 86 213
111 85 213
110 85 213
110 84 213
109 84 213
109 83 213
108 83 213
108 82 213
108 82 213
107 81 213
107 81 213
106 80 213
106 79 213
106 79 213
105 78 213
105 78 213
104 77 213
104 77 213
103 76 213
103 76 213
103 75 213
102 75 213
102 74 213
101 74 213
101 73 213
100 73 213
100 72 213
100 71 213
99 71 213
99 70 213
98 70 213
98 69 213
97 69 213
97 68 213
97 68 213
96 67 213
96 67 213
95 66 213
95 66 213
94 65 213
94 65 213
94 64 213
93 63 213
93 63 213
92 62 213
92 62 213
91 61 213
91 61 213
91 60 213
90 60 213
90 59 213
89 59 213
89 58 213
88 58 213
88 57 213
88 57 213
87 56 213
87 55 213
86 55 213
86 54 213
85 54 213
85 53 213
85 53 213
84 52 213
84 52 213
83 51 213
83 51 213
82 50 213
82 50 213
82 49 213
81 49 213
81 48 213
80 47 213
80 47 213
79 46 213
79 46 213
79 45 213
78 45 213
78 44 213
77 44 213
77 43 213
76 43 213
76 42 213
76 42 213
75 41 213
75 41 213
74 40 213
74 39 213
73 39 213
73 38 213
73 38 213
72 37 213
72 37 213
71 36 213
71 36 213
70 35 213
70 35 213
70 34 213
69 34 213
69 33 213
68 33 213
68 32 213
67 31 213
67 31 213
67 30 213
66 30 213
66 29 213
65 29 213
65 28 213
64 28 213
64 27 213
64 27 213
63 26 213
63 26 213
62 25 213
62 25 213
62 24 213
61 23 213
61 23 213
60 22 213
60 22 213
59 21 213
59 21 213
59 20 213
58 20 213
58 19 213
57 19 213
57 18 213
56 18 213
56 17 213
56 17 213
55 16 213
55 15 213
54 15 213
54 14 213
53 14 213
53 13 213
53 13 213
52 12 213
52 12 213
51 11 213
51 11 213
50 10 213
50 10 213
50 9 213
49 9 213
49 8 213
48 7 213
48 7 213
47 6 213
47 6 213
47 5 213
46 5 213
46 4 213
45 4 213
45 3 213
44 3 213
44 2 213
44 2 213
43 1 213
43 1 213
42 0 213
211 211 211
211 211 211
211 210 211
210 210 211
210 209 211
209 209 211
209 208 211
208 208 211
208 207 211
208 207 211
207 206 211
207 206 211
206 205 211
206 205 211
206 204 211
205 203 211
205 203 211
204 202 211
204 202 211
203 201 211
203 201 211
203 200 211
202 200 211
202 199 211
201 199 211
201 198 211
200 198 211
200 197 211
200 197 211
199 196 211
199 196 211
198 195 211
198 194 211
198 194 211
197 193 211
197 193 211
196 192 211
196 192 211
195 191 211
195 191 211
195 190 211
194 190 211
194 189 211
193 189 211
193 188 211
193 188 211
192 187 211
192 187 211
191 186 211
191 185 211
190 185 211
190 184 211
190 184 211
189 183 211
189 183 211
188 182 211
188 182 211
187 181 211
187 181 211
187 180 211
186 180 211
186 179 211
185 179 211
185 178 211
185 178 211
184 177 211
184 176 211
183 176 211
183 175 211
182 175 211
182 174 211
182 174 211
181 173 211
181 173 211
180 172 211
180 172 211
179 171 211
179 171 211
179 170 211
178 170 211
178 169 211
177 169 211
177 168 211
177 167 211
176 167 211
176 166 211
175 166 211
175 165 211
174 165 211
174 164 211
174 164 211
173 163 211
173 163 211
172 162 211
172 162 211
171 161 211
171 161 211
171 160 211
170 160 211
170 159 211
169 158 211
169 158 211
169 157 211
168 157 211
168 156 211
167 156 211
167 155 211
166 155 211
166 154 211
166 154 211
165 153 211
165 153 211
164 152 211
164 152 211
163 151 211
163 150 211
163 150 211
162 149 211
162 149 211
161 148 211
161 148 211
161 147 211
160 147 211
160 146 211
159 146 211
159 145 211
158 145 211
158 144 211
158 144 211
157 143 211
157 143 211
156 142 211
156 141 211
155 141 211
155 140 211
155 140 211
154 139 211
154 139 211
153 138 211
153 138 211
153 137 211
152 137 211
152 136 211
151 136 211
151 135 211
150 135 211
150 134 211
150 134 211
149 133 211
149 132 211
148 132 211
148 131 211
147 131 211
147 130 211
147 130 211
146 129 211
146 129 211
145 128 211
145 128 211
145 127 211
144 127 211
144 126 211
143 126 211
143 125 211
142 125 211
142 124 211
142 123 211
141 123 211
141 122 211
140 122 211
140 121 211
139 121 211
139 120 211
139 120 211
138 119 211
138 119 211
137 118 211
137 118 211
137 117 211
136 117 211
136 116 211
135 116 211
135 115 211
134 114 211
134 114 211
134 113 211
133 113 211
133 112 211
132 112 211
132 111 211
131 111 211
131 110 211
131 110 211
130 109 211
130 109 211
129 108 211
129 108 211
129 107 211
128 107 211
128 106 211
127 105 211
127 105 211
126 104 211
126 104 211
126 103 211
125 103 211
125 102 211
124 102 211
124 101 211
124 101 211
123 100 211
123 100 211
122 99 211
122 99 211
121 98 211
121 98 211
121 97 211
120 96 211
120 96 211
119 95 211
119 95 211
118 94 211
118 94 211
118 93 211
117 93 211
117 92 211
116 92 211
116 91 211
116 91 211
115 90 211
115 90 211
114 89 211
114 88 211
113 88 211
113 87 211
113 87 211
112 86 211
112 86 211
111 85 211
111 85 211
110 84 211
110 84 211
110 83 211
109 83 211
109 82 211
108 82 211
108 81 211
108 81 211
107 80 211
107 79 211
106 79 211
106 78 211
105 78 211
105 77 211
105 77 211
104 76 211
104 76 211
103 75 211
103 75 211
102 74 211
102 74 211
102 73 211
101 73 211
101 72 211
100 72 211
100 71 211
100 70 211
99 70 211
99 69 211
98 69 211
98 68 211
97 68 211
97 67 211
97 67 211
96 66 211
96 66 211
95 65 211
95 65 211
94 64 211
94 64 211
94 63 211
93 63 211
93 62 211
92 61 211
92 61 211
92 60 211
91 60 211
91 59 211
90 59 211
90 58 211
89 58 211
89 57 211
89 57 211
88 56 211
88 56 211
87 55 211
87 55 211
86 54 211
86 54 211
86 53 211
85 52 211
85 52 211
84 51 211
84 51 211
84 50 211
83 50 211
83 49 211
82 49 211
82 48 211
81 48 211
81 47 211
81 47 211
80 46 211
80 46 211
79 45 211
79 45 211
78 44 211
78 43 211
78 43 211
77 42 211
77 42 211
76 41 211
76 41 211
76 40 211
75 40 211
75 39 211
74 39 211
74 38 211
73 38 211
73 37 211
73 37 211
72 36 211
72 36 211
71 35 211
71 34 211
70 34 211
70 33 211
70 33 211
69 32 211
69 32 211
68 31 211
68 31 211
68 30 211
67 30 211
67 29 211
66 29 211
66 28 211
65 28 211
65 27 211
65 26 211
64 26 211
64 25 211
63 25 211
63 24 211
62 24 211
62 23 211
62 23 211
61 22 211
61 22 211
60 21 211
60 21 211
60 20 211
59 20 211
59 19 211
58 19 211
58 18 211
57 17 211
57 17 211
57 16 211
56 16 211
56 15 211
55 15 211
55 14 211
55 14 211
54 13 211
54 13 211
53 12 211
53 12 211
52 11 211
52 11 211
52 10 211
51 10 211
51 9 211
50 8 211
50 8 211
49 7 211
49 7 211
49 6 211
48 6 211
48 5 211
47 5 211
47 4 211
47 4 211
46 3 211
46 3 211
45 2 211
45 2 211
44 1 211
44 1 211
44 0 211
210 210 210
210 210 210
209 209 210
209 209 210
208 208 210
208 208 210
208 207 210
207 206 210
207 206 210
206 205 210
206 205 210
206 204 210
205 204 210
205 203 210
204 203 210
204 202 210
204 202 210
203 201 210
203 201 210
202 200 210
202 200 210
201 199 210
201 199 210
201 198 210
200 198 210
200 197 210
199 196 210
199 196 210
199 195 210
198 195 210
198 194 210
197 194 210
197 193 210
196 193 210
196 192 210
196 192 210
195 191 210
195 191 210
194 190 210
194 190 210
194 189 210
193 189 210
193 188 210
192 188 210
192 187 210
192 186 210
191 186 210
191 185 210
190 185 210
190 184 210
189 184 210
189 183 210
189 183 210
188 182 210
188 182 210
187 181 210
187 181 210
187 180 210
186 180 210
186 179 210
185 179 210
185 178 210
184 177 210
184 177 210
184 176 210
183 176 210
183 175 210
182 175 210
182 174 210
182 174 210
181 173 210
181 173 210
180 172 210
180 172 210
179 171 210
179 171 210
179 170 210
178 170 210
178 169 210
177 169 210
177 168 210
177 167 210
176 167 210
176 166 210
175 166 210
175 165 210
175 165 210
174 164 210
174 164 210
173 163 210
173 163 210
172 162 210
172 162 210
172 161 210
171 161 210
171 160 210
170 160 210
170 159 210
170 159 210
169 158 210
169 157 210
168 157 210
168 156 210
167 156 210
167 155 210
167 155 210
166 154 210
166 154 210
165 153 210
165 153 210
165 152 210
164 152 210
164 151 210
163 151 210
163 150 210
163 150 210
162 149 210
162 149 210
161 148 210
161 147 210
160 147 210
160 146 210
160 146 210
159 145 210
159 145 210
158 144 210
158 144 210
158 143 210
157 143 210
157 142 210
156 142 210
156 141 210
155 141 210
155 140 210
155 140 210
154 139 210
154 139 210
153 138 210
153 137 210
153 137 210
152 136 210
152 136 210
151 135 210
151 135 210
150 134 210
150 134 210
150 133 210
149 133 210
149 132 210
148 132 210
148 131 210
148 131 210
147 130 210
147 130 210
146 129 210
146 129 210
146 128 210
145 127 210
145 127 210
144 126 210
144 126 210
143 125 210
143 125 210
143 124 210
142 124 210
142 123 210
141 123 210
141 122 210
141 122 210
140 121 210
140 121 210
139 120 210
139 120 210
138 119 210
138 119 210
138 118 210
137 117 210
137 117 210
136 116 210
136 116 210
136 115 210
135 115 210
135 114 210
134 114 210
134 113 210
134 113 210
133 112 210
133 112 210
132 111 210
132 111 210
131 110 210
131 110 210
131 109 210
130 108 210
130 108 210
129 107 210
129 107 210
129 106 210
128 106 210
128 105 210
127 105 210
127 104 210
126 104 210
126 103 210
126 103 210
125 102 210
125 102 210
124 101 210
124 101 210
124 100 210
123 100 210
123 99 210
122 98 210
122 98 210
121 97 210
121 97 210
121 96 210
120 96 210
120 95 210
119 95 210
119 94 210
119 94 210
118 93 210
118 93 210
117 92 210
117 92 210
117 91 210
116 91 210
116 90 210
115 90 210
115 89 210
114 88 210
114 88 210
114 87 210
113 87 210
113 86 210
112 86 210
112 85 210
112 85 210
111 84 210
111 84 210
110 83 210
110 83 210
109 82 210
109 82 210
109 81 210
108 81 210
108 80 210
107 80 210
107 79 210
107 78 210
106 78 210
106 77 210
105 77 210
105 76 210
105 76 210
104 75 210
104 75 210
103 74 210
103 74 210
102 73 210
102 73 210
102 72 210
101 72 210
101 71 210
100 71 210
100 70 210
100 70 210
99 69 210
99 68 210
98 68 210
98 67 210
97 67 210
97 66 210
97 66 210
96 65 210
96 65 210
95 64 210
95 64 210
95 63 210
94 63 210
94 62 210
93 62 210
93 61 210
92 61 210
92 60 210
92 60 210
91 59 210
91 58 210
90 58 210
90 57 210
90 57 210
89 56 210
89 56 210
88 55 210
88 55 210
88 54 210
87 54 210
87 53 210
86 53 210
86 52 210
85 52 210
85 51 210
85 51 210
84 50 210
84 50 210
83 49 210
83 48 210
83 48 210
82 47 210
82 47 210
81 46 210
81 46 210
80 45 210
80 45 210
80 44 210
79 44 210
79 43 210
78 43 210
78 42 210
78 42 210
77 41 210
77 41 210
76 40 210
76 40 210
76 39 210
75 38 210
75 38 210
74 37 210
74 37 210
73 36 210
73 36 210
73 35 210
72 35 210
72 34 210
71 34 210
71 33 210
71 33 210
70 32 210
70 32 210
69 31 210
69 31 210
68 30 210
68 29 210
68 29 210
67 28 210
67 28 210
66 27 210
66 27 210
66 26 210
65 26 210
65 25 210
64 25 210
64 24 210
63 24 210
63 23 210
63 23 210
62 22 210
62 22 210
61 21 210
61 21 210
61 20 210
60 19 210
60 19 210
59 18 210
59 18 210
59 17 210
58 17 210
58 16 210
57 16 210
57 15 210
56 15 210
56 14 210
56 14 210
55 13 210
55 13 210
54 12 210
54 12 210
54 11 210
53 11 210
53 10 210
52 9 210
52 9 210
51 8 210
51 8 210
51 7 210
50 7 210
50 6 210
49 6 210
49 5 210
49 5 210
48 4 210
48 4 210
47 3 210
47 3 210
47 2 210
46 2 210
46 1 210
45 1 210
45 0 210
209 209 209
208 208 209
208 208 209
208 207 209
207 207 209
207 206 209
206 206 209
206 205 209
206 205 209
205 204 209
205 204 209
204 203 209
204 203 209
204 202 209
203 202 209
203 201 209
202 200 209
202 200 209
202 199 209
201 199 209
201 198 209
200 198 209
200 197 209
199 197 209
199 196 209
199 196 209
198 195 209
198 195 209
197 194 209
197 194 209
197 193 209
196 193 209
196 192 209
195 192 209
195 191 209
195 191 209
194 190 209
194 190 209
193 189 209
193 188 209
193 188 209
192 187 209
192 187 209
191 186 209
191 186 209
191 185 209
190 185 209
190 184 209
189 184 209
189 183 209
188 183 209
188 182 209
188 182 209
187 181 209
187 181 209
186 180 209
186 180 209
186 179 209
185 179 209
185 178 209
184 177 209
184 177 209
184 176 209
183 176 209
183 175 209
182 175 209
182 174 209
182 174 209
181 173 209
181 173 209
180 172 209
180 172 209
180 171 209
179 171 209
179 170 209
178 170 209
178 169 209
177 169 209
177 168 209
177 168 209
176 167 209
176 166 209
175 166 209
175 165 209
175 165 209
174 164 209
174 164 209
173 163 209
173 163 209
173 162 209
172 162 209
172 161 209
171 161 209
171 160 209
171 160 209
170 159 209
170 159 209
169 158 209
169 158 209
168 157 209
168 157 209
168 156 209
167 155 209
167 155 209
166 154 209
166 154 209
166 153 209
165 153 209
165 152 209
164 152 209
164 151 209
164 151 209
163 150 209
163 150 209
162 149 209
162 149 209
162 148 209
161 148 209
161 147 209
160 147 209
160 146 209
160 146 209
159 145 209
159 144 209
158 144 209
158 143 209
157 143 209
157 142 209
157 142 209
156 141 209
156 141 209
155 140 209
155 140 209
155 139 209
154 139 209
154 138 209
153 138 209
153 137 209
153 137 209
152 136 209
152 136 209
151 135 209
151 135 209
151 134 209
150 133 209
150 133 209
149 132 209
149 132 209
149 131 209
148 131 209
148 130 209
147 130 209
147 129 209
146 129 209
146 128 209
146 128 209
145 127 209
145 127 209
144 126 209
144 126 209
144 125 209
143 125 209
143 124 209
142 124 209
142 123 209
142 122 209
141 122 209
141 121 209
140 121 209
140 120 209
140 120 209
139 119 209
139 119 209
138 118 209
138 118 209
137 117 209
137 117 209
137 116 209
136 116 209
136 115 209
135 115 209
135 114 209
135 114 209
134 113 209
134 113 209
133 112 209
133 112 209
133 111 209
132 110 209
132 110 209
131 109 209
131 109 209
131 108 209
130 108 209
130 107 209
129 107 209
129 106 209
129 106 209
128 105 209
128 105 209
127 104 209
127 104 209
126 103 209
126 103 209
126 102 209
125 102 209
125 101 209
124 101 209
124 100 209
124 99 209
123 99 209
123 98 209
122 98 209
122 97 209
122 97 209
121 96 209
121 96 209
120 95 209
120 95 209
120 94 209
119 94 209
119 93 209
118 93 209
118 92 209
118 92 209
117 91 209
117 91 209
116 90 209
116 90 209
115 89 209
115 88 209
115 88 209
114 87 209
114 87 209
113 86 209
113 86 209
113 85 209
112 85 209
112 84 209
111 84 209
111 83 209
111 83 209
110 82 209
110 82 209
109 81 209
109 81 209
109 80 209
108 80 209
108 79 209
107 79 209
107 78 209
106 77 209
106 77 209
106 76 209
105 76 209
105 75 209
104 75 209
104 74 209
104 74 209
103 73 209
103 73 209
102 72 209
102 72 209
102 71 209
101 71 209
101 70 209
100 70 209
100 69 209
100 69 209
99 68 209
99 68 209
98 67 209
98 66 209
98 66 209
97 65 209
97 65 209
96 64 209
96 64 209
95 63 209
95 63 209
95 62 209
94 62 209
94 61 209
93 61 209
93 60 209
93 60 209
92 59 209
92 59 209
91 58 209
91 58 209
91 57 209
90 57 209
90 56 209
89 55 209
89 55 209
89 54 209
88 54 209
88 53 209
87 53 209
87 52 209
87 52 209
86 51 209
86 51 209
85 50 209
85 50 209
84 49 209
84 49 209
84 48 209
83 48 209
83 47 209
82 47 209
82 46 209
82 46 209
81 45 209
81 44 209
80 44 209
80 43 209
80 43 209
79 42 209
79 42 209
78 41 209
78 41 209
78 40 209
77 40 209
77 39 209
76 39 209
76 38 209
75 38 209
75 37 209
75 37 209
74 36 209
74 36 209
73 35 209
73 35 209
73 34 209
72 34 209
72 33 209
71 32 209
71 32 209
71 31 209
70 31 209
70 30 209
69 30 209
69 29 209
69 29 209
68 28 209
68 28 209
67 27 209
67 27 209
67 26 209
66 26 209
66 25 209
65 25 209
65 24 209
64 24 209
64 23 209
64 23 209
63 22 209
63 21 209
62 21 209
62 20 209
62 20 209
61 19 209
61 19 209
60 18 209
60 18 209
60 17 209
59 17 209
59 16 209
58 16 209
58 15 209
58 15 209
57 14 209
57 14 209
56 13 209
56 13 209
56 12 209
55 12 209
55 11 209
54 10 209
54 10 209
53 9 209
53 9 209
53 8 209
52 8 209
52 7 209
51 7 209
51 6 209
51 6 209
50 5 209
50 5 209
49 4 209
49 4 209
49 3 209
48 3 209
48 2 209
47 2 209
47 1 209
47 1 209
46 0 209
208 208 208
207 207 208
207 207 208
206 206 208
206 206 208
206 205 208
205 204 208
205 204 208
204 203 208
204 203 208
204 202 208
203 202 208
203 201 208
202 201 208
202 200 208
202 200 208
201 199 208
201 199 208
200 198 208
200 198 208
200 197 208
199 197 208
199 196 208
198 196 208
198 195 208
198 195 208
197 194 208
197 194 208
196 193 208
196 193 208
196 192 208
195 191 208
195 191 208
194 190 208
194 190 208
194 189 208
193 189 208
193 188 208
192 188 208
192 187 208
192 187 208
191 186 208
191 186 208
190 185 208
190 185 208
190 184 208
189 184 208
189 183 208
188 183 208
188 182 208
188 182 208
187 181 208
187 181 208
186 180 208
186 179 208
186 179 208
185 178 208
185 178 208
184 177 208
184 177 208
184 176 208
183 176 208
183 175 208
182 175 208
182 174 208
181 174 208
181 173 208
181 173 208
180 172 208
180 172 208
179 171 208
179 171 208
179 170 208
178 170 208
178 169 208
177 169 208
177 168 208
177 168 208
176 167 208
176 166 208
175 166 208
175 165 208
175 165 208
174 164 208
174 164 208
173 163 208
173 163 208
173 162 208
172 162 208
172 161 208
171 161 208
171 160 208
171 160 208
170 159 208
170 159 208
169 158 208
169 158 208
169 157 208
168 157 208
168 156 208
167 156 208
167 155 208
167 155 208
166 154 208
166 153 208
165 153 208
165 152 208
165 152 208
164 151 208
164 151 208
163 150 208
163 150 208
163 149 208
162 149 208
162 148 208
161 148 208
161 147 208
161 147 208
160 146 208
160 146 208
159 145 208
159 145 208
159 144 208
158 144 208
158 143 208
157 143 208
157 142 208
157 142 208
156 141 208
156 140 208
155 140 208
155 139 208
155 139 208
154 138 208
154 138 208
153 137 208
153 137 208
153 136 208
152 136 208
152 135 208
151 135 208
151 134 208
151 134 208
150 133 208
150 133 208
149 132 208
149 132 208
149 131 208
148 131 208
148 130 208
147 130 208
147 129 208
147 129 208
146 128 208
146 127 208
145 127 208
145 126 208
145 126 208
144 125 208
144 125 208
143 124 208
143 124 208
143 123 208
142 123 208
142 122 208
141 122 208
141 121 208
141 121 208
140 120 208
140 120 208
139 119 208
139 119 208
139 118 208
138 118 208
138 117 208
137 117 208
137 116 208
137 116 208
136 115 208
136 114 208
135 114 208
135 113 208
135 113 208
134 112 208
134 112 208
133 111 208
133 111 208
133 110 208
132 110 208
132 109 208
131 109 208
131 108 208
131 108 208
130 107 208
130 107 208
129 106 208
129 106 208
129 105 208
128 105 208
128 104 208
127 104 208
127 103 208
126 102 208
126 102 208
126 101 208
125 101 208
125 100 208
124 100 208
124 99 208
124 99 208
123 98 208
123 98 208
122 97 208
122 97 208
122 96 208
121 96 208
121 95 208
120 95 208
120 94 208
120 94 208
119 93 208
119 93 208
118 92 208
118 92 208
118 91 208
117 91 208
117 90 208
116 89 208
116 89 208
116 88 208
115 88 208
115 87 208
114 87 208
114 86 208
114 86 208
113 85 208
113 85 208
112 84 208
112 84 208
112 83 208
111 83 208
111 82 208
110 82 208
110 81 208
110 81 208
109 80 208
109 80 208
108 79 208
108 79 208
108 78 208
107 78 208
107 77 208
106 76 208
106 76 208
106 75 208
105 75 208
105 74 208
104 74 208
104 73 208
104 73 208
103 72 208
103 72 208
102 71 208
102 71 208
102 70 208
101 70 208
101 69 208
100 69 208
100 68 208
100 68 208
99 67 208
99 67 208
98 66 208
98 66 208
98 65 208
97 65 208
97 64 208
96 63 208
96 63 208
96 62 208
95 62 208
95 61 208
94 61 208
94 60 208
94 60 208
93 59 208
93 59 208
92 58 208
92 58 208
92 57 208
91 57 208
91 56 208
90 56 208
90 55 208
90 55 208
89 54 208
89 54 208
88 53 208
88 53 208
88 52 208
87 52 208
87 51 208
86 50 208
86 50 208
86 49 208
85 49 208
85 48 208
84 48 208
84 47 208
84 47 208
83 46 208
83 46 208
82 45 208
82 45 208
82 44 208
81 44 208
81 43 208
80 43 208
80 42 208
80 42 208
79 41 208
79 41 208
78 40 208
78 40 208
78 39 208
77 39 208
77 38 208
76 37 208
76 37 208
76 36 208
75 36 208
75 35 208
74 35 208
74 34 208
74 34 208
73 33 208
73 33 208
72 32 208
72 32 208
71 31 208
71 31 208
71 30 208
70 30 208
70 29 208
69 29 208
69 28 208
69 28 208
68 27 208
68 27 208
67 26 208
67 25 208
67 25 208
66 24 208
66 24 208
65 23 208
65 23 208
65 22 208
64 22 208
64 21 208
63 21 208
63 20 208
63 20 208
62 19 208
62 19 208
61 18 208
61 18 208
61 17 208
60 17 208
60 16 208
59 16 208
59 15 208
59 15 208
58 14 208
58 14 208
57 13 208
57 12 208
57 12 208
56 11 208
56 11 208
55 10 208
55 10 208
55 9 208
54 9 208
54 8 208
53 8 208
53 7 208
53 7 208
52 6 208
52 6 208
51 5 208
51 5 208
51 4 208
50 4 208
50 3 208
49 3 208
49 2 208
49 2 208
48 1 208
48 1 208
47 0 208
206 206 206
206 206 206
206 205 206
205 205 206
205 204 206
204 204 206
204 203 206
204 203 206
203 202 206
203 202 206
202 201 206
202 201 206
202 200 206
201 200 206
201 199 206
200 199 206
200 198 206
200 198 206
199 197 206
199 196 206
198 196 206
198 195 206
198 195 206
197 194 206
197 194 206
196 193 206
196 193 206
196 192 206
195 192 206
195 191 206
194 191 206
194 190 206
194 190 206
193 189 206
193 189 206
192 188 206
192 188 206
192 187 206
191 187 206
191 186 206
191 186 206
190 185 206
190 185 206
189 184 206
189 184 206
189 183 206
188 183 206
188 182 206
187 181 206
187 181 206
187 180 206
186 180 206
186 179 206
185 179 206
185 178 206
185 178 206
184 177 206
184 177 206
183 176 206
183 176 206
183 175 206
182 175 206
182 174 206
181 174 206
181 173 206
181 173 206
180 172 206
180 172 206
179 171 206
179 171 206
179 170 206
178 170 206
178 169 206
177 169 206
177 168 206
177 168 206
176 167 206
176 166 206
175 166 206
175 165 206
175 165 206
174 164 206
174 164 206
174 163 206
173 163 206
173 162 206
172 162 206
172 161 206
172 161 206
171 160 206
171 160 206
170 159 206
170 159 206
170 158 206
169 158 206
169 157 206
168 157 206
168 156 206
168 156 206
167 155 206
167 155 206
166 154 206
166 154 206
166 153 206
165 153 206
165 152 206
164 151 206
164 151 206
164 150 206
163 150 206
163 149 206
162 149 206
162 148 206
162 148 206
161 147 206
161 147 206
160 146 206
160 146 206
160 145 206
159 145 206
159 144 206
159 144 206
158 143 206
158 143 206
157 142 206
157 142 206
157 141 206
156 141 206
156 140 206
155 140 206
155 139 206
155 139 206
154 138 206
154 138 206
153 137 206
153 137 206
153 136 206
152 135 206
152 135 206
151 134 206
151 134 206
151 133 206
150 133 206
150 132 206
149 132 206
149 131 206
149 131 206
148 130 206
148 130 206
147 129 206
147 129 206
147 128 206
146 128 206
146 127 206
145 127 206
145 126 206
145 126 206
144 125 206
144 125 206
143 124 206
143 124 206
143 123 206
142 123 206
142 122 206
142 122 206
141 121 206
141 120 206
140 120 206
140 119 206
140 119 206
139 118 206
139 118 206
138 117 206
138 117 206
138 116 206
137 116 206
137 115 206
136 115 206
136 114 206
136 114 206
135 113 206
135 113 206
134 112 206
134 112 206
134 111 206
133 111 206
133 110 206
132 110 206
132 109 206
132 109 206
131 108 206
131 108 206
130 107 206
130 107 206
130 106 206
129 105 206
129 105 206
128 104 206
128 104 206
128 103 206
127 103 206
127 102 206
127 102 206
126 101 206
126 101 206
125 100 206
125 100 206
125 99 206
124 99 206
124 98 206
123 98 206
123 97 206
123 97 206
122 96 206
122 96 206
121 95 206
121 95 206
121 94 206
120 94 206
120 93 206
119 93 206
119 92 206
119 92 206
118 91 206
118 90 206
117 90 206
117 89 206
117 89 206
116 88 206
116 88 206
115 87 206
115 87 206
115 86 206
114 86 206
114 85 206
113 85 206
113 84 206
113 84 206
112 83 206
112 83 206
112 82 206
111 82 206
111 81 206
110 81 206
110 80 206
110 80 206
109 79 206
109 79 206
108 78 206
108 78 206
108 77 206
107 77 206
107 76 206
106 75 206
106 75 206
106 74 206
105 74 206
105 73 206
104 73 206
104 72 206
104 72 206
103 71 206
103 71 206
102 70 206
102 70 206
102 69 206
101 69 206
101 68 206
100 68 206
100 67 206
100 67 206
99 66 206
99 66 206
98 65 206
98 65 206
98 64 206
97 64 206
97 63 206
96 63 206
96 62 206
96 62 206
95 61 206
95 60 206
95 60 206
94 59 206
94 59 206
93 58 206
93 58 206
93 57 206
92 57 206
92 56 206
91 56 206
91 55 206
91 55 206
90 54 206
90 54 206
89 53 206
89 53 206
89 52 206
88 52 206
88 51 206
87 51 206
87 50 206
87 50 206
86 49 206
86 49 206
85 48 206
85 48 206
85 47 206
84 47 206
84 46 206
83 46 206
83 45 206
83 44 206
82 44 206
82 43 206
81 43 206
81 42 206
81 42 206
80 41 206
80 41 206
80 40 206
79 40 206
79 39 206
78 39 206
78 38 206
78 38 206
77 37 206
77 37 206
76 36 206
76 36 206
76 35 206
75 35 206
75 34 206
74 34 206
74 33 206
74 33 206
73 32 206
73 32 206
72 31 206
72 31 206
72 30 206
71 29 206
71 29 206
70 28 206
70 28 206
70 27 206
69 27 206
69 26 206
68 26 206
68 25 206
68 25 206
67 24 206
67 24 206
66 23 206
66 23 206
66 22 206
65 22 206
65 21 206
64 21 206
64 20 206
64 20 206
63 19 206
63 19 206
63 18 206
62 18 206
62 17 206
61 17 206
61 16 206
61 16 206
60 15 206
60 14 206
59 14 206
59 13 206
59 13 206
58 12 206
58 12 206
57 11 206
57 11 206
57 10 206
56 10 206
56 9 206
55 9 206
55 8 206
55 8 206
54 7 206
54 7 206
53 6 206
53 6 206
53 5 206
52 5 206
52 4 206
51 4 206
51 3 206
51 3 206
50 2 206
50 2 206
49 1 206
49 1 206
49 0 206
205 205 205
205 205 205
204 204 205
204 203 205
203 203 205
203 202 205
203 202 205
202 201 205
202 201 205
202 200 205
201 200 205
201 199 205
200 199 205
200 198 205
200 198 205
199 197 205
199 197 205
198 196 205
198 196 205
198 195 205
197 195 205
197 194 205
196 194 205
196 193 205
196 193 205
195 192 205
195 192 205
195 191 205
194 191 205
194 190 205
193 190 205
193 189 205
193 189 205
192 188 205
192 188 205
191 187 205
191 187 205
191 186 205
190 185 205
190 185 205
189 184 205
189 184 205
189 183 205
188 183 205
188 182 205
188 182 205
187 181 205
187 181 205
186 180 205
186 180 205
186 179 205
185 179 205
185 178 205
184 178 205
184 177 205
184 177 205
183 176 205
183 176 205
182 175 205
182 175 205
182 174 205
181 174 205
181 173 205
181 173 205
180 172 205
180 172 205
179 171 205
179 171 205
179 170 205
178 170 205
178 169 205
177 169 205
177 168 205
177 168 205
176 167 205
176 166 205
175 166 205
175 165 205
175 165 205
174 164 205
174 164 205
174 163 205
173 163 205
173 162 205
172 162 205
172 161 205
172 161 205
171 160 205
171 160 205
170 159 205
170 159 205
170 158 205
169 158 205
169 157 205
168 157 205
168 156 205
168 156 205
167 155 205
167 155 205
167 154 205
166 154 205
166 153 205
165 153 205
165 152 205
165 152 205
164 151 205
164 151 205
163 150 205
163 150 205
163 149 205
162 149 205
162 148 205
162 147 205
161 147 205
161 146 205
160 146 205
160 145 205
160 145 205
159 144 205
159 144 205
158 143 205
158 143 205
158 142 205
157 142 205
157 141 205
156 141 205
156 140 205
156 140 205
155 139 205
155 139 205
155 138 205
154 138 205
154 137 205
153 137 205
153 136 205
153 136 205
152 135 205
152 135 205
151 134 205
151 134 205
151 133 205
150 133 205
150 132 205
149 132 205
149 131 205
149 131 205
148 130 205
148 129 205
148 129 205
147 128 205
147 128 205
146 127 205
146 127 205
146 126 205
145 126 205
145 125 205
144 125 205
144 124 205
144 124 205
143 123 205
143 123 205
142 122 205
142 122 205
142 121 205
141 121 205
141 120 205
141 120 205
140 119 205
140 119 205
139 118 205
139 118 205
139 117 205
138 117 205
138 116 205
137 116 205
137 115 205
137 115 205
136 114 205
136 114 205
135 113 205
135 113 205
135 112 205
134 112 205
134 111 205
134 110 205
133 110 205
133 109 205
132 109 205
132 108 205
132 108 205
131 107 205
131 107 205
130 106 205
130 106 205
130 105 205
129 105 205
129 104 205
128 104 205
128 103 205
128 103 205
127 102 205
127 102 205
127 101 205
126 101 205
126 100 205
125 100 205
125 99 205
125 99 205
124 98 205
124 98 205
123 97 205
123 97 205
123 96 205
122 96 205
122 95 205
121 95 205
121 94 205
121 94 205
120 93 205
120 92 205
120 92 205
119 91 205
119 91 205
118 90 205
118 90 205
118 89 205
117 89 205
117 88 205
116 88 205
116 87 205
116 87 205
115 86 205
115 86 205
114 85 205
114 85 205
114 84 205
113 84 205
113 83 205
113 83 205
112 82 205
112 82 205
111 81 205
111 81 205
111 80 205
110 80 205
110 79 205
109 79 205
109 78 205
109 78 205
108 77 205
108 77 205
107 76 205
107 76 205
107 75 205
106 75 205
106 74 205
106 73 205
105 73 205
105 72 205
104 72 205
104 71 205
104 71 205
103 70 205
103 70 205
102 69 205
102 69 205
102 68 205
101 68 205
101 67 205
100 67 205
100 66 205
100 66 205
99 65 205
99 65 205
99 64 205
98 64 205
98 63 205
97 63 205
97 62 205
97 62 205
96 61 205
96 61 205
95 60 205
95 60 205
95 59 205
94 59 205
94 58 205
93 58 205
93 57 205
93 57 205
92 56 205
92 55 205
92 55 205
91 54 205
91 54 205
90 53 205
90 53 205
90 52 205
89 52 205
89 51 205
88 51 205
88 50 205
88 50 205
87 49 205
87 49 205
87 48 205
86 48 205
86 47 205
85 47 205
85 46 205
85 46 205
84 45 205
84 45 205
83 44 205
83 44 205
83 43 205
82 43 205
82 42 205
81 42 205
81 41 205
81 41 205
80 40 205
80 40 205
80 39 205
79 39 205
79 38 205
78 38 205
78 37 205
78 36 205
77 36 205
77 35 205
76 35 205
76 34 205
76 34 205
75 33 205
75 33 205
74 32 205
74 32 205
74 31 205
73 31 205
73 30 205
73 30 205
72 29 205
72 29 205
71 28 205
71 28 205
71 27 205
70 27 205
70 26 205
69 26 205
69 25 205
69 25 205
68 24 205
68 24 205
67 23 205
67 23 205
67 22 205
66 22 205
66 21 205
66 21 205
65 20 205
65 20 205
64 19 205
64 18 205
64 18 205
63 17 205
63 17 205
62 16 205
62 16 205
62 15 205
61 15 205
61 14 205
60 14 205
60 13 205
60 13 205
59 12 205
59 12 205
59 11 205
58 11 205
58 10 205
57 10 205
57 9 205
57 9 205
56 8 205
56 8 205
55 7 205
55 7 205
55 6 205
54 6 205
54 5 205
53 5 205
53 4 205
53 4 205
52 3 205
52 3 205
52 2 205
51 2 205
51 1 205
50 1 205
50 0 205
204 204 204
203 203 204
203 203 204
203 202 204
202 202 204
202 201 204
201 201 204
201 200 204
201 200 204
200 199 204
200 199 204
200 198 204
199 198 204
199 197 204
198 197 204
198 196 204
198 196 204
197 195 204
197 195 204
196 194 204
196 194 204
196 193 204
195 193 204
195 192 204
195 191 204
194 191 204
194 190 204
193 190 204
193 189 204
193 189 204
192 188 204
192 188 204
192 187 204
191 187 204
191 186 204
190 186 204
190 185 204
190 185 204
189 184 204
189 184 204
188 183 204
188 183 204
188 182 204
187 182 204
187 181 204
187 181 204
186 180 204
186 180 204
185 179 204
185 179 204
185 178 204
184 178 204
184 177 204
183 177 204
183 176 204
183 176 204
182 175 204
182 175 204
182 174 204
181 174 204
181 173 204
180 173 204
180 172 204
180 172 204
179 171 204
179 171 204
179 170 204
178 170 204
178 169 204
177 169 204
177 168 204
177 167 204
176 167 204
176 166 204
175 166 204
175 165 204
175 165 204
174 164 204
174 164 204
174 163 204
173 163 204
173 162 204
172 162 204
172 161 204
172 161 204
171 160 204
171 160 204
170 159 204
170 159 204
170 158 204
169 158 204
169 157 204
169 157 204
168 156 204
168 156 204
167 155 204
167 155 204
167 154 204
166 154 204
166 153 204
166 153 204
165 152 204
165 152 204
164 151 204
164 151 204
164 150 204
163 150 204
163 149 204
162 149 204
162 148 204
162 148 204
161 147 204
161 147 204
161 146 204
160 146 204
160 145 204
159 145 204
159 144 204
159 143 204
158 143 204
158 142 204
158 142 204
157 141 204
157 141 204
156 140 204
156 140 204
156 139 204
155 139 204
155 138 204
154 138 204
154 137 204
154 137 204
153 136 204
153 136 204
153 135 204
152 135 204
152 134 204
151 134 204
151 133 204
151 133 204
150 132 204
150 132 204
149 131 204
149 131 204
149 130 204
148 130 204
148 129 204
148 129 204
147 128 204
147 128 204
146 127 204
146 127 204
146 126 204
145 126 204
145 125 204
145 125 204
144 124 204
144 124 204
143 123 204
143 123 204
143 122 204
142 122 204
142 121 204
141 121 204
141 120 204
141 119 204
140 119 204
140 118 204
140 118 204
139 117 204
139 117 204
138 116 204
138 116 204
138 115 204
137 115 204
137 114 204
136 114 204
136 113 204
136 113 204
135 112 204
135 112 204
135 111 204
134 111 204
134 110 204
133 110 204
133 109 204
133 109 204
132 108 204
132 108 204
132 107 204
131 107 204
131 106 204
130 106 204
130 105 204
130 105 204
129 104 204
129 104 204
128 103 204
128 103 204
128 102 204
127 102 204
127 101 204
127 101 204
126 100 204
126 100 204
125 99 204
125 99 204
125 98 204
124 98 204
124 97 204
123 97 204
123 96 204
123 95 204
122 95 204
122 94 204
122 94 204
121 93 204
121 93 204
120 92 204
120 92 204
120 91 204
119 91 204
119 90 204
119 90 204
118 89 204
118 89 204
117 88 204
117 88 204
117 87 204
116 87 204
116 86 204
115 86 204
115 85 204
115 85 204
114 84 204
114 84 204
114 83 204
113 83 204
113 82 204
112 82 204
112 81 204
112 81 204
111 80 204
111 80 204
110 79 204
110 79 204
110 78 204
109 78 204
109 77 204
109 77 204
108 76 204
108 76 204
107 75 204
107 75 204
107 74 204
106 74 204
106 73 204
106 73 204
105 72 204
105 71 204
104 71 204
104 70 204
104 70 204
103 69 204
103 69 204
102 68 204
102 68 204
102 67 204
101 67 204
101 66 204
101 66 204
100 65 204
100 65 204
99 64 204
99 64 204
99 63 204
98 63 204
98 62 204
97 62 204
97 61 204
97 61 204
96 60 204
96 60 204
96 59 204
95 59 204
95 58 204
94 58 204
94 57 204
94 57 204
93 56 204
93 56 204
93 55 204
92 55 204
92 54 204
91 54 204
91 53 204
91 53 204
90 52 204
90 52 204
89 51 204
89 51 204
89 50 204
88 50 204
88 49 204
88 49 204
87 48 204
87 47 204
86 47 204
86 46 204
86 46 204
85 45 204
85 45 204
85 44 204
84 44 204
84 43 204
83 43 204
83 42 204
83 42 204
82 41 204
82 41 204
81 40 204
81 40 204
81 39 204
80 39 204
80 38 204
80 38 204
79 37 204
79 37 204
78 36 204
78 36 204
78 35 204
77 35 204
77 34 204
76 34 204
76 33 204
76 33 204
75 32 204
75 32 204
75 31 204
74 31 204
74 30 204
73 30 204
73 29 204
73 29 204
72 28 204
72 28 204
72 27 204
71 27 204
71 26 204
70 26 204
70 25 204
70 25 204
69 24 204
69 23 204
68 23 204
68 22 204
68 22 204
67 21 204
67 21 204
67 20 204
66 20 204
66 19 204
65 19 204
65 18 204
65 18 204
64 17 204
64 17 204
63 16 204
63 16 204
63 15 204
62 15 204
62 14 204
62 14 204
61 13 204
61 13 204
60 12 204
60 12 204
60 11 204
59 11 204
59 10 204
59 10 204
58 9 204
58 9 204
57 8 204
57 8 204
57 7 204
56 7 204
56 6 204
55 6 204
55 5 204
55 5 204
54 4 204
54 4 204
54 3 204
53 3 204
53 2 204
52 2 204
52 1 204
52 1 204
51 0 204
202 202 202
202 202 202
202 201 202
201 201 202
201 200 202
201 200 202
200 199 202
200 199 202
199 198 202
199 198 202
199 197 202
198 197 202
198 196 202
198 196 202
197 195 202
197 195 202
196 194 202
196 194 202
196 193 202
195 193 202
195 192 202
195 192 202
194 191 202
194 191 202
193 190 202
193 190 202
193 189 202
192 189 202
192 188 202
192 188 202
191 187 202
191 187 202
190 186 202
190 186 202
190 185 202
189 185 202
189 184 202
189 184 202
188 183 202
188 183 202
187 182 202
187 182 202
187 181 202
186 181 202
186 180 202
186 180 202
185 179 202
185 179 202
184 178 202
184 178 202
184 177 202
183 177 202
183 176 202
183 176 202
182 175 202
182 175 202
181 174 202
181 174 202
181 173 202
180 173 202
180 172 202
180 172 202
179 171 202
179 170 202
178 170 202
178 169 202
178 169 202
177 168 202
177 168 202
177 167 202
176 167 202
176 166 202
175 166 202
175 165 202
175 165 202
174 164 202
174 164 202
174 163 202
173 163 202
173 162 202
172 162 202
172 161 202
172 161 202
171 160 202
171 160 202
171 159 202
170 159 202
170 158 202
169 158 202
169 157 202
169 157 202
168 156 202
168 156 202
168 155 202
167 155 202
167 154 202
166 154 202
166 153 202
166 153 202
165 152 202
165 152 202
165 151 202
164 151 202
164 150 202
163 150 202
163 149 202
163 149 202
162 148 202
162 148 202
162 147 202
161 147 202
161 146 202
160 146 202
160 145 202
160 145 202
159 144 202
159 144 202
158 143 202
158 143 202
158 142 202
157 142 202
157 141 202
157 141 202
156 140 202
156 140 202
155 139 202
155 139 202
155 138 202
154 138 202
154 137 202
154 136 202
153 136 202
153 135 202
152 135 202
152 134 202
152 134 202
151 133 202
151 133 202
151 132 202
150 132 202
150 131 202
149 131 202
149 130 202
149 130 202
148 129 202
148 129 202
148 128 202
147 128 202
147 127 202
146 127 202
146 126 202
146 126 202
145 125 202
145 125 202
145 124 202
144 124 202
144 123 202
143 123 202
143 122 202
143 122 202
142 121 202
142 121 202
142 120 202
141 120 202
141 119 202
140 119 202
140 118 202
140 118 202
139 117 202
139 117 202
139 116 202
138 116 202
138 115 202
137 115 202
137 114 202
137 114 202
136 113 202
136 113 202
136 112 202
135 112 202
135 111 202
134 111 202
134 110 202
134 110 202
133 109 202
133 109 202
133 108 202
132 108 202
132 107 202
131 107 202
131 106 202
131 106 202
130 105 202
130 105 202
130 104 202
129 104 202
129 103 202
128 102 202
128 102 202
128 101 202
127 101 202
127 100 202
127 100 202
126 99 202
126 99 202
125 98 202
125 98 202
125 97 202
124 97 202
124 96 202
124 96 202
123 95 202
123 95 202
122 94 202
122 94 202
122 93 202
121 93 202
121 92 202
121 92 202
120 91 202
120 91 202
119 90 202
119 90 202
119 89 202
118 89 202
118 88 202
118 88 202
117 87 202
117 87 202
116 86 202
116 86 202
116 85 202
115 85 202
115 84 202
115 84 202
114 83 202
114 83 202
113 82 202
113 82 202
113 81 202
112 81 202
112 80 202
112 80 202
111 79 202
111 79 202
110 78 202
110 78 202
110 77 202
109 77 202
109 76 202
109 76 202
108 75 202
108 75 202
107 74 202
107 74 202
107 73 202
106 73 202
106 72 202
106 72 202
105 71 202
105 71 202
104 70 202
104 70 202
104 69 202
103 69 202
103 68 202
103 67 202
102 67 202
102 66 202
101 66 202
101 65 202
101 65 202
100 64 202
100 64 202
100 63 202
99 63 202
99 62 202
98 62 202
98 61 202
98 61 202
97 60 202
97 60 202
97 59 202
96 59 202
96 58 202
95 58 202
95 57 202
95 57 202
94 56 202
94 56 202
93 55 202
93 55 202
93 54 202
92 54 202
92 53 202
92 53 202
91 52 202
91 52 202
90 51 202
90 51 202
90 50 202
89 50 202
89 49 202
89 49 202
88 48 202
88 48 202
87 47 202
87 47 202
87 46 202
86 46 202
86 45 202
86 45 202
85 44 202
85 44 202
84 43 202
84 43 202
84 42 202
83 42 202
83 41 202
83 41 202
82 40 202
82 40 202
81 39 202
81 39 202
81 38 202
80 38 202
80 37 202
80 37 202
79 36 202
79 36 202
78 35 202
78 35 202
78 34 202
77 33 202
77 33 202
77 32 202
76 32 202
76 31 202
75 31 202
75 30 202
75 30 202
74 29 202
74 29 202
74 28 202
73 28 202
73 27 202
72 27 202
72 26 202
72 26 202
71 25 202
71 25 202
71 24 202
70 24 202
70 23 202
69 23 202
69 22 202
69 22 202
68 21 202
68 21 202
68 20 202
67 20 202
67 19 202
66 19 202
66 18 202
66 18 202
65 17 202
65 17 202
65 16 202
64 16 202
64 15 202
63 15 202
63 14 202
63 14 202
62 13 202
62 13 202
62 12 202
61 12 202
61 11 202
60 11 202
60 10 202
60 10 202
59 9 202
59 9 202
59 8 202
58 8 202
58 7 202
57 7 202
57 6 202
57 6 202
56 5 202
56 5 202
56 4 202
55 4 202
55 3 202
54 3 202
54 2 202
54 2 202
53 1 202
53 1 202
53 0 202
201 201 201
201 201 201
200 200 201
200 200 201
200 199 201
199 199 201
199 198 201
199 198 201
198 197 201
198 197 201
197 196 201
197 196 201
197 195 201
196 195 201
196 194 201
196 194 201
195 193 201
195 193 201
195 192 201
194 192 201
194 191 201
193 191 201
193 190 201
193 190 201
192 189 201
192 189 201
192 188 201
191 188 201
191 187 201
190 187 201
190 186 201
190 186 201
189 185 201
189 185 201
189 184 201
188 184 201
188 183 201
188 183 201
187 182 201
187 182 201
186 181 201
186 181 201
186 180 201
185 179 201
185 179 201
185 178 201
184 178 201
184 177 201
183 177 201
183 176 201
183 176 201
182 175 201
182 175 201
182 174 201
181 174 201
181 173 201
180 173 201
180 172 201
180 172 201
179 171 201
179 171 201
179 170 201
178 170 201
178 169 201
178 169 201
177 168 201
177 168 201
176 167 201
176 167 201
176 166 201
175 166 201
175 165 201
175 165 201
174 164 201
174 164 201
173 163 201
173 163 201
173 162 201
172 162 201
172 161 201
172 161 201
171 160 201
171 160 201
171 159 201
170 159 201
170 158 201
169 158 201
169 157 201
169 157 201
168 156 201
168 156 201
168 155 201
167 155 201
167 154 201
166 154 201
166 153 201
166 153 201
165 152 201
165 152 201
165 151 201
164 151 201
164 150 201
164 150 201
163 149 201
163 149 201
162 148 201
162 148 201
162 147 201
161 147 201
161 146 201
161 146 201
160 145 201
160 145 201
159 144 201
159 144 201
159 143 201
158 143 201
158 142 201
158 142 201
157 141 201
157 141 201
156 140 201
156 140 201
156 139 201
155 139 201
155 138 201
155 138 201
154 137 201
154 137 201
154 136 201
153 136 201
153 135 201
152 135 201
152 134 201
152 134 201
151 133 201
151 133 201
151 132 201
150 132 201
150 131 201
149 131 201
149 130 201
149 130 201
148 129 201
148 129 201
148 128 201
147 128 201
147 127 201
147 127 201
146 126 201
146 126 201
145 125 201
145 125 201
145 124 201
144 124 201
144 123 201
144 123 201
143 122 201
143 122 201
142 121 201
142 121 201
142 120 201
141 119 201
141 119 201
141 118 201
140 118 201
140 117 201
140 117 201
139 116 201
139 116 201
138 115 201
138 115 201
138 114 201
137 114 201
137 113 201
137 113 201
136 112 201
136 112 201
135 111 201
135 111 201
135 110 201
134 110 201
134 109 201
134 109 201
133 108 201
133 108 201
132 107 201
132 107 201
132 106 201
131 106 201
131 105 201
131 105 201
130 104 201
130 104 201
130 103 201
129 103 201
129 102 201
128 102 201
128 101 201
128 101 201
127 100 201
127 100 201
127 99 201
126 99 201
126 98 201
125 98 201
125 97 201
125 97 201
124 96 201
124 96 201
124 95 201
123 95 201
123 94 201
123 94 201
122 93 201
122 93 201
121 92 201
121 92 201
121 91 201
120 91 201
120 90 201
120 90 201
119 89 201
119 89 201
118 88 201
118 88 201
118 87 201
117 87 201
117 86 201
117 86 201
116 85 201
116 85 201
115 84 201
115 84 201
115 83 201
114 83 201
114 82 201
114 82 201
113 81 201
113 81 201
113 80 201
112 80 201
112 79 201
111 79 201
111 78 201
111 78 201
110 77 201
110 77 201
110 76 201
109 76 201
109 75 201
108 75 201
108 74 201
108 74 201
107 73 201
107 73 201
107 72 201
106 72 201
106 71 201
106 71 201
105 70 201
105 70 201
104 69 201
104 69 201
104 68 201
103 68 201
103 67 201
103 67 201
102 66 201
102 66 201
101 65 201
101 65 201
101 64 201
100 64 201
100 63 201
100 63 201
99 62 201
99 62 201
99 61 201
98 61 201
98 60 201
97 59 201
97 59 201
97 58 201
96 58 201
96 57 201
96 57 201
95 56 201
95 56 201
94 55 201
94 55 201
94 54 201
93 54 201
93 53 201
93 53 201
92 52 201
92 52 201
91 51 201
91 51 201
91 50 201
90 50 201
90 49 201
90 49 201
89 48 201
89 48 201
89 47 201
88 47 201
88 46 201
87 46 201
87 45 201
87 45 201
86 44 201
86 44 201
86 43 201
85 43 201
85 42 201
84 42 201
84 41 201
84 41 201
83 40 201
83 40 201
83 39 201
82 39 201
82 38 201
82 38 201
81 37 201
81 37 201
80 36 201
80 36 201
80 35 201
79 35 201
79 34 201
79 34 201
78 33 201
78 33 201
77 32 201
77 32 201
77 31 201
76 31 201
76 30 201
76 30 201
75 29 201
75 29 201
75 28 201
74 28 201
74 27 201
73 27 201
73 26 201
73 26 201
72 25 201
72 25 201
72 24 201
71 24 201
71 23 201
70 23 201
70 22 201
70 22 201
69 21 201
69 21 201
69 20 201
68 20 201
68 19 201
67 19 201
67 18 201
67 18 201
66 17 201
66 17 201
66 16 201
65 16 201
65 15 201
65 15 201
64 14 201
64 14 201
63 13 201
63 13 201
63 12 201
62 12 201
62 11 201
62 11 201
61 10 201
61 10 201
60 9 201
60 9 201
60 8 201
59 8 201
59 7 201
59 7 201
58 6 201
58 6 201
58 5 201
57 5 201
57 4 201
56 4 201
56 3 201
56 3 201
55 2 201
55 2 201
55 1 201
54 1 201
54 0 201
200 200 200
200 199 200
199 199 200
199 198 200
198 198 200
198 197 200
198 197 200
197 196 200
197 196 200
197 195 200
196 195 200
196 194 200
196 194 200
195 193 200
195 193 200
194 192 200
194 192 200
194 191 200
193 191 200
193 190 200
193 190 200
192 189 200
192 189 200
192 188 200
191 188 200
191 187 200
190 187 200
190 186 200
190 186 200
189 185 200
189 185 200
189 184 200
188 184 200
188 183 200
188 183 200
187 182 200
187 182 200
186 181 200
186 181 200
186 180 200
185 180 200
185 179 200
185 179 200
184 178 200
184 178 200
184 177 200
183 177 200
183 176 200
182 176 200
182 175 200
182 175 200
181 174 200
181 174 200
181 173 200
180 173 200
180 172 200
180 172 200
179 171 200
179 171 200
178 170 200
178 170 200
178 169 200
177 169 200
177 168 200
177 168 200
176 167 200
176 167 200
176 166 200
175 166 200
175 165 200
174 165 200
174 164 200
174 164 200
173 163 200
173 163 200
173 162 200
172 162 200
172 161 200
172 161 200
171 160 200
171 160 200
171 159 200
170 159 200
170 158 200
169 158 200
169 157 200
169 157 200
168 156 200
168 156 200
168 155 200
167 155 200
167 154 200
167 154 200
166 153 200
166 153 200
165 152 200
165 152 200
165 151 200
164 151 200
164 150 200
164 150 200
163 149 200
163 149 200
163 148 200
162 148 200
162 147 200
161 147 200
161 146 200
161 146 200
160 145 200
160 145 200
160 144 200
159 144 200
159 143 200
159 143 200
158 142 200
158 142 200
157 141 200
157 141 200
157 140 200
156 140 200
156 139 200
156 139 200
155 138 200
155 138 200
155 137 200
154 137 200
154 136 200
153 136 200
153 135 200
153 135 200
152 134 200
152 134 200
152 133 200
151 133 200
151 132 200
151 132 200
150 131 200
150 131 200
149 130 200
149 130 200
149 129 200
148 129 200
148 128 200
148 128 200
147 127 200
147 127 200
147 126 200
146 126 200
146 125 200
145 125 200
145 124 200
145 124 200
144 123 200
144 123 200
144 122 200
143 122 200
143 121 200
143 121 200
142 120 200
142 120 200
141 119 200
141 119 200
141 118 200
140 118 200
140 117 200
140 117 200
139 116 200
139 116 200
139 115 200
138 115 200
138 114 200
137 114 200
137 113 200
137 113 200
136 112 200
136 112 200
136 111 200
135 111 200
135 110 200
135 110 200
134 109 200
134 109 200
133 108 200
133 108 200
133 107 200
132 107 200
132 106 200
132 106 200
131 105 200
131 105 200
131 104 200
130 104 200
130 103 200
129 103 200
129 102 200
129 102 200
128 101 200
128 101 200
128 100 200
127 100 200
127 99 200
127 99 200
126 98 200
126 98 200
126 97 200
125 97 200
125 96 200
124 96 200
124 95 200
124 95 200
123 94 200
123 94 200
123 93 200
122 93 200
122 92 200
122 92 200
121 91 200
121 91 200
120 90 200
120 90 200
120 89 200
119 89 200
119 88 200
119 88 200
118 87 200
118 87 200
118 86 200
117 86 200
117 85 200
116 85 200
116 84 200
116 84 200
115 83 200
115 83 200
115 82 200
114 82 200
114 81 200
114 81 200
113 80 200
113 80 200
112 79 200
112 79 200
112 78 200
111 78 200
111 77 200
111 77 200
110 76 200
110 76 200
110 75 200
109 75 200
109 74 200
108 74 200
108 73 200
108 73 200
107 72 200
107 72 200
107 71 200
106 71 200
106 70 200
106 70 200
105 69 200
105 69 200
104 68 200
104 68 200
104 67 200
103 67 200
103 66 200
103 66 200
102 65 200
102 65 200
102 64 200
101 64 200
101 63 200
100 63 200
100 62 200
100 62 200
99 61 200
99 61 200
99 60 200
98 60 200
98 59 200
98 59 200
97 58 200
97 58 200
96 57 200
96 57 200
96 56 200
95 56 200
95 55 200
95 55 200
94 54 200
94 54 200
94 53 200
93 53 200
93 52 200
92 52 200
92 51 200
92 51 200
91 50 200
91 50 200
91 49 200
90 49 200
90 48 200
90 48 200
89 47 200
89 47 200
88 46 200
88 46 200
88 45 200
87 45 200
87 44 200
87 44 200
86 43 200
86 43 200
86 42 200
85 42 200
85 41 200
84 41 200
84 40 200
84 40 200
83 39 200
83 39 200
83 38 200
82 38 200
82 37 200
82 37 200
81 36 200
81 36 200
81 35 200
80 35 200
80 34 200
79 34 200
79 33 200
79 33 200
78 32 200
78 32 200
78 31 200
77 31 200
77 30 200
77 30 200
76 29 200
76 29 200
75 28 200
75 28 200
75 27 200
74 27 200
74 26 200
74 26 200
73 25 200
73 25 200
73 24 200
72 24 200
72 23 200
71 23 200
71 22 200
71 22 200
70 21 200
70 21 200
70 20 200
69 20 200
69 19 200
69 19 200
68 18 200
68 18 200
67 17 200
67 17 200
67 16 200
66 16 200
66 15 200
66 15 200
65 14 200
65 14 200
65 13 200
64 13 200
64 12 200
63 12 200
63 11 200
63 11 200
62 10 200
62 10 200
62 9 200
61 9 200
61 8 200
61 8 200
60 7 200
60 7 200
59 6 200
59 6 200
59 5 200
58 5 200
58 4 200
58 4 200
57 3 200
57 3 200
57 2 200
56 2 200
56 1 200
55 1 200
55 0 200
199 199 199
198 198 199
198 198 199
198 197 199
197 197 199
197 196 199
196 196 199
196 195 199
196 195 199
195 194 199
195 194 199
195 193 199
194 193 199
194 192 199
194 192 199
193 191 199
193 191 199
193 190 199
192 190 199
192 189 199
191 189 199
191 188 199
191 188 199
190 187 199
190 187 199
190 186 199
189 186 199
189 185 199
189 185 199
188 184 199
188 184 199
188 183 199
187 183 199
187 182 199
186 182 199
186 181 199
186 181 199
185 180 199
185 180 199
185 179 199
184 179 199
184 178 199
184 178 199
183 177 199
183 177 199
183 176 199
182 176 199
182 175 199
182 175 199
181 174 199
181 174 199
180 173 199
180 173 199
180 172 199
179 172 199
179 171 199
179 171 199
178 170 199
178 170 199
178 169 199
177 169 199
177 168 199
177 168 199
176 167 199
176 167 199
175 166 199
175 166 199
175 165 199
174 165 199
174 164 199
174 164 199
173 163 199
173 163 199
173 162 199
172 162 199
172 161 199
172 161 199
171 160 199
171 160 199
170 159 199
170 159 199
170 158 199
169 158 199
169 157 199
169 157 199
168 156 199
168 156 199
168 155 199
167 155 199
167 154 199
167 154 199
166 153 199
166 153 199
165 152 199
165 152 199
165 151 199
164 151 199
164 150 199
164 150 199
163 149 199
163 149 199
163 148 199
162 148 199
162 147 199
162 147 199
161 146 199
161 146 199
160 145 199
160 145 199
160 144 199
159 144 199
159 143 199
159 143 199
158 142 199
158 142 199
158 141 199
157 141 199
157 140 199
157 140 199
156 139 199
156 139 199
155 138 199
155 138 199
155 137 199
154 137 199
154 136 199
154 136 199
153 135 199
153 135 199
153 134 199
152 134 199
152 133 199
152 133 199
151 132 199
151 132 199
150 131 199
150 131 199
150 130 199
149 130 199
149 129 199
149 129 199
148 128 199
148 128 199
148 127 199
147 127 199
147 126 199
147 126 199
146 125 199
146 125 199
146 124 199
145 124 199
145 123 199
144 123 199
144 122 199
144 122 199
143 121 199
143 121 199
143 120 199
142 120 199
142 119 199
142 119 199
141 118 199
141 118 199
141 117 199
140 117 199
140 116 199
139 116 199
139 115 199
139 115 199
138 114 199
138 114 199
138 113 199
137 113 199
137 113 199
137 112 199
136 112 199
136 111 199
136 111 199
135 110 199
135 110 199
134 109 199
134 109 199
134 108 199
133 108 199
133 107 199
133 107 199
132 106 199
132 106 199
132 105 199
131 105 199
131 104 199
131 104 199
130 103 199
130 103 199
129 102 199
129 102 199
129 101 199
128 101 199
128 100 199
128 100 199
127 99 199
127 99 199
127 98 199
126 98 199
126 97 199
126 97 199
125 96 199
125 96 199
124 95 199
124 95 199
124 94 199
123 94 199
123 93 199
123 93 199
122 92 199
122 92 199
122 91 199
121 91 199
121 90 199
121 90 199
120 89 199
120 89 199
119 88 199
119 88 199
119 87 199
118 87 199
118 86 199
118 86 199
117 85 199
117 85 199
117 84 199
116 84 199
116 83 199
116 83 199
115 82 199
115 82 199
114 81 199
114 81 199
114 80 199
113 80 199
113 79 199
113 79 199
112 78 199
112 78 199
112 77 199
111 77 199
111 76 199
111 76 199
110 75 199
110 75 199
109 74 199
109 74 199
109 73 199
108 73 199
108 72 199
108 72 199
107 71 199
107 71 199
107 70 199
106 70 199
106 69 199
106 69 199
105 68 199
105 68 199
105 67 199
104 67 199
104 66 199
103 66 199
103 65 199
103 65 199
102 64 199
102 64 199
102 63 199
101 63 199
101 62 199
101 62 199
100 61 199
100 61 199
100 60 199
99 60 199
99 59 199
98 59 199
98 58 199
98 58 199
97 57 199
97 57 199
97 56 199
96 56 199
96 55 199
96 55 199
95 54 199
95 54 199
95 53 199
94 53 199
94 52 199
93 52 199
93 51 199
93 51 199
92 50 199
92 50 199
92 49 199
91 49 199
91 48 199
91 48 199
90 47 199
90 47 199
90 46 199
89 46 199
89 45 199
88 45 199
88 44 199
88 44 199
87 43 199
87 43 199
87 42 199
86 42 199
86 41 199
86 41 199
85 40 199
85 40 199
85 39 199
84 39 199
84 38 199
83 38 199
83 37 199
83 37 199
82 36 199
82 36 199
82 35 199
81 35 199
81 34 199
81 34 199
80 33 199
80 33 199
80 32 199
79 32 199
79 31 199
78 31 199
78 30 199
78 30 199
77 29 199
77 29 199
77 28 199
76 28 199
76 27 199
76 27 199
75 26 199
75 26 199
75 25 199
74 25 199
74 24 199
73 24 199
73 23 199
73 23 199
72 22 199
72 22 199
72 21 199
71 21 199
71 20 199
71 20 199
70 19 199
70 19 199
70 18 199
69 18 199
69 17 199
69 17 199
68 16 199
68 16 199
67 15 199
67 15 199
67 14 199
66 14 199
66 13 199
66 13 199
65 12 199
65 12 199
65 11 199
64 11 199
64 10 199
64 10 199
63 9 199
63 9 199
62 8 199
62 8 199
62 7 199
61 7 199
61 6 199
61 6 199
60 5 199
60 5 199
60 4 199
59 4 199
59 3 199
59 3 199
58 2 199
58 2 199
57 1 199
57 1 199
57 0 199
56 0 199
197 197 197
197 197 197
197 196 197
196 196 197
196 195 197
196 195 197
195 194 197
195 194 197
195 193 197
194 193 197
194 192 197
193 192 197
193 191 197
193 191 197
192 190 197
192 190 197
192 189 197
191 189 197
191 188 197
191 188 197
190 187 197
190 187 197
190 186 197
189 186 197
189 185 197
189 185 197
188 184 197
188 184 197
188 183 197
187 183 197
187 182 197
186 182 197
186 182 197
186 181 197
185 181 197
185 180 197
185 180 197
184 179 197
184 179 197
184 178 197
183 178 197
183 177 197
183 177 197
182 176 197
182 176 197
182 175 197
181 175 197
181 174 197
181 174 197
180 173 197
180 173 197
179 172 197
179 172 197
179 171 197
178 171 197
178 170 197
178 170 197
177 169 197
177 169 197
177 168 197
176 168 197
176 167 197
176 167 197
175 166 197
175 166 197
175 165 197
174 165 197
174 164 197
174 164 197
173 163 197
173 163 197
172 162 197
172 162 197
172 161 197
171 161 197
171 160 197
171 160 197
170 159 197
170 159 197
170 158 197
169 158 197
169 157 197
169 157 197
168 156 197
168 156 197
168 155 197
167 155 197
167 154 197
167 154 197
166 153 197
166 153 197
165 152 197
165 152 197
165 151 197
164 151 197
164 150 197
164 150 197
163 149 197
163 149 197
163 148 197
162 148 197
162 147 197
162 147 197
161 146 197
161 146 197
161 145 197
160 145 197
160 144 197
160 144 197
159 143 197
159 143 197
158 142 197
158 142 197
158 141 197
157 141 197
157 140 197
157 140 197
156 139 197
156 139 197
156 138 197
155 138 197
155 137 197
155 137 197
154 137 197
154 136 197
154 136 197
153 135 197
153 135 197
153 134 197
152 134 197
152 133 197
151 133 197
151 132 197
151 132 197
150 131 197
150 131 197
150 130 197
149 130 197
149 129 197
149 129 197
148 128 197
148 128 197
148 127 197
147 127 197
147 126 197
147 126 197
146 125 197
146 125 197
146 124 197
145 124 197
145 123 197
144 123 197
144 122 197
144 122 197
143 121 197
143 121 197
143 120 197
142 120 197
142 119 197
142 119 197
141 118 197
141 118 197
141 117 197
140 117 197
140 116 197
140 116 197
139 115 197
139 115 197
139 114 197
138 114 197
138 113 197
137 113 197
137 112 197
137 112 197
136 111 197
136 111 197
136 110 197
135 110 197
135 109 197
135 109 197
134 108 197
134 108 197
134 107 197
133 107 197
133 106 197
133 106 197
132 105 197
132 105 197
132 104 197
131 104 197
131 103 197
130 103 197
130 102 197
130 102 197
129 101 197
129 101 197
129 100 197
128 100 197
128 99 197
128 99 197
127 98 197
127 98 197
127 97 197
126 97 197
126 96 197
126 96 197
125 95 197
125 95 197
125 94 197
124 94 197
124 93 197
123 93 197
123 92 197
123 92 197
122 91 197
122 91 197
122 91 197
121 90 197
121 90 197
121 89 197
120 89 197
120 88 197
120 88 197
119 87 197
119 87 197
119 86 197
118 86 197
118 85 197
118 85 197
117 84 197
117 84 197
116 83 197
116 83 197
116 82 197
115 82 197
115 81 197
115 81 197
114 80 197
114 80 197
114 79 197
113 79 197
113 78 197
113 78 197
112 77 197
112 77 197
112 76 197
111 76 197
111 75 197
111 75 197
110 74 197
110 74 197
109 73 197
109 73 197
109 72 197
108 72 197
108 71 197
108 71 197
107 70 197
107 70 197
107 69 197
106 69 197
106 68 197
106 68 197
105 67 197
105 67 197
105 66 197
104 66 197
104 65 197
104 65 197
103 64 197
103 64 197
102 63 197
102 63 197
102 62 197
101 62 197
101 61 197
101 61 197
100 60 197
100 60 197
100 59 197
99 59 197
99 58 197
99 58 197
98 57 197
98 57 197
98 56 197
97 56 197
97 55 197
97 55 197
96 54 197
96 54 197
95 53 197
95 53 197
95 52 197
94 52 197
94 51 197
94 51 197
93 50 197
93 50 197
93 49 197
92 49 197
92 48 197
92 48 197
91 47 197
91 47 197
91 46 197
90 46 197
90 46 197
90 45 197
89 45 197
89 44 197
88 44 197
88 43 197
88 43 197
87 42 197
87 42 197
87 41 197
86 41 197
86 40 197
86 40 197
85 39 197
85 39 197
85 38 197
84 38 197
84 37 197
84 37 197
83 36 197
83 36 197
83 35 197
82 35 197
82 34 197
81 34 197
81 33 197
81 33 197
80 32 197
80 32 197
80 31 197
79 31 197
79 30 197
79 30 197
78 29 197
78 29 197
78 28 197
77 28 197
77 27 197
77 27 197
76 26 197
76 26 197
76 25 197
75 25 197
75 24 197
74 24 197
74 23 197
74 23 197
73 22 197
73 22 197
73 21 197
72 21 197
72 20 197
72 20 197
71 19 197
71 19 197
71 18 197
70 18 197
70 17 197
70 17 197
69 16 197
69 16 197
69 15 197
68 15 197
68 14 197
67 14 197
67 13 197
67 13 197
66 12 197
66 12 197
66 11 197
65 11 197
65 10 197
65 10 197
64 9 197
64 9 197
64 8 197
63 8 197
63 7 197
63 7 197
62 6 197
62 6 197
62 5 197
61 5 197
61 4 197
60 4 197
60 3 197
60 3 197
59 2 197
59 2 197
59 1 197
58 1 197
58 0 197
58 0 197
196 196 196
196 196 196
195 195 196
195 195 196
195 194 196
194 194 196
194 193 196
194 193 196
193 192 196
193 192 196
193 191 196
192 191 196
192 190 196
192 190 196
191 189 196
191 189 196
191 188 196
190 188 196
190 187 196
190 187 196
189 186 196
189 186 196
188 185 196
188 185 196
188 184 196
187 184 196
187 183 196
187 183 196
186 182 196
186 182 196
186 181 196
185 181 196
185 180 196
185 180 196
184 179 196
184 179 196
184 178 196
183 178 196
183 177 196
183 177 196
182 176 196
182 176 196
182 175 196
181 175 196
181 174 196
181 174 196
180 173 196
180 173 196
180 172 196
179 172 196
179 171 196
179 171 196
178 171 196
178 170 196
177 170 196
177 169 196
177 169 196
176 168 196
176 168 196
176 167 196
175 167 196
175 166 196
175 166 196
174 165 196
174 165 196
174 164 196
173 164 196
173 163 196
173 163 196
172 162 196
172 162 196
172 161 196
171 161 196
171 160 196
171 160 196
170 159 196
170 159 196
170 158 196
169 158 196
169 157 196
169 157 196
168 156 196
168 156 196
168 155 196
167 155 196
167 154 196
167 154 196
166 153 196
166 153 196
165 152 196
165 152 196
165 151 196
164 151 196
164 150 196
164 150 196
163 149 196
163 149 196
163 148 196
162 148 196
162 147 196
162 147 196
161 146 196
161 146 196
161 145 196
160 145 196
160 144 196
160 144 196
159 143 196
159 143 196
159 142 196
158 142 196
158 142 196
158 141 196
157 141 196
157 140 196
157 140 196
156 139 196
156 139 196
156 138 196
155 138 196
155 137 196
154 137 196
154 136 196
154 136 196
153 135 196
153 135 196
153 134 196
152 134 196
152 133 196
152 133 196
151 132 196
151 132 196
151 131 196
150 131 196
150 130 196
150 130 196
149 129 196
149 129 196
149 128 196
148 128 196
148 127 196
148 127 196
147 126 196
147 126 196
147 125 196
146 125 196
146 124 196
146 124 196
145 123 196
145 123 196
145 122 196
144 122 196
144 121 196
143 121 196
143 120 196
143 120 196
142 119 196
142 119 196
142 118 196
141 118 196
141 117 196
141 117 196
140 116 196
140 116 196
140 115 196
139 115 196
139 114 196
139 114 196
138 114 196
138 113 196
138 113 196
137 112 196
137 112 196
137 111 196
136 111 196
136 110 196
136 110 196
135 109 196
135 109 196
135 108 196
134 108 196
134 107 196
134 107 196
133 106 196
133 106 196
132 105 196
132 105 196
132 104 196
131 104 196
131 103 196
131 103 196
130 102 196
130 102 196
130 101 196
129 101 196
129 100 196
129 100 196
128 99 196
128 99 196
128 98 196
127 98 196
127 97 196
127 97 196
126 96 196
126 96 196
126 95 196
125 95 196
125 94 196
125 94 196
124 93 196
124 93 196
124 92 196
123 92 196
123 91 196
123 91 196
122 90 196
122 90 196
121 89 196
121 89 196
121 88 196
120 88 196
120 87 196
120 87 196
119 86 196
119 86 196
119 85 196
118 85 196
118 85 196
118 84 196
117 84 196
117 83 196
117 83 196
116 82 196
116 82 196
116 81 196
115 81 196
115 80 196
115 80 196
114 79 196
114 79 196
114 78 196
113 78 196
113 77 196
113 77 196
112 76 196
112 76 196
112 75 196
111 75 196
111 74 196
110 74 196
110 73 196
110 73 196
109 72 196
109 72 196
109 71 196
108 71 196
108 70 196
108 70 196
107 69 196
107 69 196
107 68 196
106 68 196
106 67 196
106 67 196
105 66 196
105 66 196
105 65 196
104 65 196
104 64 196
104 64 196
103 63 196
103 63 196
103 62 196
102 62 196
102 61 196
102 61 196
101 60 196
101 60 196
101 59 196
100 59 196
100 58 196
99 58 196
99 57 196
99 57 196
98 57 196
98 56 196
98 56 196
97 55 196
97 55 196
97 54 196
96 54 196
96 53 196
96 53 196
95 52 196
95 52 196
95 51 196
94 51 196
94 50 196
94 50 196
93 49 196
93 49 196
93 48 196
92 48 196
92 47 196
92 47 196
91 46 196
91 46 196
91 45 196
90 45 196
90 44 196
90 44 196
89 43 196
89 43 196
88 42 196
88 42 196
88 41 196
87 41 196
87 40 196
87 40 196
86 39 196
86 39 196
86 38 196
85 38 196
85 37 196
85 37 196
84 36 196
84 36 196
84 35 196
83 35 196
83 34 196
83 34 196
82 33 196
82 33 196
82 32 196
81 32 196
81 31 196
81 31 196
80 30 196
80 30 196
80 29 196
79 29 196
79 28 196
79 28 196
78 28 196
78 27 196
78 27 196
77 26 196
77 26 196
76 25 196
76 25 196
76 24 196
75 24 196
75 23 196
75 23 196
74 22 196
74 22 196
74 21 196
73 21 196
73 20 196
73 20 196
72 19 196
72 19 196
72 18 196
71 18 196
71 17 196
71 17 196
70 16 196
70 16 196
70 15 196
69 15 196
69 14 196
69 14 196
68 13 196
68 13 196
68 12 196
67 12 196
67 11 196
67 11 196
66 10 196
66 10 196
65 9 196
65 9 196
65 8 196
64 8 196
64 7 196
64 7 196
63 6 196
63 6 196
63 5 196
62 5 196
62 4 196
62 4 196
61 3 196
61 3 196
61 2 196
60 2 196
60 1 196
60 1 196
59 0 196
59 0 196
195 195 195
194 194 195
194 194 195
194 193 195
193 193 195
193 192 195
193 192 195
192 191 195
192 191 195
192 190 195
191 190 195
191 189 195
191 189 195
190 188 195
190 188 195
190 187 195
189 187 195
189 186 195
189 186 195
188 185 195
188 185 195
188 185 195
187 184 195
187 184 195
187 183 195
186 183 195
186 182 195
186 182 195
185 181 195
185 181 195
185 180 195
184 180 195
184 179 195
184 179 195
183 178 195
183 178 195
183 177 195
182 177 195
182 176 195
182 176 195
181 175 195
181 175 195
181 174 195
180 174 195
180 173 195
180 173 195
179 172 195
179 172 195
179 171 195
178 171 195
178 170 195
178 170 195
177 169 195
177 169 195
177 168 195
176 168 195
176 167 195
176 167 195
175 166 195
175 166 195
175 165 195
174 165 195
174 165 195
174 164 195
173 164 195
173 163 195
173 163 195
172 162 195
172 162 195
172 161 195
171 161 195
171 160 195
170 160 195
170 159 195
170 159 195
169 158 195
169 158 195
169 157 195
168 157 195
168 156 195
168 156 195
167 155 195
167 155 195
167 154 195
166 154 195
166 153 195
166 153 195
165 152 195
165 152 195
165 151 195
164 151 195
164 150 195
164 150 195
163 149 195
163 149 195
163 148 195
162 148 195
162 147 195
162 147 195
161 146 195
161 146 195
161 145 195
160 145 195
160 144 195
160 144 195
159 144 195
159 143 195
159 143 195
158 142 195
158 142 195
158 141 195
157 141 195
157 140 195
157 140 195
156 139 195
156 139 195
156 138 195
155 138 195
155 137 195
155 137 195
154 136 195
154 136 195
154 135 195
153 135 195
153 134 195
153 134 195
152 133 195
152 133 195
152 132 195
151 132 195
151 131 195
151 131 195
150 130 195
150 130 195
150 129 195
149 129 195
149 128 195
149 128 195
148 127 195
148 127 195
148 126 195
147 126 195
147 125 195
147 125 195
146 124 195
146 124 195
146 124 195
145 123 195
145 123 195
145 122 195
144 122 195
144 121 195
144 121 195
143 120 195
143 120 195
143 119 195
142 119 195
142 118 195
141 118 195
141 117 195
141 117 195
140 116 195
140 116 195
140 115 195
139 115 195
139 114 195
139 114 195
138 113 195
138 113 195
138 112 195
137 112 195
137 111 195
137 111 195
136 110 195
136 110 195
136 109 195
135 109 195
135 108 195
135 108 195
134 107 195
134 107 195
134 106 195
133 106 195
133 105 195
133 105 195
132 104 195
132 104 195
132 103 195
131 103 195
131 103 195
131 102 195
130 102 195
130 101 195
130 101 195
129 100 195
129 100 195
129 99 195
128 99 195
128 98 195
128 98 195
127 97 195
127 97 195
127 96 195
126 96 195
126 95 195
126 95 195
125 94 195
125 94 195
125 93 195
124 93 195
124 92 195
124 92 195
123 91 195
123 91 195
123 90 195
122 90 195
122 89 195
122 89 195
121 88 195
121 88 195
121 87 195
120 87 195
120 86 195
120 86 195
119 85 195
119 85 195
119 84 195
118 84 195
118 83 195
118 83 195
117 82 195
117 82 195
117 82 195
116 81 195
116 81 195
116 80 195
115 80 195
115 79 195
115 79 195
114 78 195
114 78 195
114 77 195
113 77 195
113 76 195
112 76 195
112 75 195
112 75 195
111 74 195
111 74 195
111 73 195
110 73 195
110 72 195
110 72 195
109 71 195
109 71 195
109 70 195
108 70 195
108 69 195
108 69 195
107 68 195
107 68 195
107 67 195
106 67 195
106 66 195
106 66 195
105 65 195
105 65 195
105 64 195
104 64 195
104 63 195
104 63 195
103 62 195
103 62 195
103 62 195
102 61 195
102 61 195
102 60 195
101 60 195
101 59 195
101 59 195
100 58 195
100 58 195
100 57 195
99 57 195
99 56 195
99 56 195
98 55 195
98 55 195
98 54 195
97 54 195
97 53 195
97 53 195
96 52 195
96 52 195
96 51 195
95 51 195
95 50 195
95 50 195
94 49 195
94 49 195
94 48 195
93 48 195
93 47 195
93 47 195
92 46 195
92 46 195
92 45 195
91 45 195
91 44 195
91 44 195
90 43 195
90 43 195
90 42 195
89 42 195
89 41 195
89 41 195
88 41 195
88 40 195
88 40 195
87 39 195
87 39 195
87 38 195
86 38 195
86 37 195
86 37 195
85 36 195
85 36 195
85 35 195
84 35 195
84 34 195
83 34 195
83 33 195
83 33 195
82 32 195
82 32 195
82 31 195
81 31 195
81 30 195
81 30 195
80 29 195
80 29 195
80 28 195
79 28 195
79 27 195
79 27 195
78 26 195
78 26 195
78 25 195
77 25 195
77 24 195
77 24 195
76 23 195
76 23 195
76 22 195
75 22 195
75 21 195
75 21 195
74 21 195
74 20 195
74 20 195
73 19 195
73 19 195
73 18 195
72 18 195
72 17 195
72 17 195
71 16 195
71 16 195
71 15 195
70 15 195
70 14 195
70 14 195
69 13 195
69 13 195
69 12 195
68 12 195
68 11 195
68 11 195
67 10 195
67 10 195
67 9 195
66 9 195
66 8 195
66 8 195
65 7 195
65 7 195
65 6 195
64 6 195
64 5 195
64 5 195
63 4 195
63 4 195
63 3 195
62 3 195
62 2 195
62 2 195
61 1 195
61 1 195
61 0 195
60 0 195
193 193 193
193 193 193
193 193 193
193 192 193
192 192 193
192 191 193
192 191 193
191 190 193
191 190 193
191 189 193
190 189 193
190 188 193
190 188 193
189 187 193
189 187 193
189 186 193
188 186 193
188 185 193
188 185 193
187 184 193
187 184 193
187 183 193
186 183 193
186 182 193
186 182 193
185 181 193
185 181 193
185 180 193
184 180 193
184 179 193
184 179 193
183 178 193
183 178 193
183 177 193
182 177 193
182 177 193
182 176 193
181 176 193
181 175 193
181 175 193
180 174 193
180 174 193
180 173 193
179 173 193
179 172 193
179 172 193
178 171 193
178 171 193
178 170 193
177 170 193
177 169 193
177 169 193
176 168 193
176 168 193
176 167 193
175 167 193
175 166 193
175 166 193
174 165 193
174 165 193
174 164 193
173 164 193
173 163 193
173 163 193
172 162 193
172 162 193
172 161 193
171 161 193
171 161 193
171 160 193
170 160 193
170 159 193
170 159 193
169 158 193
169 158 193
169 157 193
168 157 193
168 156 193
168 156 193
167 155 193
167 155 193
167 154 193
166 154 193
166 153 193
166 153 193
165 152 193
165 152 193
165 151 193
164 151 193
164 150 193
164 150 193
163 149 193
163 149 193
163 148 193
162 148 193
162 147 193
162 147 193
161 146 193
161 146 193
161 145 193
160 145 193
160 145 193
160 144 193
159 144 193
159 143 193
159 143 193
158 142 193
158 142 193
158 141 193
157 141 193
157 140 193
157 140 193
156 139 193
156 139 193
156 138 193
155 138 193
155 137 193
155 137 193
154 136 193
154 136 193
154 135 193
153 135 193
153 134 193
153 134 193
152 133 193
152 133 193
152 132 193
151 132 193
151 131 193
151 131 193
150 130 193
150 130 193
150 129 193
149 129 193
149 129 193
149 128 193
149 128 193
148 127 193
148 127 193
148 126 193
147 126 193
147 125 193
147 125 193
146 124 193
146 124 193
146 123 193
145 123 193
145 122 193
145 122 193
144 121 193
144 121 193
144 120 193
143 120 193
143 119 193
143 119 193
142 118 193
142 118 193
142 117 193
141 117 193
141 116 193
141 116 193
140 115 193
140 115 193
140 114 193
139 114 193
139 113 193
139 113 193
138 113 193
138 112 193
138 112 193
137 111 193
137 111 193
137 110 193
136 110 193
136 109 193
136 109 193
135 108 193
135 108 193
135 107 193
134 107 193
134 106 193
134 106 193
133 105 193
133 105 193
133 104 193
132 104 193
132 103 193
132 103 193
131 102 193
131 102 193
131 101 193
130 101 193
130 100 193
130 100 193
129 99 193
129 99 193
129 98 193
128 98 193
128 97 193
128 97 193
127 97 193
127 96 193
127 96 193
126 95 193
126 95 193
126 94 193
125 94 193
125 93 193
125 93 193
124 92 193
124 92 193
124 91 193
123 91 193
123 90 193
123 90 193
122 89 193
122 89 193
122 88 193
121 88 193
121 87 193
121 87 193
120 86 193
120 86 193
120 85 193
119 85 193
119 84 193
119 84 193
118 83 193
118 83 193
118 82 193
117 82 193
117 81 193
117 81 193
116 81 193
116 80 193
116 80 193
115 79 193
115 79 193
115 78 193
114 78 193
114 77 193
114 77 193
113 76 193
113 76 193
113 75 193
112 75 193
112 74 193
112 74 193
111 73 193
111 73 193
111 72 193
110 72 193
110 71 193
110 71 193
109 70 193
109 70 193
109 69 193
108 69 193
108 68 193
108 68 193
107 67 193
107 67 193
107 66 193
106 66 193
106 65 193
106 65 193
106 64 193
105 64 193
105 64 193
105 63 193
104 63 193
104 62 193
104 62 193
103 61 193
103 61 193
103 60 193
102 60 193
102 59 193
102 59 193
101 58 193
101 58 193
101 57 193
100 57 193
100 56 193
100 56 193
99 55 193
99 55 193
99 54 193
98 54 193
98 53 193
98 53 193
97 52 193
97 52 193
97 51 193
96 51 193
96 50 193
96 50 193
95 49 193
95 49 193
95 48 193
94 48 193
94 48 193
94 47 193
93 47 193
93 46 193
93 46 193
92 45 193
92 45 193
92 44 193
91 44 193
91 43 193
91 43 193
90 42 193
90 42 193
90 41 193
89 41 193
89 40 193
89 40 193
88 39 193
88 39 193
88 38 193
87 38 193
87 37 193
87 37 193
86 36 193
86 36 193
86 35 193
85 35 193
85 34 193
85 34 193
84 33 193
84 33 193
84 32 193
83 32 193
83 32 193
83 31 193
82 31 193
82 30 193
82 30 193
81 29 193
81 29 193
81 28 193
80 28 193
80 27 193
80 27 193
79 26 193
79 26 193
79 25 193
78 25 193
78 24 193
78 24 193
77 23 193
77 23 193
77 22 193
76 22 193
76 21 193
76 21 193
75 20 193
75 20 193
75 19 193
74 19 193
74 18 193
74 18 193
73 17 193
73 17 193
73 16 193
72 16 193
72 16 193
72 15 193
71 15 193
71 14 193
71 14 193
70 13 193
70 13 193
70 12 193
69 12 193
69 11 193
69 11 193
68 10 193
68 10 193
68 9 193
67 9 193
67 8 193
67 8 193
66 7 193
66 7 193
66 6 193
65 6 193
65 5 193
65 5 193
64 4 193
64 4 193
64 3 193
63 3 193
63 2 193
63 2 193
62 1 193
62 1 193
62 0 193
62 0 193
192 192 192
192 192 192
192 191 192
191 191 192
191 190 192
191 190 192
190 189 192
190 189 192
190 188 192
189 188 192
189 187 192
189 187 192
188 186 192
188 186 192
188 185 192
187 185 192
187 185 192
187 184 192
186 184 192
186 183 192
186 183 192
185 182 192
185 182 192
185 181 192
184 181 192
184 180 192
184 180 192
183 179 192
183 179 192
183 178 192
182 178 192
182 177 192
182 177 192
182 176 192
181 176 192
181 175 192
181 175 192
180 174 192
180 174 192
180 173 192
179 173 192
179 172 192
179 172 192
178 171 192
178 171 192
178 171 192
177 170 192
177 170 192
177 169 192
176 169 192
176 168 192
176 168 192
175 167 192
175 167 192
175 166 192
174 166 192
174 165 192
174 165 192
173 164 192
173 164 192
173 163 192
172 163 192
172 162 192
172 162 192
171 161 192
171 161 192
171 160 192
170 160 192
170 159 192
170 159 192
170 158 192
169 158 192
169 158 192
169 157 192
168 157 192
168 156 192
168 156 192
167 155 192
167 155 192
167 154 192
166 154 192
166 153 192
166 153 192
165 152 192
165 152 192
165 151 192
164 151 192
164 150 192
164 150 192
163 149 192
163 149 192
163 148 192
162 148 192
162 147 192
162 147 192
161 146 192
161 146 192
161 145 192
160 145 192
160 145 192
160 144 192
159 144 192
159 143 192
159 143 192
158 142 192
158 142 192
158 141 192
158 141 192
157 140 192
157 140 192
157 139 192
156 139 192
156 138 192
156 138 192
155 137 192
155 137 192
155 136 192
154 136 192
154 135 192
154 135 192
153 134 192
153 134 192
153 133 192
152 133 192
152 132 192
152 132 192
151 132 192
151 131 192
151 131 192
150 130 192
150 130 192
150 129 192
149 129 192
149 128 192
149 128 192
148 127 192
148 127 192
148 126 192
147 126 192
147 125 192
147 125 192
146 124 192
146 124 192
146 123 192
146 123 192
145 122 192
145 122 192
145 121 192
144 121 192
144 120 192
144 120 192
143 119 192
143 119 192
143 119 192
142 118 192
142 118 192
142 117 192
141 117 192
141 116 192
141 116 192
140 115 192
140 115 192
140 114 192
139 114 192
139 113 192
139 113 192
138 112 192
138 112 192
138 111 192
137 111 192
137 110 192
137 110 192
136 109 192
136 109 192
136 108 192
135 108 192
135 107 192
135 107 192
134 106 192
134 106 192
134 105 192
134 105 192
133 105 192
133 104 192
133 104 192
132 103 192
132 103 192
132 102 192
131 102 192
131 101 192
131 101 192
130 100 192
130 100 192
130 99 192
129 99 192
129 98 192
129 98 192
128 97 192
128 97 192
128 96 192
127 96 192
127 95 192
127 95 192
126 94 192
126 94 192
126 93 192
125 93 192
125 92 192
125 92 192
124 92 192
124 91 192
124 91 192
123 90 192
123 90 192
123 89 192
122 89 192
122 88 192
122 88 192
121 87 192
121 87 192
121 86 192
121 86 192
120 85 192
120 85 192
120 84 192
119 84 192
119 83 192
119 83 192
118 82 192
118 82 192
118 81 192
117 81 192
117 80 192
117 80 192
116 79 192
116 79 192
116 79 192
115 78 192
115 78 192
115 77 192
114 77 192
114 76 192
114 76 192
113 75 192
113 75 192
113 74 192
112 74 192
112 73 192
112 73 192
111 72 192
111 72 192
111 71 192
110 71 192
110 70 192
110 70 192
109 69 192
109 69 192
109 68 192
109 68 192
108 67 192
108 67 192
108 66 192
107 66 192
107 66 192
107 65 192
106 65 192
106 64 192
106 64 192
105 63 192
105 63 192
105 62 192
104 62 192
104 61 192
104 61 192
103 60 192
103 60 192
103 59 192
102 59 192
102 58 192
102 58 192
101 57 192
101 57 192
101 56 192
100 56 192
100 55 192
100 55 192
99 54 192
99 54 192
99 53 192
98 53 192
98 53 192
98 52 192
97 52 192
97 51 192
97 51 192
97 50 192
96 50 192
96 49 192
96 49 192
95 48 192
95 48 192
95 47 192
94 47 192
94 46 192
94 46 192
93 45 192
93 45 192
93 44 192
92 44 192
92 43 192
92 43 192
91 42 192
91 42 192
91 41 192
90 41 192
90 40 192
90 40 192
89 40 192
89 39 192
89 39 192
88 38 192
88 38 192
88 37 192
87 37 192
87 36 192
87 36 192
86 35 192
86 35 192
86 34 192
85 34 192
85 33 192
85 33 192
85 32 192
84 32 192
84 31 192
84 31 192
83 30 192
83 30 192
83 29 192
82 29 192
82 28 192
82 28 192
81 27 192
81 27 192
81 26 192
80 26 192
80 26 192
80 25 192
79 25 192
79 24 192
79 24 192
78 23 192
78 23 192
78 22 192
77 22 192
77 21 192
77 21 192
76 20 192
76 20 192
76 19 192
75 19 192
75 18 192
75 18 192
74 17 192
74 17 192
74 16 192
73 16 192
73 15 192
73 15 192
73 14 192
72 14 192
72 13 192
72 13 192
71 13 192
71 12 192
71 12 192
70 11 192
70 11 192
70 10 192
69 10 192
69 9 192
69 9 192
68 8 192
68 8 192
68 7 192
67 7 192
67 6 192
67 6 192
66 5 192
66 5 192
66 4 192
65 4 192
65 3 192
65 3 192
64 2 192
64 2 192
64 1 192
63 1 192
63 0 192
63 0 192
191 191 191
191 190 191
190 190 191
190 189 191
190 189 191
189 189 191
189 188 191
189 188 191
188 187 191
188 187 191
188 186 191
187 186 191
187 185 191
187 185 191
186 184 191
186 184 191
186 183 191
186 183 191
185 182 191
185 182 191
185 181 191
184 181 191
184 180 191
184 180 191
183 179 191
183 179 191
183 178 191
182 178 191
182 178 191
182 177 191
181 177 191
181 176 191
181 176 191
180 175 191
180 175 191
180 174 191
179 174 191
179 173 191
179 173 191
179 172 191
178 172 191
178 171 191
178 171 191
177 170 191
177 170 191
177 169 191
176 169 191
176 168 191
176 168 191
175 167 191
175 167 191
175 167 191
174 166 191
174 166 191
174 165 191
173 165 191
173 164 191
173 164 191
172 163 191
172 163 191
172 162 191
172 162 191
171 161 191
171 161 191
171 160 191
170 160 191
170 159 191
170 159 191
169 158 191
169 158 191
169 157 191
168 157 191
168 156 191
168 156 191
167 156 191
167 155 191
167 155 191
166 154 191
166 154 191
166 153 191
165 153 191
165 152 191
165 152 191
165 151 191
164 151 191
164 150 191
164 150 191
163 149 191
163 149 191
163 148 191
162 148 191
162 147 191
162 147 191
161 146 191
161 146 191
161 145 191
160 145 191
160 145 191
160 144 191
159 144 191
159 143 191
159 143 191
158 142 191
158 142 191
158 141 191
158 141 191
157 140 191
157 140 191
157 139 191
156 139 191
156 138 191
156 138 191
155 137 191
155 137 191
155 136 191
154 136 191
154 135 191
154 135 191
153 134 191
153 134 191
153 134 191
152 133 191
152 133 191
152 132 191
152 132 191
151 131 191
151 131 191
151 130 191
150 130 191
150 129 191
150 129 191
149 128 191
149 128 191
149 127 191
148 127 191
148 126 191
148 126 191
147 125 191
147 125 191
147 124 191
146 124 191
146 123 191
146 123 191
145 123 191
145 122 191
145 122 191
145 121 191
144 121 191
144 120 191
144 120 191
143 119 191
143 119 191
143 118 191
142 118 191
142 117 191
142 117 191
141 116 191
141 116 191
141 115 191
140 115 191
140 114 191
140 114 191
139 113 191
139 113 191
139 112 191
138 112 191
138 111 191
138 111 191
138 111 191
137 110 191
137 110 191
137 109 191
136 109 191
136 108 191
136 108 191
135 107 191
135 107 191
135 106 191
134 106 191
134 105 191
134 105 191
133 104 191
133 104 191
133 103 191
132 103 191
132 102 191
132 102 191
131 101 191
131 101 191
131 100 191
131 100 191
130 100 191
130 99 191
130 99 191
129 98 191
129 98 191
129 97 191
128 97 191
128 96 191
128 96 191
127 95 191
127 95 191
127 94 191
126 94 191
126 93 191
126 93 191
125 92 191
125 92 191
125 91 191
124 91 191
124 90 191
124 90 191
124 89 191
123 89 191
123 89 191
123 88 191
122 88 191
122 87 191
122 87 191
121 86 191
121 86 191
121 85 191
120 85 191
120 84 191
120 84 191
119 83 191
119 83 191
119 82 191
118 82 191
118 81 191
118 81 191
117 80 191
117 80 191
117 79 191
117 79 191
116 78 191
116 78 191
116 78 191
115 77 191
115 77 191
115 76 191
114 76 191
114 75 191
114 75 191
113 74 191
113 74 191
113 73 191
112 73 191
112 72 191
112 72 191
111 71 191
111 71 191
111 70 191
110 70 191
110 69 191
110 69 191
110 68 191
109 68 191
109 67 191
109 67 191
108 67 191
108 66 191
108 66 191
107 65 191
107 65 191
107 64 191
106 64 191
106 63 191
106 63 191
105 62 191
105 62 191
105 61 191
104 61 191
104 60 191
104 60 191
103 59 191
103 59 191
103 58 191
103 58 191
102 57 191
102 57 191
102 56 191
101 56 191
101 56 191
101 55 191
100 55 191
100 54 191
100 54 191
99 53 191
99 53 191
99 52 191
98 52 191
98 51 191
98 51 191
97 50 191
97 50 191
97 49 191
97 49 191
96 48 191
96 48 191
96 47 191
95 47 191
95 46 191
95 46 191
94 45 191
94 45 191
94 45 191
93 44 191
93 44 191
93 43 191
92 43 191
92 42 191
92 42 191
91 41 191
91 41 191
91 40 191
90 40 191
90 39 191
90 39 191
90 38 191
89 38 191
89 37 191
89 37 191
88 36 191
88 36 191
88 35 191
87 35 191
87 34 191
87 34 191
86 33 191
86 33 191
86 33 191
85 32 191
85 32 191
85 31 191
84 31 191
84 30 191
84 30 191
83 29 191
83 29 191
83 28 191
83 28 191
82 27 191
82 27 191
82 26 191
81 26 191
81 25 191
81 25 191
80 24 191
80 24 191
80 23 191
79 23 191
79 22 191
79 22 191
78 22 191
78 21 191
78 21 191
77 20 191
77 20 191
77 19 191
76 19 191
76 18 191
76 18 191
76 17 191
75 17 191
75 16 191
75 16 191
74 15 191
74 15 191
74 14 191
73 14 191
73 13 191
73 13 191
72 12 191
72 12 191
72 11 191
71 11 191
71 11 191
71 10 191
70 10 191
70 9 191
70 9 191
69 8 191
69 8 191
69 7 191
69 7 191
68 6 191
68 6 191
68 5 191
67 5 191
67 4 191
67 4 191
66 3 191
66 3 191
66 2 191
65 2 191
65 1 191
65 1 191
64 0 191
64 0 191
190 190 190
189 189 190
189 189 190
189 188 190
188 188 190
188 187 190
188 187 190
187 186 190
187 186 190
187 185 190
187 185 190
186 184 190
186 184 190
186 183 190
185 183 190
185 183 190
185 182 190
184 182 190
184 181 190
184 181 190
183 180 190
183 180 190
183 179 190
182 179 190
182 178 190
182 178 190
182 177 190
181 177 190
181 176 190
181 176 190
180 175 190
180 175 190
180 174 190
179 174 190
179 173 190
179 173 190
178 173 190
178 172 190
178 172 190
177 171 190
177 171 190
177 170 190
177 170 190
176 169 190
176 169 190
176 168 190
175 168 190
175 167 190
175 167 190
174 166 190
174 166 190
174 165 190
173 165 190
173 164 190
173 164 190
173 164 190
172 163 190
172 163 190
172 162 190
171 162 190
171 161 190
171 161 190
170 160 190
170 160 190
170 159 190
169 159 190
169 158 190
169 158 190
168 157 190
168 157 190
168 156 190
168 156 190
167 155 190
167 155 190
167 154 190
166 154 190
166 154 190
166 153 190
165 153 190
165 152 190
165 152 190
164 151 190
164 151 190
164 150 190
163 150 190
163 149 190
163 149 190
163 148 190
162 148 190
162 147 190
162 147 190
161 146 190
161 146 190
161 145 190
160 145 190
160 144 190
160 144 190
159 144 190
159 143 190
159 143 190
158 142 190
158 142 190
158 141 190
158 141 190
157 140 190
157 140 190
157 139 190
156 139 190
156 138 190
156 138 190
155 137 190
155 137 190
155 136 190
154 136 190
154 135 190
154 135 190
154 135 190
153 134 190
153 134 190
153 133 190
152 133 190
152 132 190
152 132 190
151 131 190
151 131 190
151 130 190
150 130 190
150 129 190
150 129 190
149 128 190
149 128 190
149 127 190
149 127 190
148 126 190
148 126 190
148 125 190
147 125 190
147 125 190
147 124 190
146 124 190
146 123 190
146 123 190
145 122 190
145 122 190
145 121 190
144 121 190
144 120 190
144 120 190
144 119 190
143 119 190
143 118 190
143 118 190
142 117 190
142 117 190
142 116 190
141 116 190
141 116 190
141 115 190
140 115 190
140 114 190
140 114 190
139 113 190
139 113 190
139 112 190
139 112 190
138 111 190
138 111 190
138 110 190
137 110 190
137 109 190
137 109 190
136 108 190
136 108 190
136 107 190
135 107 190
135 106 190
135 106 190
135 106 190
134 105 190
134 105 190
134 104 190
133 104 190
133 103 190
133 103 190
132 102 190
132 102 190
132 101 190
131 101 190
131 100 190
131 100 190
130 99 190
130 99 190
130 98 190
130 98 190
129 97 190
129 97 190
129 96 190
128 96 190
128 96 190
128 95 190
127 95 190
127 94 190
127 94 190
126 93 190
126 93 190
126 92 190
125 92 190
125 91 190
125 91 190
125 90 190
124 90 190
124 89 190
124 89 190
123 88 190
123 88 190
123 87 190
122 87 190
122 87 190
122 86 190
121 86 190
121 85 190
121 85 190
120 84 190
120 84 190
120 83 190
120 83 190
119 82 190
119 82 190
119 81 190
118 81 190
118 80 190
118 80 190
117 79 190
117 79 190
117 78 190
116 78 190
116 77 190
116 77 190
116 77 190
115 76 190
115 76 190
115 75 190
114 75 190
114 74 190
114 74 190
113 73 190
113 73 190
113 72 190
112 72 190
112 71 190
112 71 190
111 70 190
111 70 190
111 69 190
111 69 190
110 68 190
110 68 190
110 67 190
109 67 190
109 67 190
109 66 190
108 66 190
108 65 190
108 65 190
107 64 190
107 64 190
107 63 190
106 63 190
106 62 190
106 62 190
106 61 190
105 61 190
105 60 190
105 60 190
104 59 190
104 59 190
104 58 190
103 58 190
103 58 190
103 57 190
102 57 190
102 56 190
102 56 190
101 55 190
101 55 190
101 54 190
101 54 190
100 53 190
100 53 190
100 52 190
99 52 190
99 51 190
99 51 190
98 50 190
98 50 190
98 49 190
97 49 190
97 48 190
97 48 190
97 48 190
96 47 190
96 47 190
96 46 190
95 46 190
95 45 190
95 45 190
94 44 190
94 44 190
94 43 190
93 43 190
93 42 190
93 42 190
92 41 190
92 41 190
92 40 190
92 40 190
91 39 190
91 39 190
91 39 190
90 38 190
90 38 190
90 37 190
89 37 190
89 36 190
89 36 190
88 35 190
88 35 190
88 34 190
87 34 190
87 33 190
87 33 190
87 32 190
86 32 190
86 31 190
86 31 190
85 30 190
85 30 190
85 29 190
84 29 190
84 29 190
84 28 190
83 28 190
83 27 190
83 27 190
82 26 190
82 26 190
82 25 190
82 25 190
81 24 190
81 24 190
81 23 190
80 23 190
80 22 190
80 22 190
79 21 190
79 21 190
79 20 190
78 20 190
78 19 190
78 19 190
78 19 190
77 18 190
77 18 190
77 17 190
76 17 190
76 16 190
76 16 190
75 15 190
75 15 190
75 14 190
74 14 190
74 13 190
74 13 190
73 12 190
73 12 190
73 11 190
73 11 190
72 10 190
72 10 190
72 10 190
71 9 190
71 9 190
71 8 190
70 8 190
70 7 190
70 7 190
69 6 190
69 6 190
69 5 190
68 5 190
68 4 190
68 4 190
68 3 190
67 3 190
67 2 190
67 2 190
66 1 190
66 1 190
66 0 190
65 0 190
188 188 188
188 188 188
188 187 188
187 187 188
187 186 188
187 186 188
187 186 188
186 185 188
186 185 188
186 184 188
185 184 188
185 183 188
185 183 188
184 182 188
184 182 188
184 181 188
183 181 188
183 180 188
183 180 188
183 179 188
182 179 188
182 178 188
182 178 188
181 178 188
181 177 188
181 177 188
180 176 188
180 176 188
180 175 188
180 175 188
179 174 188
179 174 188
179 173 188
178 173 188
178 172 188
178 172 188
177 171 188
177 171 188
177 170 188
176 170 188
176 169 188
176 169 188
176 169 188
175 168 188
175 168 188
175 167 188
174 167 188
174 166 188
174 166 188
173 165 188
173 165 188
173 164 188
173 164 188
172 163 188
172 163 188
172 162 188
171 162 188
171 161 188
171 161 188
170 161 188
170 160 188
170 160 188
169 159 188
169 159 188
169 158 188
169 158 188
168 157 188
168 157 188
168 156 188
167 156 188
167 155 188
167 155 188
166 154 188
166 154 188
166 153 188
165 153 188
165 152 188
165 152 188
165 152 188
164 151 188
164 151 188
164 150 188
163 150 188
163 149 188
163 149 188
162 148 188
162 148 188
162 147 188
162 147 188
161 146 188
161 146 188
161 145 188
160 145 188
160 144 188
160 144 188
159 144 188
159 143 188
159 143 188
158 142 188
158 142 188
158 141 188
158 141 188
157 140 188
157 140 188
157 139 188
156 139 188
156 138 188
156 138 188
155 137 188
155 137 188
155 136 188
155 136 188
154 135 188
154 135 188
154 135 188
153 134 188
153 134 188
153 133 188
152 133 188
152 132 188
152 132 188
151 131 188
151 131 188
151 130 188
151 130 188
150 129 188
150 129 188
150 128 188
149 128 188
149 127 188
149 127 188
148 127 188
148 126 188
148 126 188
147 125 188
147 125 188
147 124 188
147 124 188
146 123 188
146 123 188
146 122 188
145 122 188
145 121 188
145 121 188
144 120 188
144 120 188
144 119 188
144 119 188
143 118 188
143 118 188
143 118 188
142 117 188
142 117 188
142 116 188
141 116 188
141 115 188
141 115 188
140 114 188
140 114 188
140 113 188
140 113 188
139 112 188
139 112 188
139 111 188
138 111 188
138 110 188
138 110 188
137 110 188
137 109 188
137 109 188
137 108 188
136 108 188
136 107 188
136 107 188
135 106 188
135 106 188
135 105 188
134 105 188
134 104 188
134 104 188
133 103 188
133 103 188
133 102 188
133 102 188
132 102 188
132 101 188
132 101 188
131 100 188
131 100 188
131 99 188
130 99 188
130 98 188
130 98 188
129 97 188
129 97 188
129 96 188
129 96 188
128 95 188
128 95 188
128 94 188
127 94 188
127 93 188
127 93 188
126 93 188
126 92 188
126 92 188
126 91 188
125 91 188
125 90 188
125 90 188
124 89 188
124 89 188
124 88 188
123 88 188
123 87 188
123 87 188
122 86 188
122 86 188
122 85 188
122 85 188
121 85 188
121 84 188
121 84 188
120 83 188
120 83 188
120 82 188
119 82 188
119 81 188
119 81 188
118 80 188
118 80 188
118 79 188
118 79 188
117 78 188
117 78 188
117 77 188
116 77 188
116 76 188
116 76 188
115 76 188
115 75 188
115 75 188
115 74 188
114 74 188
114 73 188
114 73 188
113 72 188
113 72 188
113 71 188
112 71 188
112 70 188
112 70 188
111 69 188
111 69 188
111 68 188
111 68 188
110 68 188
110 67 188
110 67 188
109 66 188
109 66 188
109 65 188
108 65 188
108 64 188
108 64 188
108 63 188
107 63 188
107 62 188
107 62 188
106 61 188
106 61 188
106 60 188
105 60 188
105 59 188
105 59 188
104 59 188
104 58 188
104 58 188
104 57 188
103 57 188
103 56 188
103 56 188
102 55 188
102 55 188
102 54 188
101 54 188
101 53 188
101 53 188
100 52 188
100 52 188
100 51 188
100 51 188
99 51 188
99 50 188
99 50 188
98 49 188
98 49 188
98 48 188
97 48 188
97 47 188
97 47 188
97 46 188
96 46 188
96 45 188
96 45 188
95 44 188
95 44 188
95 43 188
94 43 188
94 42 188
94 42 188
93 42 188
93 41 188
93 41 188
93 40 188
92 40 188
92 39 188
92 39 188
91 38 188
91 38 188
91 37 188
90 37 188
90 36 188
90 36 188
90 35 188
89 35 188
89 34 188
89 34 188
88 34 188
88 33 188
88 33 188
87 32 188
87 32 188
87 31 188
86 31 188
86 30 188
86 30 188
86 29 188
85 29 188
85 28 188
85 28 188
84 27 188
84 27 188
84 26 188
83 26 188
83 25 188
83 25 188
82 25 188
82 24 188
82 24 188
82 23 188
81 23 188
81 22 188
81 22 188
80 21 188
80 21 188
80 20 188
79 20 188
79 19 188
79 19 188
79 18 188
78 18 188
78 17 188
78 17 188
77 17 188
77 16 188
77 16 188
76 15 188
76 15 188
76 14 188
75 14 188
75 13 188
75 13 188
75 12 188
74 12 188
74 11 188
74 11 188
73 10 188
73 10 188
73 9 188
72 9 188
72 8 188
72 8 188
72 8 188
71 7 188
71 7 188
71 6 188
70 6 188
70 5 188
70 5 188
69 4 188
69 4 188
69 3 188
68 3 188
68 2 188
68 2 188
68 1 188
67 1 188
67 0 188
67 0 188
187 187 187
187 187 187
186 186 187
186 186 187
186 185 187
186 185 187
185 184 187
185 184 187
185 183 187
184 183 187
184 182 187
184 182 187
184 181 187
183 181 187
183 181 187
183 180 187
182 180 187
182 179 187
182 179 187
181 178 187
181 178 187
181 177 187
181 177 187
180 176 187
180 176 187
180 175 187
179 175 187
179 174 187
179 174 187
178 173 187
178 173 187
178 173 187
178 172 187
177 172 187
177 171 187
177 171 187
176 170 187
176 170 187
176 169 187
175 169 187
175 168 187
175 168 187
175 167 187
174 167 187
174 166 187
174 166 187
173 166 187
173 165 187
173 165 187
172 164 187
172 164 187
172 163 187
172 163 187
171 162 187
171 162 187
171 161 187
170 161 187
170 160 187
170 160 187
169 159 187
169 159 187
169 158 187
169 158 187
168 158 187
168 157 187
168 157 187
167 156 187
167 156 187
167 155 187
166 155 187
166 154 187
166 154 187
166 153 187
165 153 187
165 152 187
165 152 187
164 151 187
164 151 187
164 151 187
163 150 187
163 150 187
163 149 187
163 149 187
162 148 187
162 148 187
162 147 187
161 147 187
161 146 187
161 146 187
161 145 187
160 145 187
160 144 187
160 144 187
159 143 187
159 143 187
159 143 187
158 142 187
158 142 187
158 141 187
158 141 187
157 140 187
157 140 187
157 139 187
156 139 187
156 138 187
156 138 187
155 137 187
155 137 187
155 136 187
155 136 187
154 136 187
154 135 187
154 135 187
153 134 187
153 134 187
153 133 187
152 133 187
152 132 187
152 132 187
152 131 187
151 131 187
151 130 187
151 130 187
150 129 187
150 129 187
150 128 187
149 128 187
149 128 187
149 127 187
149 127 187
148 126 187
148 126 187
148 125 187
147 125 187
147 124 187
147 124 187
146 123 187
146 123 187
146 122 187
146 122 187
145 121 187
145 121 187
145 121 187
144 120 187
144 120 187
144 119 187
143 119 187
143 118 187
143 118 187
143 117 187
142 117 187
142 116 187
142 116 187
141 115 187
141 115 187
141 114 187
140 114 187
140 113 187
140 113 187
140 113 187
139 112 187
139 112 187
139 111 187
138 111 187
138 110 187
138 110 187
138 109 187
137 109 187
137 108 187
137 108 187
136 107 187
136 107 187
136 106 187
135 106 187
135 105 187
135 105 187
135 105 187
134 104 187
134 104 187
134 103 187
133 103 187
133 102 187
133 102 187
132 101 187
132 101 187
132 100 187
132 100 187
131 99 187
131 99 187
131 98 187
130 98 187
130 98 187
130 97 187
129 97 187
129 96 187
129 96 187
129 95 187
128 95 187
128 94 187
128 94 187
127 93 187
127 93 187
127 92 187
126 92 187
126 91 187
126 91 187
126 90 187
125 90 187
125 90 187
125 89 187
124 89 187
124 88 187
124 88 187
123 87 187
123 87 187
123 86 187
123 86 187
122 85 187
122 85 187
122 84 187
121 84 187
121 83 187
121 83 187
120 83 187
120 82 187
120 82 187
120 81 187
119 81 187
119 80 187
119 80 187
118 79 187
118 79 187
118 78 187
117 78 187
117 77 187
117 77 187
117 76 187
116 76 187
116 75 187
116 75 187
115 75 187
115 74 187
115 74 187
115 73 187
114 73 187
114 72 187
114 72 187
113 71 187
113 71 187
113 70 187
112 70 187
112 69 187
112 69 187
112 68 187
111 68 187
111 68 187
111 67 187
110 67 187
110 66 187
110 66 187
109 65 187
109 65 187
109 64 187
109 64 187
108 63 187
108 63 187
108 62 187
107 62 187
107 61 187
107 61 187
106 60 187
106 60 187
106 60 187
106 59 187
105 59 187
105 58 187
105 58 187
104 57 187
104 57 187
104 56 187
103 56 187
103 55 187
103 55 187
103 54 187
102 54 187
102 53 187
102 53 187
101 53 187
101 52 187
101 52 187
100 51 187
100 51 187
100 50 187
100 50 187
99 49 187
99 49 187
99 48 187
98 48 187
98 47 187
98 47 187
97 46 187
97 46 187
97 45 187
97 45 187
96 45 187
96 44 187
96 44 187
95 43 187
95 43 187
95 42 187
94 42 187
94 41 187
94 41 187
94 40 187
93 40 187
93 39 187
93 39 187
92 38 187
92 38 187
92 38 187
92 37 187
91 37 187
91 36 187
91 36 187
90 35 187
90 35 187
90 34 187
89 34 187
89 33 187
89 33 187
89 32 187
88 32 187
88 31 187
88 31 187
87 30 187
87 30 187
87 30 187
86 29 187
86 29 187
86 28 187
86 28 187
85 27 187
85 27 187
85 26 187
84 26 187
84 25 187
84 25 187
83 24 187
83 24 187
83 23 187
83 23 187
82 23 187
82 22 187
82 22 187
81 21 187
81 21 187
81 20 187
80 20 187
80 19 187
80 19 187
80 18 187
79 18 187
79 17 187
79 17 187
78 16 187
78 16 187
78 15 187
77 15 187
77 15 187
77 14 187
77 14 187
76 13 187
76 13 187
76 12 187
75 12 187
75 11 187
75 11 187
74 10 187
74 10 187
74 9 187
74 9 187
73 8 187
73 8 187
73 8 187
72 7 187
72 7 187
72 6 187
71 6 187
71 5 187
71 5 187
71 4 187
70 4 187
70 3 187
70 3 187
69 2 187
69 2 187
69 1 187
69 1 187
68 0 187
68 0 187
186 186 186
186 185 186
185 185 186
185 184 186
185 184 186
184 183 186
184 183 186
184 183 186
183 182 186
183 182 186
183 181 186
183 181 186
182 180 186
182 180 186
182 179 186
181 179 186
181 178 186
181 178 186
181 177 186
180 177 186
180 176 186
180 176 186
179 176 186
179 175 186
179 175 186
178 174 186
178 174 186
178 173 186
178 173 186
177 172 186
177 172 186
177 171 186
176 171 186
176 170 186
176 170 186
176 170 186
175 169 186
175 169 186
175 168 186
174 168 186
174 167 186
174 167 186
174 166 186
173 166 186
173 165 186
173 165 186
172 164 186
172 164 186
172 163 186
171 163 186
171 163 186
171 162 186
171 162 186
170 161 186
170 161 186
170 160 186
169 160 186
169 159 186
169 159 186
169 158 186
168 158 186
168 157 186
168 157 186
167 156 186
167 156 186
167 156 186
167 155 186
166 155 186
166 154 186
166 154 186
165 153 186
165 153 186
165 152 186
164 152 186
164 151 186
164 151 186
164 150 186
163 150 186
163 149 186
163 149 186
162 149 186
162 148 186
162 148 186
162 147 186
161 147 186
161 146 186
161 146 186
160 145 186
160 145 186
160 144 186
160 144 186
159 143 186
159 143 186
159 142 186
158 142 186
158 142 186
158 141 186
157 141 186
157 140 186
157 140 186
157 139 186
156 139 186
156 138 186
156 138 186
155 137 186
155 137 186
155 136 186
155 136 186
154 136 186
154 135 186
154 135 186
153 134 186
153 134 186
153 133 186
152 133 186
152 132 186
152 132 186
152 131 186
151 131 186
151 130 186
151 130 186
150 129 186
150 129 186
150 129 186
150 128 186
149 128 186
149 127 186
149 127 186
148 126 186
148 126 186
148 125 186
148 125 186
147 124 186
147 124 186
147 123 186
146 123 186
146 122 186
146 122 186
145 122 186
145 121 186
145 121 186
145 120 186
144 120 186
144 119 186
144 119 186
143 118 186
143 118 186
143 117 186
143 117 186
142 116 186
142 116 186
142 115 186
141 115 186
141 115 186
141 114 186
141 114 186
140 113 186
140 113 186
140 112 186
139 112 186
139 111 186
139 111 186
138 110 186
138 110 186
138 109 186
138 109 186
137 109 186
137 108 186
137 108 186
136 107 186
136 107 186
136 106 186
136 106 186
135 105 186
135 105 186
135 104 186
134 104 186
134 103 186
134 103 186
133 102 186
133 102 186
133 102 186
133 101 186
132 101 186
132 100 186
132 100 186
131 99 186
131 99 186
131 98 186
131 98 186
130 97 186
130 97 186
130 96 186
129 96 186
129 95 186
129 95 186
129 95 186
128 94 186
128 94 186
128 93 186
127 93 186
127 92 186
127 92 186
126 91 186
126 91 186
126 90 186
126 90 186
125 89 186
125 89 186
125 88 186
124 88 186
124 88 186
124 87 186
124 87 186
123 86 186
123 86 186
123 85 186
122 85 186
122 84 186
122 84 186
122 83 186
121 83 186
121 82 186
121 82 186
120 81 186
120 81 186
120 81 186
119 80 186
119 80 186
119 79 186
119 79 186
118 78 186
118 78 186
118 77 186
117 77 186
117 76 186
117 76 186
117 75 186
116 75 186
116 75 186
116 74 186
115 74 186
115 73 186
115 73 186
114 72 186
114 72 186
114 71 186
114 71 186
113 70 186
113 70 186
113 69 186
112 69 186
112 68 186
112 68 186
112 68 186
111 67 186
111 67 186
111 66 186
110 66 186
110 65 186
110 65 186
110 64 186
109 64 186
109 63 186
109 63 186
108 62 186
108 62 186
108 61 186
107 61 186
107 61 186
107 60 186
107 60 186
106 59 186
106 59 186
106 58 186
105 58 186
105 57 186
105 57 186
105 56 186
104 56 186
104 55 186
104 55 186
103 54 186
103 54 186
103 54 186
103 53 186
102 53 186
102 52 186
102 52 186
101 51 186
101 51 186
101 50 186
100 50 186
100 49 186
100 49 186
100 48 186
99 48 186
99 47 186
99 47 186
98 47 186
98 46 186
98 46 186
98 45 186
97 45 186
97 44 186
97 44 186
96 43 186
96 43 186
96 42 186
95 42 186
95 41 186
95 41 186
95 41 186
94 40 186
94 40 186
94 39 186
93 39 186
93 38 186
93 38 186
93 37 186
92 37 186
92 36 186
92 36 186
91 35 186
91 35 186
91 34 186
91 34 186
90 34 186
90 33 186
90 33 186
89 32 186
89 32 186
89 31 186
88 31 186
88 30 186
88 30 186
88 29 186
87 29 186
87 28 186
87 28 186
86 27 186
86 27 186
86 27 186
86 26 186
85 26 186
85 25 186
85 25 186
84 24 186
84 24 186
84 23 186
84 23 186
83 22 186
83 22 186
83 21 186
82 21 186
82 20 186
82 20 186
81 20 186
81 19 186
81 19 186
81 18 186
80 18 186
80 17 186
80 17 186
79 16 186
79 16 186
79 15 186
79 15 186
78 14 186
78 14 186
78 14 186
77 13 186
77 13 186
77 12 186
77 12 186
76 11 186
76 11 186
76 10 186
75 10 186
75 9 186
75 9 186
74 8 186
74 8 186
74 7 186
74 7 186
73 7 186
73 6 186
73 6 186
72 5 186
72 5 186
72 4 186
72 4 186
71 3 186
71 3 186
71 2 186
70 2 186
70 1 186
70 1 186
69 0 186
69 0 186
185 185 185
184 184 185
184 184 185
184 183 185
183 183 185
183 182 185
183 182 185
183 181 185
182 181 185
182 180 185
182 180 185
181 179 185
181 179 185
181 179 185
181 178 185
180 178 185
180 177 185
180 177 185
179 176 185
179 176 185
179 175 185
179 175 185
178 174 185
178 174 185
178 173 185
177 173 185
177 172 185
177 172 185
177 172 185
176 171 185
176 171 185
176 170 185
175 170 185
175 169 185
175 169 185
175 168 185
174 168 185
174 167 185
174 167 185
173 166 185
173 166 185
173 166 185
173 165 185
172 165 185
172 164 185
172 164 185
171 163 185
171 163 185
171 162 185
171 162 185
170 161 185
170 161 185
170 160 185
169 160 185
169 160 185
169 159 185
169 159 185
168 158 185
168 158 185
168 157 185
167 157 185
167 156 185
167 156 185
167 155 185
166 155 185
166 154 185
166 154 185
165 154 185
165 153 185
165 153 185
165 152 185
164 152 185
164 151 185
164 151 185
163 150 185
163 150 185
163 149 185
163 149 185
162 148 185
162 148 185
162 148 185
161 147 185
161 147 185
161 146 185
161 146 185
160 145 185
160 145 185
160 144 185
159 144 185
159 143 185
159 143 185
159 142 185
158 142 185
158 142 185
158 141 185
157 141 185
157 140 185
157 140 185
157 139 185
156 139 185
156 138 185
156 138 185
155 137 185
155 137 185
155 136 185
155 136 185
154 136 185
154 135 185
154 135 185
153 134 185
153 134 185
153 133 185
153 133 185
152 132 185
152 132 185
152 131 185
151 131 185
151 130 185
151 130 185
151 129 185
150 129 185
150 129 185
150 128 185
149 128 185
149 127 185
149 127 185
149 126 185
148 126 185
148 125 185
148 125 185
147 124 185
147 124 185
147 123 185
147 123 185
146 123 185
146 122 185
146 122 185
145 121 185
145 121 185
145 120 185
145 120 185
144 119 185
144 119 185
144 118 185
143 118 185
143 117 185
143 117 185
143 117 185
142 116 185
142 116 185
142 115 185
141 115 185
141 114 185
141 114 185
141 113 185
140 113 185
140 112 185
140 112 185
139 111 185
139 111 185
139 111 185
139 110 185
138 110 185
138 109 185
138 109 185
137 108 185
137 108 185
137 107 185
137 107 185
136 106 185
136 106 185
136 105 185
135 105 185
135 105 185
135 104 185
135 104 185
134 103 185
134 103 185
134 102 185
133 102 185
133 101 185
133 101 185
133 100 185
132 100 185
132 99 185
132 99 185
131 99 185
131 98 185
131 98 185
131 97 185
130 97 185
130 96 185
130 96 185
129 95 185
129 95 185
129 94 185
129 94 185
128 93 185
128 93 185
128 92 185
127 92 185
127 92 185
127 91 185
126 91 185
126 90 185
126 90 185
126 89 185
125 89 185
125 88 185
125 88 185
124 87 185
124 87 185
124 86 185
124 86 185
123 86 185
123 85 185
123 85 185
122 84 185
122 84 185
122 83 185
122 83 185
121 82 185
121 82 185
121 81 185
120 81 185
120 80 185
120 80 185
120 80 185
119 79 185
119 79 185
119 78 185
118 78 185
118 77 185
118 77 185
118 76 185
117 76 185
117 75 185
117 75 185
116 74 185
116 74 185
116 74 185
116 73 185
115 73 185
115 72 185
115 72 185
114 71 185
114 71 185
114 70 185
114 70 185
113 69 185
113 69 185
113 68 185
112 68 185
112 68 185
112 67 185
112 67 185
111 66 185
111 66 185
111 65 185
110 65 185
110 64 185
110 64 185
110 63 185
109 63 185
109 62 185
109 62 185
108 62 185
108 61 185
108 61 185
108 60 185
107 60 185
107 59 185
107 59 185
106 58 185
106 58 185
106 57 185
106 57 185
105 56 185
105 56 185
105 55 185
104 55 185
104 55 185
104 54 185
104 54 185
103 53 185
103 53 185
103 52 185
102 52 185
102 51 185
102 51 185
102 50 185
101 50 185
101 49 185
101 49 185
100 49 185
100 48 185
100 48 185
100 47 185
99 47 185
99 46 185
99 46 185
98 45 185
98 45 185
98 44 185
98 44 185
97 43 185
97 43 185
97 43 185
96 42 185
96 42 185
96 41 185
96 41 185
95 40 185
95 40 185
95 39 185
94 39 185
94 38 185
94 38 185
94 37 185
93 37 185
93 37 185
93 36 185
92 36 185
92 35 185
92 35 185
92 34 185
91 34 185
91 33 185
91 33 185
90 32 185
90 32 185
90 31 185
90 31 185
89 31 185
89 30 185
89 30 185
88 29 185
88 29 185
88 28 185
88 28 185
87 27 185
87 27 185
87 26 185
86 26 185
86 25 185
86 25 185
86 25 185
85 24 185
85 24 185
85 23 185
84 23 185
84 22 185
84 22 185
84 21 185
83 21 185
83 20 185
83 20 185
82 19 185
82 19 185
82 18 185
82 18 185
81 18 185
81 17 185
81 17 185
80 16 185
80 16 185
80 15 185
80 15 185
79 14 185
79 14 185
79 13 185
78 13 185
78 12 185
78 12 185
78 12 185
77 11 185
77 11 185
77 10 185
76 10 185
76 9 185
76 9 185
76 8 185
75 8 185
75 7 185
75 7 185
74 6 185
74 6 185
74 6 185
74 5 185
73 5 185
73 4 185
73 4 185
72 3 185
72 3 185
72 2 185
72 2 185
71 1 185
71 1 185
71 0 185
70 0 185
183 183 183
183 183 183
183 182 183
182 182 183
182 181 183
182 181 183
182 180 183
181 180 183
181 180 183
181 179 183
180 179 183
180 178 183
180 178 183
180 177 183
179 177 183
179 176 183
179 176 183
178 175 183
178 175 183
178 175 183
178 174 183
177 174 183
177 173 183
177 173 183
177 172 183
176 172 183
176 171 183
176 171 183
175 170 183
175 170 183
175 169 183
175 169 183
174 169 183
174 168 183
174 168 183
173 167 183
173 167 183
173 166 183
173 166 183
172 165 183
172 165 183
172 164 183
172 164 183
171 163 183
171 163 183
171 163 183
170 162 183
170 162 183
170 161 183
170 161 183
169 160 183
169 160 183
169 159 183
168 159 183
168 158 183
168 158 183
168 158 183
167 157 183
167 157 183
167 156 183
166 156 183
166 155 183
166 155 183
166 154 183
165 154 183
165 153 183
165 153 183
165 152 183
164 152 183
164 152 183
164 151 183
163 151 183
163 150 183
163 150 183
163 149 183
162 149 183
162 148 183
162 148 183
161 147 183
161 147 183
161 147 183
161 146 183
160 146 183
160 145 183
160 145 183
159 144 183
159 144 183
159 143 183
159 143 183
158 142 183
158 142 183
158 141 183
158 141 183
157 141 183
157 140 183
157 140 183
156 139 183
156 139 183
156 138 183
156 138 183
155 137 183
155 137 183
155 136 183
154 136 183
154 135 183
154 135 183
154 135 183
153 134 183
153 134 183
153 133 183
153 133 183
152 132 183
152 132 183
152 131 183
151 131 183
151 130 183
151 130 183
151 130 183
150 129 183
150 129 183
150 128 183
149 128 183
149 127 183
149 127 183
149 126 183
148 126 183
148 125 183
148 125 183
147 124 183
147 124 183
147 124 183
147 123 183
146 123 183
146 122 183
146 122 183
146 121 183
145 121 183
145 120 183
145 120 183
144 119 183
144 119 183
144 118 183
144 118 183
143 118 183
143 117 183
143 117 183
142 116 183
142 116 183
142 115 183
142 115 183
141 114 183
141 114 183
141 113 183
140 113 183
140 113 183
140 112 183
140 112 183
139 111 183
139 111 183
139 110 183
139 110 183
138 109 183
138 109 183
138 108 183
137 108 183
137 107 183
137 107 183
137 107 183
136 106 183
136 106 183
136 105 183
135 105 183
135 104 183
135 104 183
135 103 183
134 103 183
134 102 183
134 102 183
134 101 183
133 101 183
133 101 183
133 100 183
132 100 183
132 99 183
132 99 183
132 98 183
131 98 183
131 97 183
131 97 183
130 96 183
130 96 183
130 96 183
130 95 183
129 95 183
129 94 183
129 94 183
128 93 183
128 93 183
128 92 183
128 92 183
127 91 183
127 91 183
127 90 183
127 90 183
126 90 183
126 89 183
126 89 183
125 88 183
125 88 183
125 87 183
125 87 183
124 86 183
124 86 183
124 85 183
123 85 183
123 85 183
123 84 183
123 84 183
122 83 183
122 83 183
122 82 183
121 82 183
121 81 183
121 81 183
121 80 183
120 80 183
120 79 183
120 79 183
120 79 183
119 78 183
119 78 183
119 77 183
118 77 183
118 76 183
118 76 183
118 75 183
117 75 183
117 74 183
117 74 183
116 73 183
116 73 183
116 73 183
116 72 183
115 72 183
115 71 183
115 71 183
115 70 183
114 70 183
114 69 183
114 69 183
113 68 183
113 68 183
113 68 183
113 67 183
112 67 183
112 66 183
112 66 183
111 65 183
111 65 183
111 64 183
111 64 183
110 63 183
110 63 183
110 62 183
109 62 183
109 62 183
109 61 183
109 61 183
108 60 183
108 60 183
108 59 183
108 59 183
107 58 183
107 58 183
107 57 183
106 57 183
106 56 183
106 56 183
106 56 183
105 55 183
105 55 183
105 54 183
104 54 183
104 53 183
104 53 183
104 52 183
103 52 183
103 51 183
103 51 183
102 51 183
102 50 183
102 50 183
102 49 183
101 49 183
101 48 183
101 48 183
101 47 183
100 47 183
100 46 183
100 46 183
99 45 183
99 45 183
99 45 183
99 44 183
98 44 183
98 43 183
98 43 183
97 42 183
97 42 183
97 41 183
97 41 183
96 40 183
96 40 183
96 39 183
96 39 183
95 39 183
95 38 183
95 38 183
94 37 183
94 37 183
94 36 183
94 36 183
93 35 183
93 35 183
93 34 183
92 34 183
92 34 183
92 33 183
92 33 183
91 32 183
91 32 183
91 31 183
90 31 183
90 30 183
90 30 183
90 29 183
89 29 183
89 28 183
89 28 183
89 28 183
88 27 183
88 27 183
88 26 183
87 26 183
87 25 183
87 25 183
87 24 183
86 24 183
86 23 183
86 23 183
85 23 183
85 22 183
85 22 183
85 21 183
84 21 183
84 20 183
84 20 183
83 19 183
83 19 183
83 18 183
83 18 183
82 17 183
82 17 183
82 17 183
82 16 183
81 16 183
81 15 183
81 15 183
80 14 183
80 14 183
80 13 183
80 13 183
79 12 183
79 12 183
79 11 183
78 11 183
78 11 183
78 10 183
78 10 183
77 9 183
77 9 183
77 8 183
77 8 183
76 7 183
76 7 183
76 6 183
75 6 183
75 6 183
75 5 183
75 5 183
74 4 183
74 4 183
74 3 183
73 3 183
73 2 183
73 2 183
73 1 183
72 1 183
72 0 183
72 0 183
182 182 182
182 182 182
181 181 182
181 181 182
181 180 182
181 180 182
180 179 182
180 179 182
180 178 182
180 178 182
179 177 182
179 177 182
179 176 182
178 176 182
178 176 182
178 175 182
178 175 182
177 174 182
177 174 182
177 173 182
177 173 182
176 172 182
176 172 182
176 171 182
175 171 182
175 171 182
175 170 182
175 170 182
174 169 182
174 169 182
174 168 182
173 168 182
173 167 182
173 167 182
173 166 182
172 166 182
172 166 182
172 165 182
172 165 182
171 164 182
171 164 182
171 163 182
170 163 182
170 162 182
170 162 182
170 161 182
169 161 182
169 161 182
169 160 182
169 160 182
168 159 182
168 159 182
168 158 182
167 158 182
167 157 182
167 157 182
167 156 182
166 156 182
166 156 182
166 155 182
166 155 182
165 154 182
165 154 182
165 153 182
164 153 182
164 152 182
164 152 182
164 151 182
163 151 182
163 150 182
163 150 182
163 150 182
162 149 182
162 149 182
162 148 182
161 148 182
161 147 182
161 147 182
161 146 182
160 146 182
160 145 182
160 145 182
160 145 182
159 144 182
159 144 182
159 143 182
158 143 182
158 142 182
158 142 182
158 141 182
157 141 182
157 140 182
157 140 182
157 140 182
156 139 182
156 139 182
156 138 182
155 138 182
155 137 182
155 137 182
155 136 182
154 136 182
154 135 182
154 135 182
154 135 182
153 134 182
153 134 182
153 133 182
152 133 182
152 132 182
152 132 182
152 131 182
151 131 182
151 130 182
151 130 182
151 130 182
150 129 182
150 129 182
150 128 182
149 128 182
149 127 182
149 127 182
149 126 182
148 126 182
148 125 182
148 125 182
148 124 182
147 124 182
147 124 182
147 123 182
146 123 182
146 122 182
146 122 182
146 121 182
145 121 182
145 120 182
145 120 182
145 119 182
144 119 182
144 119 182
144 118 182
143 118 182
143 117 182
143 117 182
143 116 182
142 116 182
142 115 182
142 115 182
142 114 182
141 114 182
141 114 182
141 113 182
140 113 182
140 112 182
140 112 182
140 111 182
139 111 182
139 110 182
139 110 182
139 109 182
138 109 182
138 109 182
138 108 182
137 108 182
137 107 182
137 107 182
137 106 182
136 106 182
136 105 182
136 105 182
136 104 182
135 104 182
135 104 182
135 103 182
134 103 182
134 102 182
134 102 182
134 101 182
133 101 182
133 100 182
133 100 182
133 99 182
132 99 182
132 99 182
132 98 182
131 98 182
131 97 182
131 97 182
131 96 182
130 96 182
130 95 182
130 95 182
130 94 182
129 94 182
129 93 182
129 93 182
128 93 182
128 92 182
128 92 182
128 91 182
127 91 182
127 90 182
127 90 182
127 89 182
126 89 182
126 88 182
126 88 182
125 88 182
125 87 182
125 87 182
125 86 182
124 86 182
124 85 182
124 85 182
124 84 182
123 84 182
123 83 182
123 83 182
122 83 182
122 82 182
122 82 182
122 81 182
121 81 182
121 80 182
121 80 182
121 79 182
120 79 182
120 78 182
120 78 182
119 78 182
119 77 182
119 77 182
119 76 182
118 76 182
118 75 182
118 75 182
118 74 182
117 74 182
117 73 182
117 73 182
116 73 182
116 72 182
116 72 182
116 71 182
115 71 182
115 70 182
115 70 182
115 69 182
114 69 182
114 68 182
114 68 182
113 67 182
113 67 182
113 67 182
113 66 182
112 66 182
112 65 182
112 65 182
112 64 182
111 64 182
111 63 182
111 63 182
110 62 182
110 62 182
110 62 182
110 61 182
109 61 182
109 60 182
109 60 182
109 59 182
108 59 182
108 58 182
108 58 182
107 57 182
107 57 182
107 57 182
107 56 182
106 56 182
106 55 182
106 55 182
106 54 182
105 54 182
105 53 182
105 53 182
104 52 182
104 52 182
104 52 182
104 51 182
103 51 182
103 50 182
103 50 182
103 49 182
102 49 182
102 48 182
102 48 182
101 47 182
101 47 182
101 47 182
101 46 182
100 46 182
100 45 182
100 45 182
100 44 182
99 44 182
99 43 182
99 43 182
98 42 182
98 42 182
98 41 182
98 41 182
97 41 182
97 40 182
97 40 182
97 39 182
96 39 182
96 38 182
96 38 182
95 37 182
95 37 182
95 36 182
95 36 182
94 36 182
94 35 182
94 35 182
94 34 182
93 34 182
93 33 182
93 33 182
92 32 182
92 32 182
92 31 182
92 31 182
91 31 182
91 30 182
91 30 182
91 29 182
90 29 182
90 28 182
90 28 182
89 27 182
89 27 182
89 26 182
89 26 182
88 26 182
88 25 182
88 25 182
88 24 182
87 24 182
87 23 182
87 23 182
86 22 182
86 22 182
86 21 182
86 21 182
85 21 182
85 20 182
85 20 182
85 19 182
84 19 182
84 18 182
84 18 182
83 17 182
83 17 182
83 16 182
83 16 182
82 16 182
82 15 182
82 15 182
82 14 182
81 14 182
81 13 182
81 13 182
80 12 182
80 12 182
80 11 182
80 11 182
79 10 182
79 10 182
79 10 182
78 9 182
78 9 182
78 8 182
78 8 182
77 7 182
77 7 182
77 6 182
77 6 182
76 5 182
76 5 182
76 5 182
75 4 182
75 4 182
75 3 182
75 3 182
74 2 182
74 2 182
74 1 182
74 1 182
73 0 182
73 0 182
181 181 181
180 180 181
180 180 181
180 179 181
180 179 181
179 178 181
179 178 181
179 178 181
179 177 181
178 177 181
178 176 181
178 176 181
177 175 181
177 175 181
177 174 181
177 174 181
176 173 181
176 173 181
176 173 181
176 172 181
175 172 181
175 171 181
175 171 181
175 170 181
174 170 181
174 169 181
174 169 181
173 168 181
173 168 181
173 168 181
173 167 181
172 167 181
172 166 181
172 166 181
172 165 181
171 165 181
171 164 181
171 164 181
171 163 181
170 163 181
170 163 181
170 162 181
169 162 181
169 161 181
169 161 181
169 160 181
168 160 181
168 159 181
168 159 181
168 158 181
167 158 181
167 158 181
167 157 181
167 157 181
166 156 181
166 156 181
166 155 181
165 155 181
165 154 181
165 154 181
165 154 181
164 153 181
164 153 181
164 152 181
164 152 181
163 151 181
163 151 181
163 150 181
163 150 181
162 149 181
162 149 181
162 149 181
161 148 181
161 148 181
161 147 181
161 147 181
160 146 181
160 146 181
160 145 181
160 145 181
159 144 181
159 144 181
159 144 181
159 143 181
158 143 181
158 142 181
158 142 181
157 141 181
157 141 181
157 140 181
157 140 181
156 139 181
156 139 181
156 139 181
156 138 181
155 138 181
155 137 181
155 137 181
155 136 181
154 136 181
154 135 181
154 135 181
153 134 181
153 134 181
153 134 181
153 133 181
152 133 181
152 132 181
152 132 181
152 131 181
151 131 181
151 130 181
151 130 181
151 130 181
150 129 181
150 129 181
150 128 181
149 128 181
149 127 181
149 127 181
149 126 181
148 126 181
148 125 181
148 125 181
148 125 181
147 124 181
147 124 181
147 123 181
147 123 181
146 122 181
146 122 181
146 121 181
145 121 181
145 120 181
145 120 181
145 120 181
144 119 181
144 119 181
144 118 181
144 118 181
143 117 181
143 117 181
143 116 181
143 116 181
142 115 181
142 115 181
142 115 181
141 114 181
141 114 181
141 113 181
141 113 181
140 112 181
140 112 181
140 111 181
140 111 181
139 110 181
139 110 181
139 110 181
139 109 181
138 109 181
138 108 181
138 108 181
137 107 181
137 107 181
137 106 181
137 106 181
136 106 181
136 105 181
136 105 181
136 104 181
135 104 181
135 103 181
135 103 181
135 102 181
134 102 181
134 101 181
134 101 181
133 101 181
133 100 181
133 100 181
133 99 181
132 99 181
132 98 181
132 98 181
132 97 181
131 97 181
131 96 181
131 96 181
131 96 181
130 95 181
130 95 181
130 94 181
129 94 181
129 93 181
129 93 181
129 92 181
128 92 181
128 91 181
128 91 181
128 91 181
127 90 181
127 90 181
127 89 181
127 89 181
126 88 181
126 88 181
126 87 181
126 87 181
125 86 181
125 86 181
125 86 181
124 85 181
124 85 181
124 84 181
124 84 181
123 83 181
123 83 181
123 82 181
123 82 181
122 82 181
122 81 181
122 81 181
122 80 181
121 80 181
121 79 181
121 79 181
120 78 181
120 78 181
120 77 181
120 77 181
119 77 181
119 76 181
119 76 181
119 75 181
118 75 181
118 74 181
118 74 181
118 73 181
117 73 181
117 72 181
117 72 181
116 72 181
116 71 181
116 71 181
116 70 181
115 70 181
115 69 181
115 69 181
115 68 181
114 68 181
114 67 181
114 67 181
114 67 181
113 66 181
113 66 181
113 65 181
112 65 181
112 64 181
112 64 181
112 63 181
111 63 181
111 62 181
111 62 181
111 62 181
110 61 181
110 61 181
110 60 181
110 60 181
109 59 181
109 59 181
109 58 181
108 58 181
108 58 181
108 57 181
108 57 181
107 56 181
107 56 181
107 55 181
107 55 181
106 54 181
106 54 181
106 53 181
106 53 181
105 53 181
105 52 181
105 52 181
104 51 181
104 51 181
104 50 181
104 50 181
103 49 181
103 49 181
103 48 181
103 48 181
102 48 181
102 47 181
102 47 181
102 46 181
101 46 181
101 45 181
101 45 181
100 44 181
100 44 181
100 43 181
100 43 181
99 43 181
99 42 181
99 42 181
99 41 181
98 41 181
98 40 181
98 40 181
98 39 181
97 39 181
97 38 181
97 38 181
96 38 181
96 37 181
96 37 181
96 36 181
95 36 181
95 35 181
95 35 181
95 34 181
94 34 181
94 34 181
94 33 181
94 33 181
93 32 181
93 32 181
93 31 181
92 31 181
92 30 181
92 30 181
92 29 181
91 29 181
91 29 181
91 28 181
91 28 181
90 27 181
90 27 181
90 26 181
90 26 181
89 25 181
89 25 181
89 24 181
88 24 181
88 24 181
88 23 181
88 23 181
87 22 181
87 22 181
87 21 181
87 21 181
86 20 181
86 20 181
86 19 181
86 19 181
85 19 181
85 18 181
85 18 181
84 17 181
84 17 181
84 16 181
84 16 181
83 15 181
83 15 181
83 14 181
83 14 181
82 14 181
82 13 181
82 13 181
82 12 181
81 12 181
81 11 181
81 11 181
80 10 181
80 10 181
80 10 181
80 9 181
79 9 181
79 8 181
79 8 181
79 7 181
78 7 181
78 6 181
78 6 181
78 5 181
77 5 181
77 5 181
77 4 181
76 4 181
76 3 181
76 3 181
76 2 181
75 2 181
75 1 181
75 1 181
75 0 181
74 0 181
179 179 179
179 179 179
179 178 179
179 178 179
178 178 179
178 177 179
178 177 179
178 176 179
177 176 179
177 175 179
177 175 179
177 174 179
176 174 179
176 174 179
176 173 179
175 173 179
175 172 179
175 172 179
175 171 179
174 171 179
174 170 179
174 170 179
174 170 179
173 169 179
173 169 179
173 168 179
173 168 179
172 167 179
172 167 179
172 166 179
172 166 179
171 165 179
171 165 179
171 165 179
171 164 179
170 164 179
170 163 179
170 163 179
170 162 179
169 162 179
169 161 179
169 161 179
168 161 179
168 160 179
168 160 179
168 159 179
167 159 179
167 158 179
167 158 179
167 157 179
166 157 179
166 156 179
166 156 179
166 156 179
165 155 179
165 155 179
165 154 179
165 154 179
164 153 179
164 153 179
164 152 179
164 152 179
163 152 179
163 151 179
163 151 179
162 150 179
162 150 179
162 149 179
162 149 179
161 148 179
161 148 179
161 147 179
161 147 179
160 147 179
160 146 179
160 146 179
160 145 179
159 145 179
159 144 179
159 144 179
159 143 179
158 143 179
158 143 179
158 142 179
158 142 179
157 141 179
157 141 179
157 140 179
157 140 179
156 139 179
156 139 179
156 138 179
155 138 179
155 138 179
155 137 179
155 137 179
154 136 179
154 136 179
154 135 179
154 135 179
153 134 179
153 134 179
153 134 179
153 133 179
152 133 179
152 132 179
152 132 179
152 131 179
151 131 179
151 130 179
151 130 179
151 129 179
150 129 179
150 129 179
150 128 179
149 128 179
149 127 179
149 127 179
149 126 179
148 126 179
148 125 179
148 125 179
148 125 179
147 124 179
147 124 179
147 123 179
147 123 179
146 122 179
146 122 179
146 121 179
146 121 179
145 120 179
145 120 179
145 120 179
145 119 179
144 119 179
144 118 179
144 118 179
143 117 179
143 117 179
143 116 179
143 116 179
142 116 179
142 115 179
142 115 179
142 114 179
141 114 179
141 113 179
141 113 179
141 112 179
140 112 179
140 112 179
140 111 179
140 111 179
139 110 179
139 110 179
139 109 179
139 109 179
138 108 179
138 108 179
138 107 179
138 107 179
137 107 179
137 106 179
137 106 179
136 105 179
136 105 179
136 104 179
136 104 179
135 103 179
135 103 179
135 103 179
135 102 179
134 102 179
134 101 179
134 101 179
134 100 179
133 100 179
133 99 179
133 99 179
133 98 179
132 98 179
132 98 179
132 97 179
132 97 179
131 96 179
131 96 179
131 95 179
130 95 179
130 94 179
130 94 179
130 94 179
129 93 179
129 93 179
129 92 179
129 92 179
128 91 179
128 91 179
128 90 179
128 90 179
127 89 179
127 89 179
127 89 179
127 88 179
126 88 179
126 87 179
126 87 179
126 86 179
125 86 179
125 85 179
125 85 179
125 85 179
124 84 179
124 84 179
124 83 179
123 83 179
123 82 179
123 82 179
123 81 179
122 81 179
122 80 179
122 80 179
122 80 179
121 79 179
121 79 179
121 78 179
121 78 179
120 77 179
120 77 179
120 76 179
120 76 179
119 76 179
119 75 179
119 75 179
119 74 179
118 74 179
118 73 179
118 73 179
117 72 179
117 72 179
117 71 179
117 71 179
116 71 179
116 70 179
116 70 179
116 69 179
115 69 179
115 68 179
115 68 179
115 67 179
114 67 179
114 67 179
114 66 179
114 66 179
113 65 179
113 65 179
113 64 179
113 64 179
112 63 179
112 63 179
112 62 179
112 62 179
111 62 179
111 61 179
111 61 179
110 60 179
110 60 179
110 59 179
110 59 179
109 58 179
109 58 179
109 58 179
109 57 179
108 57 179
108 56 179
108 56 179
108 55 179
107 55 179
107 54 179
107 54 179
107 54 179
106 53 179
106 53 179
106 52 179
106 52 179
105 51 179
105 51 179
105 50 179
104 50 179
104 49 179
104 49 179
104 49 179
103 48 179
103 48 179
103 47 179
103 47 179
102 46 179
102 46 179
102 45 179
102 45 179
101 45 179
101 44 179
101 44 179
101 43 179
100 43 179
100 42 179
100 42 179
100 41 179
99 41 179
99 40 179
99 40 179
98 40 179
98 39 179
98 39 179
98 38 179
97 38 179
97 37 179
97 37 179
97 36 179
96 36 179
96 36 179
96 35 179
96 35 179
95 34 179
95 34 179
95 33 179
95 33 179
94 32 179
94 32 179
94 31 179
94 31 179
93 31 179
93 30 179
93 30 179
93 29 179
92 29 179
92 28 179
92 28 179
91 27 179
91 27 179
91 27 179
91 26 179
90 26 179
90 25 179
90 25 179
90 24 179
89 24 179
89 23 179
89 23 179
89 22 179
88 22 179
88 22 179
88 21 179
88 21 179
87 20 179
87 20 179
87 19 179
87 19 179
86 18 179
86 18 179
86 18 179
85 17 179
85 17 179
85 16 179
85 16 179
84 15 179
84 15 179
84 14 179
84 14 179
83 13 179
83 13 179
83 13 179
83 12 179
82 12 179
82 11 179
82 11 179
82 10 179
81 10 179
81 9 179
81 9 179
81 9 179
80 8 179
80 8 179
80 7 179
80 7 179
79 6 179
79 6 179
79 5 179
78 5 179
78 4 179
78 4 179
78 4 179
77 3 179
77 3 179
77 2 179
77 2 179
76 1 179
76 1 179
76 0 179
76 0 179
178 178 178
178 178 178
178 177 178
177 177 178
177 176 178
177 176 178
177 175 178
176 175 178
176 175 178
176 174 178
176 174 178
175 173 178
175 173 178
175 172 178
175 172 178
174 171 178
174 171 178
174 171 178
174 170 178
173 170 178
173 169 178
173 169 178
173 168 178
172 168 178
172 167 178
172 167 178
172 167 178
171 166 178
171 166 178
171 165 178
171 165 178
170 164 178
170 164 178
170 163 178
169 163 178
169 162 178
169 162 178
169 162 178
168 161 178
168 161 178
168 160 178
168 160 178
167 159 178
167 159 178
167 158 178
167 158 178
166 158 178
166 157 178
166 157 178
166 156 178
165 156 178
165 155 178
165 155 178
165 154 178
164 154 178
164 154 178
164 153 178
164 153 178
163 152 178
163 152 178
163 151 178
163 151 178
162 150 178
162 150 178
162 150 178
162 149 178
161 149 178
161 148 178
161 148 178
161 147 178
160 147 178
160 146 178
160 146 178
160 146 178
159 145 178
159 145 178
159 144 178
159 144 178
158 143 178
158 143 178
158 142 178
158 142 178
157 142 178
157 141 178
157 141 178
157 140 178
156 140 178
156 139 178
156 139 178
156 138 178
155 138 178
155 137 178
155 137 178
155 137 178
154 136 178
154 136 178
154 135 178
154 135 178
153 134 178
153 134 178
153 133 178
152 133 178
152 133 178
152 132 178
152 132 178
151 131 178
151 131 178
151 130 178
151 130 178
150 129 178
150 129 178
150 129 178
150 128 178
149 128 178
149 127 178
149 127 178
149 126 178
148 126 178
148 125 178
148 125 178
148 125 178
147 124 178
147 124 178
147 123 178
147 123 178
146 122 178
146 122 178
146 121 178
146 121 178
145 121 178
145 120 178
145 120 178
145 119 178
144 119 178
144 118 178
144 118 178
144 117 178
143 117 178
143 117 178
143 116 178
143 116 178
142 115 178
142 115 178
142 114 178
142 114 178
141 113 178
141 113 178
141 112 178
141 112 178
140 112 178
140 111 178
140 111 178
140 110 178
139 110 178
139 109 178
139 109 178
139 108 178
138 108 178
138 108 178
138 107 178
138 107 178
137 106 178
137 106 178
137 105 178
137 105 178
136 104 178
136 104 178
136 104 178
135 103 178
135 103 178
135 102 178
135 102 178
134 101 178
134 101 178
134 100 178
134 100 178
133 100 178
133 99 178
133 99 178
133 98 178
132 98 178
132 97 178
132 97 178
132 96 178
131 96 178
131 96 178
131 95 178
131 95 178
130 94 178
130 94 178
130 93 178
130 93 178
129 92 178
129 92 178
129 92 178
129 91 178
128 91 178
128 90 178
128 90 178
128 89 178
127 89 178
127 88 178
127 88 178
127 87 178
126 87 178
126 87 178
126 86 178
126 86 178
125 85 178
125 85 178
125 84 178
125 84 178
124 83 178
124 83 178
124 83 178
124 82 178
123 82 178
123 81 178
123 81 178
123 80 178
122 80 178
122 79 178
122 79 178
122 79 178
121 78 178
121 78 178
121 77 178
121 77 178
120 76 178
120 76 178
120 75 178
120 75 178
119 75 178
119 74 178
119 74 178
118 73 178
118 73 178
118 72 178
118 72 178
117 71 178
117 71 178
117 71 178
117 70 178
116 70 178
116 69 178
116 69 178
116 68 178
115 68 178
115 67 178
115 67 178
115 67 178
114 66 178
114 66 178
114 65 178
114 65 178
113 64 178
113 64 178
113 63 178
113 63 178
112 62 178
112 62 178
112 62 178
112 61 178
111 61 178
111 60 178
111 60 178
111 59 178
110 59 178
110 58 178
110 58 178
110 58 178
109 57 178
109 57 178
109 56 178
109 56 178
108 55 178
108 55 178
108 54 178
108 54 178
107 54 178
107 53 178
107 53 178
107 52 178
106 52 178
106 51 178
106 51 178
106 50 178
105 50 178
105 50 178
105 49 178
105 49 178
104 48 178
104 48 178
104 47 178
104 47 178
103 46 178
103 46 178
103 46 178
103 45 178
102 45 178
102 44 178
102 44 178
101 43 178
101 43 178
101 42 178
101 42 178
100 42 178
100 41 178
100 41 178
100 40 178
99 40 178
99 39 178
99 39 178
99 38 178
98 38 178
98 37 178
98 37 178
98 37 178
97 36 178
97 36 178
97 35 178
97 35 178
96 34 178
96 34 178
96 33 178
96 33 178
95 33 178
95 32 178
95 32 178
95 31 178
94 31 178
94 30 178
94 30 178
94 29 178
93 29 178
93 29 178
93 28 178
93 28 178
92 27 178
92 27 178
92 26 178
92 26 178
91 25 178
91 25 178
91 25 178
91 24 178
90 24 178
90 23 178
90 23 178
90 22 178
89 22 178
89 21 178
89 21 178
89 21 178
88 20 178
88 20 178
88 19 178
88 19 178
87 18 178
87 18 178
87 17 178
87 17 178
86 17 178
86 16 178
86 16 178
86 15 178
85 15 178
85 14 178
85 14 178
84 13 178
84 13 178
84 12 178
84 12 178
83 12 178
83 11 178
83 11 178
83 10 178
82 10 178
82 9 178
82 9 178
82 8 178
81 8 178
81 8 178
81 7 178
81 7 178
80 6 178
80 6 178
80 5 178
80 5 178
79 4 178
79 4 178
79 4 178
79 3 178
78 3 178
78 2 178
78 2 178
78 1 178
77 1 178
77 0 178
77 0 178
177 177 177
177 176 177
176 176 177
176 176 177
176 175 177
176 175 177
175 174 177
175 174 177
175 173 177
175 173 177
174 172 177
174 172 177
174 172 177
174 171 177
173 171 177
173 170 177
173 170 177
173 169 177
172 169 177
172 168 177
172 168 177
172 168 177
171 167 177
171 167 177
171 166 177
171 166 177
170 165 177
170 165 177
170 164 177
170 164 177
169 164 177
169 163 177
169 163 177
169 162 177
168 162 177
168 161 177
168 161 177
168 160 177
167 160 177
167 160 177
167 159 177
167 159 177
166 158 177
166 158 177
166 157 177
166 157 177
165 156 177
165 156 177
165 156 177
165 155 177
164 155 177
164 154 177
164 154 177
164 153 177
163 153 177
163 152 177
163 152 177
163 152 177
162 151 177
162 151 177
162 150 177
162 150 177
162 149 177
161 149 177
161 148 177
161 148 177
161 148 177
160 147 177
160 147 177
160 146 177
160 146 177
159 145 177
159 145 177
159 144 177
159 144 177
158 144 177
158 143 177
158 143 177
158 142 177
157 142 177
157 141 177
157 141 177
157 140 177
156 140 177
156 140 177
156 139 177
156 139 177
155 138 177
155 138 177
155 137 177
155 137 177
154 137 177
154 136 177
154 136 177
154 135 177
153 135 177
153 134 177
153 134 177
153 133 177
152 133 177
152 133 177
152 132 177
152 132 177
151 131 177
151 131 177
151 130 177
151 130 177
150 129 177
150 129 177
150 129 177
150 128 177
149 128 177
149 127 177
149 127 177
149 126 177
148 126 177
148 125 177
148 125 177
148 125 177
147 124 177
147 124 177
147 123 177
147 123 177
146 122 177
146 122 177
146 121 177
146 121 177
145 121 177
145 120 177
145 120 177
145 119 177
144 119 177
144 118 177
144 118 177
144 117 177
143 117 177
143 117 177
143 116 177
143 116 177
142 115 177
142 115 177
142 114 177
142 114 177
141 113 177
141 113 177
141 113 177
141 112 177
140 112 177
140 111 177
140 111 177
140 110 177
139 110 177
139 109 177
139 109 177
139 109 177
139 108 177
138 108 177
138 107 177
138 107 177
138 106 177
137 106 177
137 105 177
137 105 177
137 105 177
136 104 177
136 104 177
136 103 177
136 103 177
135 102 177
135 102 177
135 101 177
135 101 177
134 101 177
134 100 177
134 100 177
134 99 177
133 99 177
133 98 177
133 98 177
133 98 177
132 97 177
132 97 177
132 96 177
132 96 177
131 95 177
131 95 177
131 94 177
131 94 177
130 94 177
130 93 177
130 93 177
130 92 177
129 92 177
129 91 177
129 91 177
129 90 177
128 90 177
128 90 177
128 89 177
128 89 177
127 88 177
127 88 177
127 87 177
127 87 177
126 86 177
126 86 177
126 86 177
126 85 177
125 85 177
125 84 177
125 84 177
125 83 177
124 83 177
124 82 177
124 82 177
124 82 177
123 81 177
123 81 177
123 80 177
123 80 177
122 79 177
122 79 177
122 78 177
122 78 177
121 78 177
121 77 177
121 77 177
121 76 177
120 76 177
120 75 177
120 75 177
120 74 177
119 74 177
119 74 177
119 73 177
119 73 177
118 72 177
118 72 177
118 71 177
118 71 177
117 70 177
117 70 177
117 70 177
117 69 177
116 69 177
116 68 177
116 68 177
116 67 177
116 67 177
115 66 177
115 66 177
115 66 177
115 65 177
114 65 177
114 64 177
114 64 177
114 63 177
113 63 177
113 62 177
113 62 177
113 62 177
112 61 177
112 61 177
112 60 177
112 60 177
111 59 177
111 59 177
111 59 177
111 58 177
110 58 177
110 57 177
110 57 177
110 56 177
109 56 177
109 55 177
109 55 177
109 55 177
108 54 177
108 54 177
108 53 177
108 53 177
107 52 177
107 52 177
107 51 177
107 51 177
106 51 177
106 50 177
106 50 177
106 49 177
105 49 177
105 48 177
105 48 177
105 47 177
104 47 177
104 47 177
104 46 177
104 46 177
103 45 177
103 45 177
103 44 177
103 44 177
102 43 177
102 43 177
102 43 177
102 42 177
101 42 177
101 41 177
101 41 177
101 40 177
100 40 177
100 39 177
100 39 177
100 39 177
99 38 177
99 38 177
99 37 177
99 37 177
98 36 177
98 36 177
98 35 177
98 35 177
97 35 177
97 34 177
97 34 177
97 33 177
96 33 177
96 32 177
96 32 177
96 31 177
95 31 177
95 31 177
95 30 177
95 30 177
94 29 177
94 29 177
94 28 177
94 28 177
93 27 177
93 27 177
93 27 177
93 26 177
93 26 177
92 25 177
92 25 177
92 24 177
92 24 177
91 23 177
91 23 177
91 23 177
91 22 177
90 22 177
90 21 177
90 21 177
90 20 177
89 20 177
89 20 177
89 19 177
89 19 177
88 18 177
88 18 177
88 17 177
88 17 177
87 16 177
87 16 177
87 16 177
87 15 177
86 15 177
86 14 177
86 14 177
86 13 177
85 13 177
85 12 177
85 12 177
85 12 177
84 11 177
84 11 177
84 10 177
84 10 177
83 9 177
83 9 177
83 8 177
83 8 177
82 8 177
82 7 177
82 7 177
82 6 177
81 6 177
81 5 177
81 5 177
81 4 177
80 4 177
80 4 177
80 3 177
80 3 177
79 2 177
79 2 177
79 1 177
79 1 177
78 0 177
78 0 177
176 176 176
175 175 176
175 175 176
175 174 176
175 174 176
174 173 176
174 173 176
174 172 176
174 172 176
173 172 176
173 171 176
173 171 176
173 170 176
172 170 176
172 169 176
172 169 176
172 169 176
171 168 176
171 168 176
171 167 176
171 167 176
170 166 176
170 166 176
170 165 176
170 165 176
170 165 176
169 164 176
169 164 176
169 163 176
169 163 176
168 162 176
168 162 176
168 161 176
168 161 176
167 161 176
167 160 176
167 160 176
167 159 176
166 159 176
166 158 176
166 158 176
166 158 176
165 157 176
165 157 176
165 156 176
165 156 176
164 155 176
164 155 176
164 154 176
164 154 176
164 154 176
163 153 176
163 153 176
163 152 176
163 152 176
162 151 176
162 151 176
162 150 176
162 150 176
161 150 176
161 149 176
161 149 176
161 148 176
160 148 176
160 147 176
160 147 176
160 147 176
159 146 176
159 146 176
159 145 176
159 145 176
158 144 176
158 144 176
158 143 176
158 143 176
157 143 176
157 142 176
157 142 176
157 141 176
157 141 176
156 140 176
156 140 176
156 139 176
156 139 176
155 139 176
155 138 176
155 138 176
155 137 176
154 137 176
154 136 176
154 136 176
154 136 176
153 135 176
153 135 176
153 134 176
153 134 176
152 133 176
152 133 176
152 132 176
152 132 176
151 132 176
151 131 176
151 131 176
151 130 176
151 130 176
150 129 176
150 129 176
150 128 176
150 128 176
149 128 176
149 127 176
149 127 176
149 126 176
148 126 176
148 125 176
148 125 176
148 125 176
147 124 176
147 124 176
147 123 176
147 123 176
146 122 176
146 122 176
146 121 176
146 121 176
145 121 176
145 120 176
145 120 176
145 119 176
144 119 176
144 118 176
144 118 176
144 117 176
144 117 176
143 117 176
143 116 176
143 116 176
143 115 176
142 115 176
142 114 176
142 114 176
142 114 176
141 113 176
141 113 176
141 112 176
141 112 176
140 111 176
140 111 176
140 110 176
140 110 176
139 110 176
139 109 176
139 109 176
139 108 176
138 108 176
138 107 176
138 107 176
138 106 176
137 106 176
137 106 176
137 105 176
137 105 176
137 104 176
136 104 176
136 103 176
136 103 176
136 103 176
135 102 176
135 102 176
135 101 176
135 101 176
134 100 176
134 100 176
134 99 176
134 99 176
133 99 176
133 98 176
133 98 176
133 97 176
132 97 176
132 96 176
132 96 176
132 95 176
131 95 176
131 95 176
131 94 176
131 94 176
131 93 176
130 93 176
130 92 176
130 92 176
130 92 176
129 91 176
129 91 176
129 90 176
129 90 176
128 89 176
128 89 176
128 88 176
128 88 176
127 88 176
127 87 176
127 87 176
127 86 176
126 86 176
126 85 176
126 85 176
126 84 176
125 84 176
125 84 176
125 83 176
125 83 176
124 82 176
124 82 176
124 81 176
124 81 176
124 81 176
123 80 176
123 80 176
123 79 176
123 79 176
122 78 176
122 78 176
122 77 176
122 77 176
121 77 176
121 76 176
121 76 176
121 75 176
120 75 176
120 74 176
120 74 176
120 73 176
119 73 176
119 73 176
119 72 176
119 72 176
118 71 176
118 71 176
118 70 176
118 70 176
118 70 176
117 69 176
117 69 176
117 68 176
117 68 176
116 67 176
116 67 176
116 66 176
116 66 176
115 66 176
115 65 176
115 65 176
115 64 176
114 64 176
114 63 176
114 63 176
114 62 176
113 62 176
113 62 176
113 61 176
113 61 176
112 60 176
112 60 176
112 59 176
112 59 176
111 59 176
111 58 176
111 58 176
111 57 176
111 57 176
110 56 176
110 56 176
110 55 176
110 55 176
109 55 176
109 54 176
109 54 176
109 53 176
108 53 176
108 52 176
108 52 176
108 51 176
107 51 176
107 51 176
107 50 176
107 50 176
106 49 176
106 49 176
106 48 176
106 48 176
105 48 176
105 47 176
105 47 176
105 46 176
104 46 176
104 45 176
104 45 176
104 44 176
104 44 176
103 44 176
103 43 176
103 43 176
103 42 176
102 42 176
102 41 176
102 41 176
102 40 176
101 40 176
101 40 176
101 39 176
101 39 176
100 38 176
100 38 176
100 37 176
100 37 176
99 37 176
99 36 176
99 36 176
99 35 176
98 35 176
98 34 176
98 34 176
98 33 176
98 33 176
97 33 176
97 32 176
97 32 176
97 31 176
96 31 176
96 30 176
96 30 176
96 29 176
95 29 176
95 29 176
95 28 176
95 28 176
94 27 176
94 27 176
94 26 176
94 26 176
93 26 176
93 25 176
93 25 176
93 24 176
92 24 176
92 23 176
92 23 176
92 22 176
91 22 176
91 22 176
91 21 176
91 21 176
91 20 176
90 20 176
90 19 176
90 19 176
90 18 176
89 18 176
89 18 176
89 17 176
89 17 176
88 16 176
88 16 176
88 15 176
88 15 176
87 15 176
87 14 176
87 14 176
87 13 176
86 13 176
86 12 176
86 12 176
86 11 176
85 11 176
85 11 176
85 10 176
85 10 176
85 9 176
84 9 176
84 8 176
84 8 176
84 7 176
83 7 176
83 7 176
83 6 176
83 6 176
82 5 176
82 5 176
82 4 176
82 4 176
81 4 176
81 3 176
81 3 176
81 2 176
80 2 176
80 1 176
80 1 176
80 0 176
79 0 176
174 174 174
174 174 174
174 173 174
174 173 174
173 173 174
173 172 174
173 172 174
173 171 174
172 171 174
172 170 174
172 170 174
172 169 174
171 169 174
171 169 174
171 168 174
171 168 174
171 167 174
170 167 174
170 166 174
170 166 174
170 166 174
169 165 174
169 165 174
169 164 174
169 164 174
168 163 174
168 163 174
168 162 174
168 162 174
167 162 174
167 161 174
167 161 174
167 160 174
167 160 174
166 159 174
166 159 174
166 159 174
166 158 174
165 158 174
165 157 174
165 157 174
165 156 174
164 156 174
164 155 174
164 155 174
164 155 174
163 154 174
163 154 174
163 153 174
163 153 174
163 152 174
162 152 174
162 152 174
162 151 174
162 151 174
161 150 174
161 150 174
161 149 174
161 149 174
160 149 174
160 148 174
160 148 174
160 147 174
160 147 174
159 146 174
159 146 174
159 145 174
159 145 174
158 145 174
158 144 174
158 144 174
158 143 174
157 143 174
157 142 174
157 142 174
157 142 174
156 141 174
156 141 174
156 140 174
156 140 174
156 139 174
155 139 174
155 138 174
155 138 174
155 138 174
154 137 174
154 137 174
154 136 174
154 136 174
153 135 174
153 135 174
153 135 174
153 134 174
152 134 174
152 133 174
152 133 174
152 132 174
152 132 174
151 131 174
151 131 174
151 131 174
151 130 174
150 130 174
150 129 174
150 129 174
150 128 174
149 128 174
149 128 174
149 127 174
149 127 174
148 126 174
148 126 174
148 125 174
148 125 174
148 124 174
147 124 174
147 124 174
147 123 174
147 123 174
146 122 174
146 122 174
146 121 174
146 121 174
145 121 174
145 120 174
145 120 174
145 119 174
144 119 174
144 118 174
144 118 174
144 117 174
144 117 174
143 117 174
143 116 174
143 116 174
143 115 174
142 115 174
142 114 174
142 114 174
142 114 174
141 113 174
141 113 174
141 112 174
141 112 174
141 111 174
140 111 174
140 111 174
140 110 174
140 110 174
139 109 174
139 109 174
139 108 174
139 108 174
138 107 174
138 107 174
138 107 174
138 106 174
137 106 174
137 105 174
137 105 174
137 104 174
137 104 174
136 104 174
136 103 174
136 103 174
136 102 174
135 102 174
135 101 174
135 101 174
135 100 174
134 100 174
134 100 174
134 99 174
134 99 174
133 98 174
133 98 174
133 97 174
133 97 174
133 97 174
132 96 174
132 96 174
132 95 174
132 95 174
131 94 174
131 94 174
131 93 174
131 93 174
130 93 174
130 92 174
130 92 174
130 91 174
129 91 174
129 90 174
129 90 174
129 90 174
129 89 174
128 89 174
128 88 174
128 88 174
128 87 174
127 87 174
127 86 174
127 86 174
127 86 174
126 85 174
126 85 174
126 84 174
126 84 174
126 83 174
125 83 174
125 83 174
125 82 174
125 82 174
124 81 174
124 81 174
124 80 174
124 80 174
123 79 174
123 79 174
123 79 174
123 78 174
122 78 174
122 77 174
122 77 174
122 76 174
122 76 174
121 76 174
121 75 174
121 75 174
121 74 174
120 74 174
120 73 174
120 73 174
120 73 174
119 72 174
119 72 174
119 71 174
119 71 174
118 70 174
118 70 174
118 69 174
118 69 174
118 69 174
117 68 174
117 68 174
117 67 174
117 67 174
116 66 174
116 66 174
116 66 174
116 65 174
115 65 174
115 64 174
115 64 174
115 63 174
114 63 174
114 62 174
114 62 174
114 62 174
114 61 174
113 61 174
113 60 174
113 60 174
113 59 174
112 59 174
112 59 174
112 58 174
112 58 174
111 57 174
111 57 174
111 56 174
111 56 174
111 55 174
110 55 174
110 55 174
110 54 174
110 54 174
109 53 174
109 53 174
109 52 174
109 52 174
108 52 174
108 51 174
108 51 174
108 50 174
107 50 174
107 49 174
107 49 174
107 48 174
107 48 174
106 48 174
106 47 174
106 47 174
106 46 174
105 46 174
105 45 174
105 45 174
105 45 174
104 44 174
104 44 174
104 43 174
104 43 174
103 42 174
103 42 174
103 41 174
103 41 174
103 41 174
102 40 174
102 40 174
102 39 174
102 39 174
101 38 174
101 38 174
101 38 174
101 37 174
100 37 174
100 36 174
100 36 174
100 35 174
99 35 174
99 35 174
99 34 174
99 34 174
99 33 174
98 33 174
98 32 174
98 32 174
98 31 174
97 31 174
97 31 174
97 30 174
97 30 174
96 29 174
96 29 174
96 28 174
96 28 174
95 28 174
95 27 174
95 27 174
95 26 174
95 26 174
94 25 174
94 25 174
94 24 174
94 24 174
93 24 174
93 23 174
93 23 174
93 22 174
92 22 174
92 21 174
92 21 174
92 21 174
92 20 174
91 20 174
91 19 174
91 19 174
91 18 174
90 18 174
90 17 174
90 17 174
90 17 174
89 16 174
89 16 174
89 15 174
89 15 174
88 14 174
88 14 174
88 14 174
88 13 174
88 13 174
87 12 174
87 12 174
87 11 174
87 11 174
86 10 174
86 10 174
86 10 174
86 9 174
85 9 174
85 8 174
85 8 174
85 7 174
84 7 174
84 7 174
84 6 174
84 6 174
84 5 174
83 5 174
83 4 174
83 4 174
83 3 174
82 3 174
82 3 174
82 2 174
82 2 174
81 1 174
81 1 174
81 0 174
81 0 174
173 173 173
173 173 173
173 172 173
172 172 173
172 171 173
172 171 173
172 170 173
171 170 173
171 170 173
171 169 173
171 169 173
170 168 173
170 168 173
170 167 173
170 167 173
170 166 173
169 166 173
169 166 173
169 165 173
169 165 173
168 164 173
168 164 173
168 163 173
168 163 173
168 163 173
167 162 173
167 162 173
167 161 173
167 161 173
166 160 173
166 160 173
166 160 173
166 159 173
165 159 173
165 158 173
165 158 173
165 157 173
165 157 173
164 157 173
164 156 173
164 156 173
164 155 173
163 155 173
163 154 173
163 154 173
163 153 173
163 153 173
162 153 173
162 152 173
162 152 173
162 151 173
161 151 173
161 150 173
161 150 173
161 150 173
160 149 173
160 149 173
160 148 173
160 148 173
160 147 173
159 147 173
159 147 173
159 146 173
159 146 173
158 145 173
158 145 173
158 144 173
158 144 173
157 144 173
157 143 173
157 143 173
157 142 173
157 142 173
156 141 173
156 141 173
156 140 173
156 140 173
155 140 173
155 139 173
155 139 173
155 138 173
155 138 173
154 137 173
154 137 173
154 137 173
154 136 173
153 136 173
153 135 173
153 135 173
153 134 173
152 134 173
152 134 173
152 133 173
152 133 173
152 132 173
151 132 173
151 131 173
151 131 173
151 131 173
150 130 173
150 130 173
150 129 173
150 129 173
150 128 173
149 128 173
149 127 173
149 127 173
149 127 173
148 126 173
148 126 173
148 125 173
148 125 173
147 124 173
147 124 173
147 124 173
147 123 173
147 123 173
146 122 173
146 122 173
146 121 173
146 121 173
145 121 173
145 120 173
145 120 173
145 119 173
144 119 173
144 118 173
144 118 173
144 117 173
144 117 173
143 117 173
143 116 173
143 116 173
143 115 173
142 115 173
142 114 173
142 114 173
142 114 173
142 113 173
141 113 173
141 112 173
141 112 173
141 111 173
140 111 173
140 111 173
140 110 173
140 110 173
139 109 173
139 109 173
139 108 173
139 108 173
139 108 173
138 107 173
138 107 173
138 106 173
138 106 173
137 105 173
137 105 173
137 104 173
137 104 173
137 104 173
136 103 173
136 103 173
136 102 173
136 102 173
135 101 173
135 101 173
135 101 173
135 100 173
134 100 173
134 99 173
134 99 173
134 98 173
134 98 173
133 98 173
133 97 173
133 97 173
133 96 173
132 96 173
132 95 173
132 95 173
132 95 173
131 94 173
131 94 173
131 93 173
131 93 173
131 92 173
130 92 173
130 91 173
130 91 173
130 91 173
129 90 173
129 90 173
129 89 173
129 89 173
129 88 173
128 88 173
128 88 173
128 87 173
128 87 173
127 86 173
127 86 173
127 85 173
127 85 173
126 85 173
126 84 173
126 84 173
126 83 173
126 83 173
125 82 173
125 82 173
125 82 173
125 81 173
124 81 173
124 80 173
124 80 173
124 79 173
124 79 173
123 78 173
123 78 173
123 78 173
123 77 173
122 77 173
122 76 173
122 76 173
122 75 173
121 75 173
121 75 173
121 74 173
121 74 173
121 73 173
120 73 173
120 72 173
120 72 173
120 72 173
119 71 173
119 71 173
119 70 173
119 70 173
118 69 173
118 69 173
118 69 173
118 68 173
118 68 173
117 67 173
117 67 173
117 66 173
117 66 173
116 65 173
116 65 173
116 65 173
116 64 173
116 64 173
115 63 173
115 63 173
115 62 173
115 62 173
114 62 173
114 61 173
114 61 173
114 60 173
113 60 173
113 59 173
113 59 173
113 59 173
113 58 173
112 58 173
112 57 173
112 57 173
112 56 173
111 56 173
111 55 173
111 55 173
111 55 173
111 54 173
110 54 173
110 53 173
110 53 173
110 52 173
109 52 173
109 52 173
109 51 173
109 51 173
108 50 173
108 50 173
108 49 173
108 49 173
108 49 173
107 48 173
107 48 173
107 47 173
107 47 173
106 46 173
106 46 173
106 46 173
106 45 173
105 45 173
105 44 173
105 44 173
105 43 173
105 43 173
104 42 173
104 42 173
104 42 173
104 41 173
103 41 173
103 40 173
103 40 173
103 39 173
103 39 173
102 39 173
102 38 173
102 38 173
102 37 173
101 37 173
101 36 173
101 36 173
101 36 173
100 35 173
100 35 173
100 34 173
100 34 173
100 33 173
99 33 173
99 33 173
99 32 173
99 32 173
98 31 173
98 31 173
98 30 173
98 30 173
98 29 173
97 29 173
97 29 173
97 28 173
97 28 173
96 27 173
96 27 173
96 26 173
96 26 173
95 26 173
95 25 173
95 25 173
95 24 173
95 24 173
94 23 173
94 23 173
94 23 173
94 22 173
93 22 173
93 21 173
93 21 173
93 20 173
92 20 173
92 20 173
92 19 173
92 19 173
92 18 173
91 18 173
91 17 173
91 17 173
91 16 173
90 16 173
90 16 173
90 15 173
90 15 173
90 14 173
89 14 173
89 13 173
89 13 173
89 13 173
88 12 173
88 12 173
88 11 173
88 11 173
87 10 173
87 10 173
87 10 173
87 9 173
87 9 173
86 8 173
86 8 173
86 7 173
86 7 173
85 7 173
85 6 173
85 6 173
85 5 173
85 5 173
84 4 173
84 4 173
84 3 173
84 3 173
83 3 173
83 2 173
83 2 173
83 1 173
82 1 173
82 0 173
82 0 173
172 172 172
171 171 172
171 171 172
171 170 172
171 170 172
171 170 172
170 169 172
170 169 172
170 168 172
170 168 172
169 167 172
169 167 172
169 167 172
169 166 172
169 166 172
168 165 172
168 165 172
168 164 172
168 164 172
167 164 172
167 163 172
167 163 172
167 162 172
167 162 172
166 161 172
166 161 172
166 161 172
166 160 172
166 160 172
165 159 172
165 159 172
165 158 172
165 158 172
164 158 172
164 157 172
164 157 172
164 156 172
164 156 172
163 155 172
163 155 172
163 154 172
163 154 172
162 154 172
162 153 172
162 153 172
162 152 172
162 152 172
161 151 172
161 151 172
161 151 172
161 150 172
160 150 172
160 149 172
160 149 172
160 148 172
160 148 172
159 148 172
159 147 172
159 147 172
159 146 172
158 146 172
158 145 172
158 145 172
158 145 172
158 144 172
157 144 172
157 143 172
157 143 172
157 142 172
156 142 172
156 142 172
156 141 172
156 141 172
156 140 172
155 140 172
155 139 172
155 139 172
155 139 172
154 138 172
154 138 172
154 137 172
154 137 172
154 136 172
153 136 172
153 136 172
153 135 172
153 135 172
152 134 172
152 134 172
152 133 172
152 133 172
152 133 172
151 132 172
151 132 172
151 131 172
151 131 172
150 130 172
150 130 172
150 130 172
150 129 172
150 129 172
149 128 172
149 128 172
149 127 172
149 127 172
148 127 172
148 126 172
148 126 172
148 125 172
148 125 172
147 124 172
147 124 172
147 124 172
147 123 172
146 123 172
146 122 172
146 122 172
146 121 172
146 121 172
145 120 172
145 120 172
145 120 172
145 119 172
144 119 172
144 118 172
144 118 172
144 117 172
144 117 172
143 117 172
143 116 172
143 116 172
143 115 172
142 115 172
142 114 172
142 114 172
142 114 172
142 113 172
141 113 172
141 112 172
141 112 172
141 111 172
140 111 172
140 111 172
140 110 172
140 110 172
140 109 172
139 109 172
139 108 172
139 108 172
139 108 172
138 107 172
138 107 172
138 106 172
138 106 172
138 105 172
137 105 172
137 105 172
137 104 172
137 104 172
136 103 172
136 103 172
136 102 172
136 102 172
136 102 172
135 101 172
135 101 172
135 100 172
135 100 172
134 99 172
134 99 172
134 99 172
134 98 172
134 98 172
133 97 172
133 97 172
133 96 172
133 96 172
132 96 172
132 95 172
132 95 172
132 94 172
132 94 172
131 93 172
131 93 172
131 93 172
131 92 172
130 92 172
130 91 172
130 91 172
130 90 172
130 90 172
129 90 172
129 89 172
129 89 172
129 88 172
128 88 172
128 87 172
128 87 172
128 86 172
128 86 172
127 86 172
127 85 172
127 85 172
127 84 172
127 84 172
126 83 172
126 83 172
126 83 172
126 82 172
125 82 172
125 81 172
125 81 172
125 80 172
125 80 172
124 80 172
124 79 172
124 79 172
124 78 172
123 78 172
123 77 172
123 77 172
123 77 172
123 76 172
122 76 172
122 75 172
122 75 172
122 74 172
121 74 172
121 74 172
121 73 172
121 73 172
121 72 172
120 72 172
120 71 172
120 71 172
120 71 172
119 70 172
119 70 172
119 69 172
119 69 172
119 68 172
118 68 172
118 68 172
118 67 172
118 67 172
117 66 172
117 66 172
117 65 172
117 65 172
117 65 172
116 64 172
116 64 172
116 63 172
116 63 172
115 62 172
115 62 172
115 62 172
115 61 172
115 61 172
114 60 172
114 60 172
114 59 172
114 59 172
113 59 172
113 58 172
113 58 172
113 57 172
113 57 172
112 56 172
112 56 172
112 56 172
112 55 172
111 55 172
111 54 172
111 54 172
111 53 172
111 53 172
110 53 172
110 52 172
110 52 172
110 51 172
109 51 172
109 50 172
109 50 172
109 49 172
109 49 172
108 49 172
108 48 172
108 48 172
108 47 172
107 47 172
107 46 172
107 46 172
107 46 172
107 45 172
106 45 172
106 44 172
106 44 172
106 43 172
105 43 172
105 43 172
105 42 172
105 42 172
105 41 172
104 41 172
104 40 172
104 40 172
104 40 172
103 39 172
103 39 172
103 38 172
103 38 172
103 37 172
102 37 172
102 37 172
102 36 172
102 36 172
101 35 172
101 35 172
101 34 172
101 34 172
101 34 172
100 33 172
100 33 172
100 32 172
100 32 172
99 31 172
99 31 172
99 31 172
99 30 172
99 30 172
98 29 172
98 29 172
98 28 172
98 28 172
97 28 172
97 27 172
97 27 172
97 26 172
97 26 172
96 25 172
96 25 172
96 25 172
96 24 172
95 24 172
95 23 172
95 23 172
95 22 172
95 22 172
94 22 172
94 21 172
94 21 172
94 20 172
93 20 172
93 19 172
93 19 172
93 19 172
93 18 172
92 18 172
92 17 172
92 17 172
92 16 172
91 16 172
91 15 172
91 15 172
91 15 172
91 14 172
90 14 172
90 13 172
90 13 172
90 12 172
89 12 172
89 12 172
89 11 172
89 11 172
89 10 172
88 10 172
88 9 172
88 9 172
88 9 172
88 8 172
87 8 172
87 7 172
87 7 172
87 6 172
86 6 172
86 6 172
86 5 172
86 5 172
86 4 172
85 4 172
85 3 172
85 3 172
85 3 172
84 2 172
84 2 172
84 1 172
84 1 172
84 0 172
83 0 172
170 170 170
170 170 170
170 170 170
170 169 170
170 169 170
169 168 170
169 168 170
169 167 170
169 167 170
168 167 170
168 166 170
168 166 170
168 165 170
168 165 170
167 164 170
167 164 170
167 164 170
167 163 170
167 163 170
166 162 170
166 162 170
166 161 170
166 161 170
165 161 170
165 160 170
165 160 170
165 159 170
165 159 170
164 158 170
164 158 170
164 158 170
164 157 170
164 157 170
163 156 170
163 156 170
163 155 170
163 155 170
162 155 170
162 154 170
162 154 170
162 153 170
162 153 170
161 152 170
161 152 170
161 152 170
161 151 170
161 151 170
160 150 170
160 150 170
160 149 170
160 149 170
159 149 170
159 148 170
159 148 170
159 147 170
159 147 170
158 147 170
158 146 170
158 146 170
158 145 170
158 145 170
157 144 170
157 144 170
157 144 170
157 143 170
156 143 170
156 142 170
156 142 170
156 141 170
156 141 170
155 141 170
155 140 170
155 140 170
155 139 170
155 139 170
154 138 170
154 138 170
154 138 170
154 137 170
153 137 170
153 136 170
153 136 170
153 135 170
153 135 170
152 135 170
152 134 170
152 134 170
152 133 170
151 133 170
151 132 170
151 132 170
151 132 170
151 131 170
150 131 170
150 130 170
150 130 170
150 129 170
150 129 170
149 129 170
149 128 170
149 128 170
149 127 170
148 127 170
148 126 170
148 126 170
148 126 170
148 125 170
147 125 170
147 124 170
147 124 170
147 123 170
147 123 170
146 123 170
146 122 170
146 122 170
146 121 170
145 121 170
145 120 170
145 120 170
145 120 170
145 119 170
144 119 170
144 118 170
144 118 170
144 117 170
144 117 170
143 117 170
143 116 170
143 116 170
143 115 170
142 115 170
142 114 170
142 114 170
142 114 170
142 113 170
141 113 170
141 112 170
141 112 170
141 111 170
141 111 170
140 111 170
140 110 170
140 110 170
140 109 170
139 109 170
139 108 170
139 108 170
139 108 170
139 107 170
138 107 170
138 106 170
138 106 170
138 106 170
138 105 170
137 105 170
137 104 170
137 104 170
137 103 170
136 103 170
136 103 170
136 102 170
136 102 170
136 101 170
135 101 170
135 100 170
135 100 170
135 100 170
134 99 170
134 99 170
134 98 170
134 98 170
134 97 170
133 97 170
133 97 170
133 96 170
133 96 170
133 95 170
132 95 170
132 94 170
132 94 170
132 94 170
131 93 170
131 93 170
131 92 170
131 92 170
131 91 170
130 91 170
130 91 170
130 90 170
130 90 170
130 89 170
129 89 170
129 88 170
129 88 170
129 88 170
128 87 170
128 87 170
128 86 170
128 86 170
128 85 170
127 85 170
127 85 170
127 84 170
127 84 170
127 83 170
126 83 170
126 82 170
126 82 170
126 82 170
125 81 170
125 81 170
125 80 170
125 80 170
125 79 170
124 79 170
124 79 170
124 78 170
124 78 170
124 77 170
123 77 170
123 76 170
123 76 170
123 76 170
122 75 170
122 75 170
122 74 170
122 74 170
122 73 170
121 73 170
121 73 170
121 72 170
121 72 170
121 71 170
120 71 170
120 70 170
120 70 170
120 70 170
119 69 170
119 69 170
119 68 170
119 68 170
119 67 170
118 67 170
118 67 170
118 66 170
118 66 170
117 65 170
117 65 170
117 64 170
117 64 170
117 64 170
116 63 170
116 63 170
116 62 170
116 62 170
116 62 170
115 61 170
115 61 170
115 60 170
115 60 170
114 59 170
114 59 170
114 59 170
114 58 170
114 58 170
113 57 170
113 57 170
113 56 170
113 56 170
113 56 170
112 55 170
112 55 170
112 54 170
112 54 170
111 53 170
111 53 170
111 53 170
111 52 170
111 52 170
110 51 170
110 51 170
110 50 170
110 50 170
110 50 170
109 49 170
109 49 170
109 48 170
109 48 170
108 47 170
108 47 170
108 47 170
108 46 170
108 46 170
107 45 170
107 45 170
107 44 170
107 44 170
107 44 170
106 43 170
106 43 170
106 42 170
106 42 170
105 41 170
105 41 170
105 41 170
105 40 170
105 40 170
104 39 170
104 39 170
104 38 170
104 38 170
104 38 170
103 37 170
103 37 170
103 36 170
103 36 170
102 35 170
102 35 170
102 35 170
102 34 170
102 34 170
101 33 170
101 33 170
101 32 170
101 32 170
100 32 170
100 31 170
100 31 170
100 30 170
100 30 170
99 29 170
99 29 170
99 29 170
99 28 170
99 28 170
98 27 170
98 27 170
98 26 170
98 26 170
97 26 170
97 25 170
97 25 170
97 24 170
97 24 170
96 23 170
96 23 170
96 23 170
96 22 170
96 22 170
95 21 170
95 21 170
95 21 170
95 20 170
94 20 170
94 19 170
94 19 170
94 18 170
94 18 170
93 18 170
93 17 170
93 17 170
93 16 170
93 16 170
92 15 170
92 15 170
92 15 170
92 14 170
91 14 170
91 13 170
91 13 170
91 12 170
91 12 170
90 12 170
90 11 170
90 11 170
90 10 170
90 10 170
89 9 170
89 9 170
89 9 170
89 8 170
88 8 170
88 7 170
88 7 170
88 6 170
88 6 170
87 6 170
87 5 170
87 5 170
87 4 170
87 4 170
86 3 170
86 3 170
86 3 170
86 2 170
85 2 170
85 1 170
85 1 170
85 0 170
85 0 170
169 169 169
169 169 169
169 168 169
169 168 169
168 167 169
168 167 169
168 167 169
168 166 169
167 166 169
167 165 169
167 165 169
167 164 169
167 164 169
166 164 169
166 163 169
166 163 169
166 162 169
166 162 169
165 162 169
165 161 169
165 161 169
165 160 169
165 160 169
164 159 169
164 159 169
164 159 169
164 158 169
164 158 169
163 157 169
163 157 169
163 156 169
163 156 169
162 156 169
162 155 169
162 155 169
162 154 169
162 154 169
161 153 169
161 153 169
161 153 169
161 152 169
161 152 169
160 151 169
160 151 169
160 150 169
160 150 169
160 150 169
159 149 169
159 149 169
159 148 169
159 148 169
158 148 169
158 147 169
158 147 169
158 146 169
158 146 169
157 145 169
157 145 169
157 145 169
157 144 169
157 144 169
156 143 169
156 143 169
156 142 169
156 142 169
156 142 169
155 141 169
155 141 169
155 140 169
155 140 169
155 139 169
154 139 169
154 139 169
154 138 169
154 138 169
153 137 169
153 137 169
153 137 169
153 136 169
153 136 169
152 135 169
152 135 169
152 134 169
152 134 169
152 134 169
151 133 169
151 133 169
151 132 169
151 132 169
151 131 169
150 131 169
150 131 169
150 130 169
150 130 169
150 129 169
149 129 169
149 128 169
149 128 169
149 128 169
148 127 169
148 127 169
148 126 169
148 126 169
148 125 169
147 125 169
147 125 169
147 124 169
147 124 169
147 123 169
146 123 169
146 123 169
146 122 169
146 122 169
146 121 169
145 121 169
145 120 169
145 120 169
145 120 169
145 119 169
144 119 169
144 118 169
144 118 169
144 117 169
143 117 169
143 117 169
143 116 169
143 116 169
143 115 169
142 115 169
142 114 169
142 114 169
142 114 169
142 113 169
141 113 169
141 112 169
141 112 169
141 111 169
141 111 169
140 111 169
140 110 169
140 110 169
140 109 169
140 109 169
139 109 169
139 108 169
139 108 169
139 107 169
138 107 169
138 106 169
138 106 169
138 106 169
138 105 169
137 105 169
137 104 169
137 104 169
137 103 169
137 103 169
136 103 169
136 102 169
136 102 169
136 101 169
136 101 169
135 100 169
135 100 169
135 100 169
135 99 169
134 99 169
134 98 169
134 98 169
134 98 169
134 97 169
133 97 169
133 96 169
133 96 169
133 95 169
133 95 169
132 95 169
132 94 169
132 94 169
132 93 169
132 93 169
131 92 169
131 92 169
131 92 169
131 91 169
131 91 169
130 90 169
130 90 169
130 89 169
130 89 169
129 89 169
129 88 169
129 88 169
129 87 169
129 87 169
128 86 169
128 86 169
128 86 169
128 85 169
128 85 169
127 84 169
127 84 169
127 84 169
127 83 169
127 83 169
126 82 169
126 82 169
126 81 169
126 81 169
126 81 169
125 80 169
125 80 169
125 79 169
125 79 169
124 78 169
124 78 169
124 78 169
124 77 169
124 77 169
123 76 169
123 76 169
123 75 169
123 75 169
123 75 169
122 74 169
122 74 169
122 73 169
122 73 169
122 72 169
121 72 169
121 72 169
121 71 169
121 71 169
121 70 169
120 70 169
120 70 169
120 69 169
120 69 169
119 68 169
119 68 169
119 67 169
119 67 169
119 67 169
118 66 169
118 66 169
118 65 169
118 65 169
118 64 169
117 64 169
117 64 169
117 63 169
117 63 169
117 62 169
116 62 169
116 61 169
116 61 169
116 61 169
115 60 169
115 60 169
115 59 169
115 59 169
115 59 169
114 58 169
114 58 169
114 57 169
114 57 169
114 56 169
113 56 169
113 56 169
113 55 169
113 55 169
113 54 169
112 54 169
112 53 169
112 53 169
112 53 169
112 52 169
111 52 169
111 51 169
111 51 169
111 50 169
110 50 169
110 50 169
110 49 169
110 49 169
110 48 169
109 48 169
109 47 169
109 47 169
109 47 169
109 46 169
108 46 169
108 45 169
108 45 169
108 45 169
108 44 169
107 44 169
107 43 169
107 43 169
107 42 169
107 42 169
106 42 169
106 41 169
106 41 169
106 40 169
105 40 169
105 39 169
105 39 169
105 39 169
105 38 169
104 38 169
104 37 169
104 37 169
104 36 169
104 36 169
103 36 169
103 35 169
103 35 169
103 34 169
103 34 169
102 33 169
102 33 169
102 33 169
102 32 169
102 32 169
101 31 169
101 31 169
101 31 169
101 30 169
100 30 169
100 29 169
100 29 169
100 28 169
100 28 169
99 28 169
99 27 169
99 27 169
99 26 169
99 26 169
98 25 169
98 25 169
98 25 169
98 24 169
98 24 169
97 23 169
97 23 169
97 22 169
97 22 169
97 22 169
96 21 169
96 21 169
96 20 169
96 20 169
95 20 169
95 19 169
95 19 169
95 18 169
95 18 169
94 17 169
94 17 169
94 17 169
94 16 169
94 16 169
93 15 169
93 15 169
93 14 169
93 14 169
93 14 169
92 13 169
92 13 169
92 12 169
92 12 169
91 11 169
91 11 169
91 11 169
91 10 169
91 10 169
90 9 169
90 9 169
90 8 169
90 8 169
90 8 169
89 7 169
89 7 169
89 6 169
89 6 169
89 6 169
88 5 169
88 5 169
88 4 169
88 4 169
88 3 169
87 3 169
87 3 169
87 2 169
87 2 169
86 1 169
86 1 169
86 0 169
86 0 169
168 168 168
168 167 168
167 167 168
167 167 168
167 166 168
167 166 168
167 165 168
166 165 168
166 164 168
166 164 168
166 164 168
166 163 168
165 163 168
165 162 168
165 162 168
165 162 168
165 161 168
164 161 168
164 160 168
164 160 168
164 159 168
164 159 168
163 159 168
163 158 168
163 158 168
163 157 168
163 157 168
162 157 168
162 156 168
162 156 168
162 155 168
162 155 168
161 154 168
161 154 168
161 154 168
161 153 168
161 153 168
160 152 168
160 152 168
160 151 168
160 151 168
160 151 168
159 150 168
159 150 168
159 149 168
159 149 168
159 149 168
158 148 168
158 148 168
158 147 168
158 147 168
158 146 168
157 146 168
157 146 168
157 145 168
157 145 168
157 144 168
156 144 168
156 143 168
156 143 168
156 143 168
156 142 168
155 142 168
155 141 168
155 141 168
155 141 168
155 140 168
154 140 168
154 139 168
154 139 168
154 138 168
153 138 168
153 138 168
153 137 168
153 137 168
153 136 168
152 136 168
152 135 168
152 135 168
152 135 168
152 134 168
151 134 168
151 133 168
151 133 168
151 133 168
151 132 168
150 132 168
150 131 168
150 131 168
150 130 168
150 130 168
149 130 168
149 129 168
149 129 168
149 128 168
149 128 168
148 127 168
148 127 168
148 127 168
148 126 168
148 126 168
147 125 168
147 125 168
147 125 168
147 124 168
147 124 168
146 123 168
146 123 168
146 122 168
146 122 168
146 122 168
145 121 168
145 121 168
145 120 168
145 120 168
145 119 168
144 119 168
144 119 168
144 118 168
144 118 168
144 117 168
143 117 168
143 117 168
143 116 168
143 116 168
143 115 168
142 115 168
142 114 168
142 114 168
142 114 168
142 113 168
141 113 168
141 112 168
141 112 168
141 111 168
141 111 168
140 111 168
140 110 168
140 110 168
140 109 168
140 109 168
139 109 168
139 108 168
139 108 168
139 107 168
139 107 168
138 106 168
138 106 168
138 106 168
138 105 168
138 105 168
137 104 168
137 104 168
137 103 168
137 103 168
137 103 168
136 102 168
136 102 168
136 101 168
136 101 168
135 101 168
135 100 168
135 100 168
135 99 168
135 99 168
134 98 168
134 98 168
134 98 168
134 97 168
134 97 168
133 96 168
133 96 168
133 96 168
133 95 168
133 95 168
132 94 168
132 94 168
132 93 168
132 93 168
132 93 168
131 92 168
131 92 168
131 91 168
131 91 168
131 90 168
130 90 168
130 90 168
130 89 168
130 89 168
130 88 168
129 88 168
129 88 168
129 87 168
129 87 168
129 86 168
128 86 168
128 85 168
128 85 168
128 85 168
128 84 168
127 84 168
127 83 168
127 83 168
127 82 168
127 82 168
126 82 168
126 81 168
126 81 168
126 80 168
126 80 168
125 80 168
125 79 168
125 79 168
125 78 168
125 78 168
124 77 168
124 77 168
124 77 168
124 76 168
124 76 168
123 75 168
123 75 168
123 74 168
123 74 168
123 74 168
122 73 168
122 73 168
122 72 168
122 72 168
122 72 168
121 71 168
121 71 168
121 70 168
121 70 168
121 69 168
120 69 168
120 69 168
120 68 168
120 68 168
120 67 168
119 67 168
119 66 168
119 66 168
119 66 168
118 65 168
118 65 168
118 64 168
118 64 168
118 64 168
117 63 168
117 63 168
117 62 168
117 62 168
117 61 168
116 61 168
116 61 168
116 60 168
116 60 168
116 59 168
115 59 168
115 58 168
115 58 168
115 58 168
115 57 168
114 57 168
114 56 168
114 56 168
114 56 168
114 55 168
113 55 168
113 54 168
113 54 168
113 53 168
113 53 168
112 53 168
112 52 168
112 52 168
112 51 168
112 51 168
111 50 168
111 50 168
111 50 168
111 49 168
111 49 168
110 48 168
110 48 168
110 48 168
110 47 168
110 47 168
109 46 168
109 46 168
109 45 168
109 45 168
109 45 168
108 44 168
108 44 168
108 43 168
108 43 168
108 42 168
107 42 168
107 42 168
107 41 168
107 41 168
107 40 168
106 40 168
106 40 168
106 39 168
106 39 168
106 38 168
105 38 168
105 37 168
105 37 168
105 37 168
105 36 168
104 36 168
104 35 168
104 35 168
104 34 168
104 34 168
103 34 168
103 33 168
103 33 168
103 32 168
103 32 168
102 32 168
102 31 168
102 31 168
102 30 168
102 30 168
101 29 168
101 29 168
101 29 168
101 28 168
100 28 168
100 27 168
100 27 168
100 27 168
100 26 168
99 26 168
99 25 168
99 25 168
99 24 168
99 24 168
98 24 168
98 23 168
98 23 168
98 22 168
98 22 168
97 21 168
97 21 168
97 21 168
97 20 168
97 20 168
96 19 168
96 19 168
96 19 168
96 18 168
96 18 168
95 17 168
95 17 168
95 16 168
95 16 168
95 16 168
94 15 168
94 15 168
94 14 168
94 14 168
94 13 168
93 13 168
93 13 168
93 12 168
93 12 168
93 11 168
92 11 168
92 11 168
92 10 168
92 10 168
92 9 168
91 9 168
91 8 168
91 8 168
91 8 168
91 7 168
90 7 168
90 6 168
90 6 168
90 5 168
90 5 168
89 5 168
89 4 168
89 4 168
89 3 168
89 3 168
88 3 168
88 2 168
88 2 168
88 1 168
88 1 168
87 0 168
87 0 168
167 167 167
166 166 167
166 166 167
166 165 167
166 165 167
166 164 167
165 164 167
165 164 167
165 163 167
165 163 167
165 162 167
164 162 167
164 162 167
164 161 167
164 161 167
164 160 167
163 160 167
163 159 167
163 159 167
163 159 167
163 158 167
162 158 167
162 157 167
162 157 167
162 157 167
162 156 167
161 156 167
161 155 167
161 155 167
161 154 167
161 154 167
161 154 167
160 153 167
160 153 167
160 152 167
160 152 167
160 152 167
159 151 167
159 151 167
159 150 167
159 150 167
159 149 167
158 149 167
158 149 167
158 148 167
158 148 167
158 147 167
157 147 167
157 147 167
157 146 167
157 146 167
157 145 167
156 145 167
156 144 167
156 144 167
156 144 167
156 143 167
155 143 167
155 142 167
155 142 167
155 142 167
155 141 167
154 141 167
154 140 167
154 140 167
154 139 167
154 139 167
153 139 167
153 138 167
153 138 167
153 137 167
153 137 167
152 137 167
152 136 167
152 136 167
152 135 167
152 135 167
151 134 167
151 134 167
151 134 167
151 133 167
151 133 167
151 132 167
150 132 167
150 132 167
150 131 167
150 131 167
150 130 167
149 130 167
149 129 167
149 129 167
149 129 167
149 128 167
148 128 167
148 127 167
148 127 167
148 127 167
148 126 167
147 126 167
147 125 167
147 125 167
147 124 167
147 124 167
146 124 167
146 123 167
146 123 167
146 122 167
146 122 167
145 121 167
145 121 167
145 121 167
145 120 167
145 120 167
144 119 167
144 119 167
144 119 167
144 118 167
144 118 167
143 117 167
143 117 167
143 116 167
143 116 167
143 116 167
142 115 167
142 115 167
142 114 167
142 114 167
142 114 167
142 113 167
141 113 167
141 112 167
141 112 167
141 111 167
141 111 167
140 111 167
140 110 167
140 110 167
140 109 167
140 109 167
139 109 167
139 108 167
139 108 167
139 107 167
139 107 167
138 106 167
138 106 167
138 106 167
138 105 167
138 105 167
137 104 167
137 104 167
137 104 167
137 103 167
137 103 167
136 102 167
136 102 167
136 101 167
136 101 167
136 101 167
135 100 167
135 100 167
135 99 167
135 99 167
135 99 167
134 98 167
134 98 167
134 97 167
134 97 167
134 96 167
133 96 167
133 96 167
133 95 167
133 95 167
133 94 167
132 94 167
132 94 167
132 93 167
132 93 167
132 92 167
132 92 167
131 91 167
131 91 167
131 91 167
131 90 167
131 90 167
130 89 167
130 89 167
130 89 167
130 88 167
130 88 167
129 87 167
129 87 167
129 86 167
129 86 167
129 86 167
128 85 167
128 85 167
128 84 167
128 84 167
128 84 167
127 83 167
127 83 167
127 82 167
127 82 167
127 81 167
126 81 167
126 81 167
126 80 167
126 80 167
126 79 167
125 79 167
125 78 167
125 78 167
125 78 167
125 77 167
124 77 167
124 76 167
124 76 167
124 76 167
124 75 167
123 75 167
123 74 167
123 74 167
123 73 167
123 73 167
123 73 167
122 72 167
122 72 167
122 71 167
122 71 167
122 71 167
121 70 167
121 70 167
121 69 167
121 69 167
121 68 167
120 68 167
120 68 167
120 67 167
120 67 167
120 66 167
119 66 167
119 66 167
119 65 167
119 65 167
119 64 167
118 64 167
118 63 167
118 63 167
118 63 167
118 62 167
117 62 167
117 61 167
117 61 167
117 61 167
117 60 167
116 60 167
116 59 167
116 59 167
116 58 167
116 58 167
115 58 167
115 57 167
115 57 167
115 56 167
115 56 167
114 56 167
114 55 167
114 55 167
114 54 167
114 54 167
113 53 167
113 53 167
113 53 167
113 52 167
113 52 167
113 51 167
112 51 167
112 51 167
112 50 167
112 50 167
112 49 167
111 49 167
111 48 167
111 48 167
111 48 167
111 47 167
110 47 167
110 46 167
110 46 167
110 46 167
110 45 167
109 45 167
109 44 167
109 44 167
109 43 167
109 43 167
108 43 167
108 42 167
108 42 167
108 41 167
108 41 167
107 40 167
107 40 167
107 40 167
107 39 167
107 39 167
106 38 167
106 38 167
106 38 167
106 37 167
106 37 167
105 36 167
105 36 167
105 35 167
105 35 167
105 35 167
104 34 167
104 34 167
104 33 167
104 33 167
104 33 167
104 32 167
103 32 167
103 31 167
103 31 167
103 30 167
103 30 167
102 30 167
102 29 167
102 29 167
102 28 167
102 28 167
101 28 167
101 27 167
101 27 167
101 26 167
101 26 167
100 25 167
100 25 167
100 25 167
100 24 167
100 24 167
99 23 167
99 23 167
99 23 167
99 22 167
99 22 167
98 21 167
98 21 167
98 20 167
98 20 167
98 20 167
97 19 167
97 19 167
97 18 167
97 18 167
97 18 167
96 17 167
96 17 167
96 16 167
96 16 167
96 15 167
95 15 167
95 15 167
95 14 167
95 14 167
95 13 167
94 13 167
94 13 167
94 12 167
94 12 167
94 11 167
94 11 167
93 10 167
93 10 167
93 10 167
93 9 167
93 9 167
92 8 167
92 8 167
92 8 167
92 7 167
92 7 167
91 6 167
91 6 167
91 5 167
91 5 167
91 5 167
90 4 167
90 4 167
90 3 167
90 3 167
90 3 167
89 2 167
89 2 167
89 1 167
89 1 167
89 0 167
88 0 167
165 165 165
165 165 165
165 164 165
165 164 165
165 164 165
164 163 165
164 163 165
164 162 165
164 162 165
164 162 165
163 161 165
163 161 165
163 160 165
163 160 165
163 160 165
162 159 165
162 159 165
162 158 165
162 158 165
162 157 165
162 157 165
161 157 165
161 156 165
161 156 165
161 155 165
161 155 165
160 155 165
160 154 165
160 154 165
160 153 165
160 153 165
159 152 165
159 152 165
159 152 165
159 151 165
159 151 165
158 150 165
158 150 165
158 150 165
158 149 165
158 149 165
158 148 165
157 148 165
157 147 165
157 147 165
157 147 165
157 146 165
156 146 165
156 145 165
156 145 165
156 145 165
156 144 165
155 144 165
155 143 165
155 143 165
155 143 165
155 142 165
155 142 165
154 141 165
154 141 165
154 140 165
154 140 165
154 140 165
153 139 165
153 139 165
153 138 165
153 138 165
153 138 165
152 137 165
152 137 165
152 136 165
152 136 165
152 135 165
151 135 165
151 135 165
151 134 165
151 134 165
151 133 165
151 133 165
150 133 165
150 132 165
150 132 165
150 131 165
150 131 165
149 131 165
149 130 165
149 130 165
149 129 165
149 129 165
148 128 165
148 128 165
148 128 165
148 127 165
148 127 165
147 126 165
147 126 165
147 126 165
147 125 165
147 125 165
147 124 165
146 124 165
146 123 165
146 123 165
146 123 165
146 122 165
145 122 165
145 121 165
145 121 165
145 121 165
145 120 165
144 120 165
144 119 165
144 119 165
144 118 165
144 118 165
144 118 165
143 117 165
143 117 165
143 116 165
143 116 165
143 116 165
142 115 165
142 115 165
142 114 165
142 114 165
142 114 165
141 113 165
141 113 165
141 112 165
141 112 165
141 111 165
140 111 165
140 111 165
140 110 165
140 110 165
140 109 165
140 109 165
139 109 165
139 108 165
139 108 165
139 107 165
139 107 165
138 106 165
138 106 165
138 106 165
138 105 165
138 105 165
137 104 165
137 104 165
137 104 165
137 103 165
137 103 165
137 102 165
136 102 165
136 102 165
136 101 165
136 101 165
136 100 165
135 100 165
135 99 165
135 99 165
135 99 165
135 98 165
134 98 165
134 97 165
134 97 165
134 97 165
134 96 165
133 96 165
133 95 165
133 95 165
133 94 165
133 94 165
133 94 165
132 93 165
132 93 165
132 92 165
132 92 165
132 92 165
131 91 165
131 91 165
131 90 165
131 90 165
131 89 165
130 89 165
130 89 165
130 88 165
130 88 165
130 87 165
129 87 165
129 87 165
129 86 165
129 86 165
129 85 165
129 85 165
128 85 165
128 84 165
128 84 165
128 83 165
128 83 165
127 82 165
127 82 165
127 82 165
127 81 165
127 81 165
126 80 165
126 80 165
126 80 165
126 79 165
126 79 165
126 78 165
125 78 165
125 77 165
125 77 165
125 77 165
125 76 165
124 76 165
124 75 165
124 75 165
124 75 165
124 74 165
123 74 165
123 73 165
123 73 165
123 73 165
123 72 165
122 72 165
122 71 165
122 71 165
122 70 165
122 70 165
122 70 165
121 69 165
121 69 165
121 68 165
121 68 165
121 68 165
120 67 165
120 67 165
120 66 165
120 66 165
120 65 165
119 65 165
119 65 165
119 64 165
119 64 165
119 63 165
118 63 165
118 63 165
118 62 165
118 62 165
118 61 165
118 61 165
117 60 165
117 60 165
117 60 165
117 59 165
117 59 165
116 58 165
116 58 165
116 58 165
116 57 165
116 57 165
115 56 165
115 56 165
115 56 165
115 55 165
115 55 165
115 54 165
114 54 165
114 53 165
114 53 165
114 53 165
114 52 165
113 52 165
113 51 165
113 51 165
113 51 165
113 50 165
112 50 165
112 49 165
112 49 165
112 48 165
112 48 165
111 48 165
111 47 165
111 47 165
111 46 165
111 46 165
111 46 165
110 45 165
110 45 165
110 44 165
110 44 165
110 44 165
109 43 165
109 43 165
109 42 165
109 42 165
109 41 165
108 41 165
108 41 165
108 40 165
108 40 165
108 39 165
108 39 165
107 39 165
107 38 165
107 38 165
107 37 165
107 37 165
106 36 165
106 36 165
106 36 165
106 35 165
106 35 165
105 34 165
105 34 165
105 34 165
105 33 165
105 33 165
104 32 165
104 32 165
104 31 165
104 31 165
104 31 165
104 30 165
103 30 165
103 29 165
103 29 165
103 29 165
103 28 165
102 28 165
102 27 165
102 27 165
102 27 165
102 26 165
101 26 165
101 25 165
101 25 165
101 24 165
101 24 165
100 24 165
100 23 165
100 23 165
100 22 165
100 22 165
100 22 165
99 21 165
99 21 165
99 20 165
99 20 165
99 19 165
98 19 165
98 19 165
98 18 165
98 18 165
98 17 165
97 17 165
97 17 165
97 16 165
97 16 165
97 15 165
97 15 165
96 15 165
96 14 165
96 14 165
96 13 165
96 13 165
95 12 165
95 12 165
95 12 165
95 11 165
95 11 165
94 10 165
94 10 165
94 10 165
94 9 165
94 9 165
93 8 165
93 8 165
93 7 165
93 7 165
93 7 165
93 6 165
92 6 165
92 5 165
92 5 165
92 5 165
92 4 165
91 4 165
91 3 165
91 3 165
91 2 165
91 2 165
90 2 165
90 1 165
90 1 165
90 0 165
90 0 165
164 164 164
164 164 164
164 163 164
163 163 164
163 162 164
163 162 164
163 162 164
163 161 164
163 161 164
162 160 164
162 160 164
162 159 164
162 159 164
162 159 164
161 158 164
161 158 164
161 157 164
161 157 164
161 157 164
161 156 164
160 156 164
160 155 164
160 155 164
160 155 164
160 154 164
159 154 164
159 153 164
159 153 164
159 153 164
159 152 164
159 152 164
158 151 164
158 151 164
158 150 164
158 150 164
158 150 164
157 149 164
157 149 164
157 148 164
157 148 164
157 148 164
157 147 164
156 147 164
156 146 164
156 146 164
156 146 164
156 145 164
155 145 164
155 144 164
155 144 164
155 143 164
155 143 164
155 143 164
154 142 164
154 142 164
154 141 164
154 141 164
154 141 164
153 140 164
153 140 164
153 139 164
153 139 164
153 139 164
152 138 164
152 138 164
152 137 164
152 137 164
152 136 164
152 136 164
151 136 164
151 135 164
151 135 164
151 134 164
151 134 164
150 134 164
150 133 164
150 133 164
150 132 164
150 132 164
150 132 164
149 131 164
149 131 164
149 130 164
149 130 164
149 129 164
148 129 164
148 129 164
148 128 164
148 128 164
148 127 164
148 127 164
147 127 164
147 126 164
147 126 164
147 125 164
147 125 164
146 125 164
146 124 164
146 124 164
146 123 164
146 123 164
146 123 164
145 122 164
145 122 164
145 121 164
145 121 164
145 120 164
144 120 164
144 120 164
144 119 164
144 119 164
144 118 164
144 118 164
143 118 164
143 117 164
143 117 164
143 116 164
143 116 164
142 116 164
142 115 164
142 115 164
142 114 164
142 114 164
142 113 164
141 113 164
141 113 164
141 112 164
141 112 164
141 111 164
140 111 164
140 111 164
140 110 164
140 110 164
140 109 164
139 109 164
139 109 164
139 108 164
139 108 164
139 107 164
139 107 164
138 106 164
138 106 164
138 106 164
138 105 164
138 105 164
137 104 164
137 104 164
137 104 164
137 103 164
137 103 164
137 102 164
136 102 164
136 102 164
136 101 164
136 101 164
136 100 164
135 100 164
135 99 164
135 99 164
135 99 164
135 98 164
135 98 164
134 97 164
134 97 164
134 97 164
134 96 164
134 96 164
133 95 164
133 95 164
133 95 164
133 94 164
133 94 164
133 93 164
132 93 164
132 92 164
132 92 164
132 92 164
132 91 164
131 91 164
131 90 164
131 90 164
131 90 164
131 89 164
131 89 164
130 88 164
130 88 164
130 88 164
130 87 164
130 87 164
129 86 164
129 86 164
129 86 164
129 85 164
129 85 164
129 84 164
128 84 164
128 83 164
128 83 164
128 83 164
128 82 164
127 82 164
127 81 164
127 81 164
127 81 164
127 80 164
126 80 164
126 79 164
126 79 164
126 79 164
126 78 164
126 78 164
125 77 164
125 77 164
125 76 164
125 76 164
125 76 164
124 75 164
124 75 164
124 74 164
124 74 164
124 74 164
124 73 164
123 73 164
123 72 164
123 72 164
123 72 164
123 71 164
122 71 164
122 70 164
122 70 164
122 69 164
122 69 164
122 69 164
121 68 164
121 68 164
121 67 164
121 67 164
121 67 164
120 66 164
120 66 164
120 65 164
120 65 164
120 65 164
120 64 164
119 64 164
119 63 164
119 63 164
119 62 164
119 62 164
118 62 164
118 61 164
118 61 164
118 60 164
118 60 164
118 60 164
117 59 164
117 59 164
117 58 164
117 58 164
117 58 164
116 57 164
116 57 164
116 56 164
116 56 164
116 55 164
116 55 164
115 55 164
115 54 164
115 54 164
115 53 164
115 53 164
114 53 164
114 52 164
114 52 164
114 51 164
114 51 164
113 51 164
113 50 164
113 50 164
113 49 164
113 49 164
113 49 164
112 48 164
112 48 164
112 47 164
112 47 164
112 46 164
111 46 164
111 46 164
111 45 164
111 45 164
111 44 164
111 44 164
110 44 164
110 43 164
110 43 164
110 42 164
110 42 164
109 42 164
109 41 164
109 41 164
109 40 164
109 40 164
109 39 164
108 39 164
108 39 164
108 38 164
108 38 164
108 37 164
107 37 164
107 37 164
107 36 164
107 36 164
107 35 164
107 35 164
106 35 164
106 34 164
106 34 164
106 33 164
106 33 164
105 32 164
105 32 164
105 32 164
105 31 164
105 31 164
105 30 164
104 30 164
104 30 164
104 29 164
104 29 164
104 28 164
103 28 164
103 28 164
103 27 164
103 27 164
103 26 164
103 26 164
102 25 164
102 25 164
102 25 164
102 24 164
102 24 164
101 23 164
101 23 164
101 23 164
101 22 164
101 22 164
100 21 164
100 21 164
100 21 164
100 20 164
100 20 164
100 19 164
99 19 164
99 18 164
99 18 164
99 18 164
99 17 164
98 17 164
98 16 164
98 16 164
98 16 164
98 15 164
98 15 164
97 14 164
97 14 164
97 14 164
97 13 164
97 13 164
96 12 164
96 12 164
96 12 164
96 11 164
96 11 164
96 10 164
95 10 164
95 9 164
95 9 164
95 9 164
95 8 164
94 8 164
94 7 164
94 7 164
94 7 164
94 6 164
94 6 164
93 5 164
93 5 164
93 5 164
93 4 164
93 4 164
92 3 164
92 3 164
92 2 164
92 2 164
92 2 164
92 1 164
91 1 164
91 0 164
91 0 164
163 163 163
163 162 163
162 162 163
162 162 163
162 161 163
162 161 163
162 160 163
162 160 163
161 159 163
161 159 163
161 159 163
161 158 163
161 158 163
160 157 163
160 157 163
160 157 163
160 156 163
160 156 163
160 155 163
159 155 163
159 155 163
159 154 163
159 154 163
159 153 163
158 153 163
158 153 163
158 152 163
158 152 163
158 151 163
158 151 163
157 151 163
157 150 163
157 150 163
157 149 163
157 149 163
157 148 163
156 148 163
156 148 163
156 147 163
156 147 163
156 146 163
155 146 163
155 146 163
155 145 163
155 145 163
155 144 163
155 144 163
154 144 163
154 143 163
154 143 163
154 142 163
154 142 163
154 142 163
153 141 163
153 141 163
153 140 163
153 140 163
153 139 163
152 139 163
152 139 163
152 138 163
152 138 163
152 137 163
152 137 163
151 137 163
151 136 163
151 136 163
151 135 163
151 135 163
151 135 163
150 134 163
150 134 163
150 133 163
150 133 163
150 133 163
149 132 163
149 132 163
149 131 163
149 131 163
149 131 163
149 130 163
148 130 163
148 129 163
148 129 163
148 128 163
148 128 163
148 128 163
147 127 163
147 127 163
147 126 163
147 126 163
147 126 163
146 125 163
146 125 163
146 124 163
146 124 163
146 124 163
146 123 163
145 123 163
145 122 163
145 122 163
145 122 163
145 121 163
145 121 163
144 120 163
144 120 163
144 120 163
144 119 163
144 119 163
143 118 163
143 118 163
143 117 163
143 117 163
143 117 163
143 116 163
142 116 163
142 115 163
142 115 163
142 115 163
142 114 163
142 114 163
141 113 163
141 113 163
141 113 163
141 112 163
141 112 163
140 111 163
140 111 163
140 111 163
140 110 163
140 110 163
140 109 163
139 109 163
139 108 163
139 108 163
139 108 163
139 107 163
139 107 163
138 106 163
138 106 163
138 106 163
138 105 163
138 105 163
137 104 163
137 104 163
137 104 163
137 103 163
137 103 163
137 102 163
136 102 163
136 102 163
136 101 163
136 101 163
136 100 163
136 100 163
135 100 163
135 99 163
135 99 163
135 98 163
135 98 163
134 97 163
134 97 163
134 97 163
134 96 163
134 96 163
134 95 163
133 95 163
133 95 163
133 94 163
133 94 163
133 93 163
133 93 163
132 93 163
132 92 163
132 92 163
132 91 163
132 91 163
131 91 163
131 90 163
131 90 163
131 89 163
131 89 163
131 89 163
130 88 163
130 88 163
130 87 163
130 87 163
130 86 163
130 86 163
129 86 163
129 85 163
129 85 163
129 84 163
129 84 163
128 84 163
128 83 163
128 83 163
128 82 163
128 82 163
128 82 163
127 81 163
127 81 163
127 80 163
127 80 163
127 80 163
127 79 163
126 79 163
126 78 163
126 78 163
126 77 163
126 77 163
125 77 163
125 76 163
125 76 163
125 75 163
125 75 163
125 75 163
124 74 163
124 74 163
124 73 163
124 73 163
124 73 163
124 72 163
123 72 163
123 71 163
123 71 163
123 71 163
123 70 163
122 70 163
122 69 163
122 69 163
122 69 163
122 68 163
122 68 163
121 67 163
121 67 163
121 66 163
121 66 163
121 66 163
121 65 163
120 65 163
120 64 163
120 64 163
120 64 163
120 63 163
119 63 163
119 62 163
119 62 163
119 62 163
119 61 163
119 61 163
118 60 163
118 60 163
118 60 163
118 59 163
118 59 163
118 58 163
117 58 163
117 58 163
117 57 163
117 57 163
117 56 163
116 56 163
116 55 163
116 55 163
116 55 163
116 54 163
116 54 163
115 53 163
115 53 163
115 53 163
115 52 163
115 52 163
115 51 163
114 51 163
114 51 163
114 50 163
114 50 163
114 49 163
113 49 163
113 49 163
113 48 163
113 48 163
113 47 163
113 47 163
112 46 163
112 46 163
112 46 163
112 45 163
112 45 163
112 44 163
111 44 163
111 44 163
111 43 163
111 43 163
111 42 163
110 42 163
110 42 163
110 41 163
110 41 163
110 40 163
110 40 163
109 40 163
109 39 163
109 39 163
109 38 163
109 38 163
109 38 163
108 37 163
108 37 163
108 36 163
108 36 163
108 35 163
107 35 163
107 35 163
107 34 163
107 34 163
107 33 163
107 33 163
106 33 163
106 32 163
106 32 163
106 31 163
106 31 163
106 31 163
105 30 163
105 30 163
105 29 163
105 29 163
105 29 163
104 28 163
104 28 163
104 27 163
104 27 163
104 27 163
104 26 163
103 26 163
103 25 163
103 25 163
103 24 163
103 24 163
103 24 163
102 23 163
102 23 163
102 22 163
102 22 163
102 22 163
101 21 163
101 21 163
101 20 163
101 20 163
101 20 163
101 19 163
100 19 163
100 18 163
100 18 163
100 18 163
100 17 163
100 17 163
99 16 163
99 16 163
99 15 163
99 15 163
99 15 163
98 14 163
98 14 163
98 13 163
98 13 163
98 13 163
98 12 163
97 12 163
97 11 163
97 11 163
97 11 163
97 10 163
97 10 163
96 9 163
96 9 163
96 9 163
96 8 163
96 8 163
95 7 163
95 7 163
95 7 163
95 6 163
95 6 163
95 5 163
94 5 163
94 4 163
94 4 163
94 4 163
94 3 163
93 3 163
93 2 163
93 2 163
93 2 163
93 1 163
93 1 163
92 0 163
92 0 163
161 161 161
161 161 161
161 161 161
161 160 161
161 160 161
161 159 161
160 159 161
160 159 161
160 158 161
160 158 161
160 157 161
160 157 161
159 157 161
159 156 161
159 156 161
159 155 161
159 155 161
159 155 161
158 154 161
158 154 161
158 153 161
158 153 161
158 153 161
158 152 161
157 152 161
157 151 161
157 151 161
157 151 161
157 150 161
157 150 161
156 149 161
156 149 161
156 149 161
156 148 161
156 148 161
155 147 161
155 147 161
155 146 161
155 146 161
155 146 161
155 145 161
154 145 161
154 144 161
154 144 161
154 144 161
154 143 161
154 143 161
153 142 161
153 142 161
153 142 161
153 141 161
153 141 161
153 140 161
152 140 161
152 140 161
152 139 161
152 139 161
152 138 161
152 138 161
151 138 161
151 137 161
151 137 161
151 136 161
151 136 161
151 136 161
150 135 161
150 135 161
150 134 161
150 134 161
150 134 161
150 133 161
149 133 161
149 132 161
149 132 161
149 132 161
149 131 161
149 131 161
148 130 161
148 130 161
148 129 161
148 129 161
148 129 161
147 128 161
147 128 161
147 127 161
147 127 161
147 127 161
147 126 161
146 126 161
146 125 161
146 125 161
146 125 161
146 124 161
146 124 161
145 123 161
145 123 161
145 123 161
145 122 161
145 122 161
145 121 161
144 121 161
144 121 161
144 120 161
144 120 161
144 119 161
144 119 161
143 119 161
143 118 161
143 118 161
143 117 161
143 117 161
143 117 161
142 116 161
142 116 161
142 115 161
142 115 161
142 115 161
142 114 161
141 114 161
141 113 161
141 113 161
141 112 161
141 112 161
141 112 161
140 111 161
140 111 161
140 110 161
140 110 161
140 110 161
139 109 161
139 109 161
139 108 161
139 108 161
139 108 161
139 107 161
138 107 161
138 106 161
138 106 161
138 106 161
138 105 161
138 105 161
137 104 161
137 104 161
137 104 161
137 103 161
137 103 161
137 102 161
136 102 161
136 102 161
136 101 161
136 101 161
136 100 161
136 100 161
135 100 161
135 99 161
135 99 161
135 98 161
135 98 161
135 98 161
134 97 161
134 97 161
134 96 161
134 96 161
134 95 161
134 95 161
133 95 161
133 94 161
133 94 161
133 93 161
133 93 161
133 93 161
132 92 161
132 92 161
132 91 161
132 91 161
132 91 161
131 90 161
131 90 161
131 89 161
131 89 161
131 89 161
131 88 161
130 88 161
130 87 161
130 87 161
130 87 161
130 86 161
130 86 161
129 85 161
129 85 161
129 85 161
129 84 161
129 84 161
129 83 161
128 83 161
128 83 161
128 82 161
128 82 161
128 81 161
128 81 161
127 81 161
127 80 161
127 80 161
127 79 161
127 79 161
127 79 161
126 78 161
126 78 161
126 77 161
126 77 161
126 76 161
126 76 161
125 76 161
125 75 161
125 75 161
125 74 161
125 74 161
125 74 161
124 73 161
124 73 161
124 72 161
124 72 161
124 72 161
124 71 161
123 71 161
123 70 161
123 70 161
123 70 161
123 69 161
122 69 161
122 68 161
122 68 161
122 68 161
122 67 161
122 67 161
121 66 161
121 66 161
121 66 161
121 65 161
121 65 161
121 64 161
120 64 161
120 64 161
120 63 161
120 63 161
120 62 161
120 62 161
119 62 161
119 61 161
119 61 161
119 60 161
119 60 161
119 59 161
118 59 161
118 59 161
118 58 161
118 58 161
118 57 161
118 57 161
117 57 161
117 56 161
117 56 161
117 55 161
117 55 161
117 55 161
116 54 161
116 54 161
116 53 161
116 53 161
116 53 161
116 52 161
115 52 161
115 51 161
115 51 161
115 51 161
115 50 161
114 50 161
114 49 161
114 49 161
114 49 161
114 48 161
114 48 161
113 47 161
113 47 161
113 47 161
113 46 161
113 46 161
113 45 161
112 45 161
112 45 161
112 44 161
112 44 161
112 43 161
112 43 161
111 42 161
111 42 161
111 42 161
111 41 161
111 41 161
111 40 161
110 40 161
110 40 161
110 39 161
110 39 161
110 38 161
110 38 161
109 38 161
109 37 161
109 37 161
109 36 161
109 36 161
109 36 161
108 35 161
108 35 161
108 34 161
108 34 161
108 34 161
108 33 161
107 33 161
107 32 161
107 32 161
107 32 161
107 31 161
106 31 161
106 30 161
106 30 161
106 30 161
106 29 161
106 29 161
105 28 161
105 28 161
105 28 161
105 27 161
105 27 161
105 26 161
104 26 161
104 25 161
104 25 161
104 25 161
104 24 161
104 24 161
103 23 161
103 23 161
103 23 161
103 22 161
103 22 161
103 21 161
102 21 161
102 21 161
102 20 161
102 20 161
102 19 161
102 19 161
101 19 161
101 18 161
101 18 161
101 17 161
101 17 161
101 17 161
100 16 161
100 16 161
100 15 161
100 15 161
100 15 161
100 14 161
99 14 161
99 13 161
99 13 161
99 13 161
99 12 161
98 12 161
98 11 161
98 11 161
98 11 161
98 10 161
98 10 161
97 9 161
97 9 161
97 8 161
97 8 161
97 8 161
97 7 161
96 7 161
96 6 161
96 6 161
96 6 161
96 5 161
96 5 161
95 4 161
95 4 161
95 4 161
95 3 161
95 3 161
95 2 161
94 2 161
94 2 161
94 1 161
94 1 161
94 0 161
94 0 161
160 160 160
160 160 160
160 159 160
160 159 160
160 159 160
159 158 160
159 158 160
159 157 160
159 157 160
159 157 160
159 156 160
158 156 160
158 155 160
158 155 160
158 155 160
158 154 160
158 154 160
157 153 160
157 153 160
157 153 160
157 152 160
157 152 160
157 151 160
156 151 160
156 151 160
156 150 160
156 150 160
156 149 160
156 149 160
155 149 160
155 148 160
155 148 160
155 147 160
155 147 160
155 147 160
154 146 160
154 146 160
154 145 160
154 145 160
154 145 160
154 144 160
153 144 160
153 143 160
153 143 160
153 143 160
153 142 160
153 142 160
152 141 160
152 141 160
152 141 160
152 140 160
152 140 160
152 139 160
151 139 160
151 138 160
151 138 160
151 138 160
151 137 160
151 137 160
151 136 160
150 136 160
150 136 160
150 135 160
150 135 160
150 134 160
150 134 160
149 134 160
149 133 160
149 133 160
149 132 160
149 132 160
149 132 160
148 131 160
148 131 160
148 130 160
148 130 160
148 130 160
148 129 160
147 129 160
147 128 160
147 128 160
147 128 160
147 127 160
147 127 160
146 126 160
146 126 160
146 126 160
146 125 160
146 125 160
146 124 160
145 124 160
145 124 160
145 123 160
145 123 160
145 122 160
145 122 160
144 122 160
144 121 160
144 121 160
144 120 160
144 120 160
144 120 160
143 119 160
143 119 160
143 118 160
143 118 160
143 118 160
143 117 160
142 117 160
142 116 160
142 116 160
142 116 160
142 115 160
142 115 160
142 114 160
141 114 160
141 114 160
141 113 160
141 113 160
141 112 160
141 112 160
140 112 160
140 111 160
140 111 160
140 110 160
140 110 160
140 110 160
139 109 160
139 109 160
139 108 160
139 108 160
139 108 160
139 107 160
138 107 160
138 106 160
138 106 160
138 106 160
138 105 160
138 105 160
137 104 160
137 104 160
137 104 160
137 103 160
137 103 160
137 102 160
136 102 160
136 102 160
136 101 160
136 101 160
136 100 160
136 100 160
135 100 160
135 99 160
135 99 160
135 98 160
135 98 160
135 98 160
134 97 160
134 97 160
134 96 160
134 96 160
134 96 160
134 95 160
133 95 160
133 94 160
133 94 160
133 94 160
133 93 160
133 93 160
132 92 160
132 92 160
132 92 160
132 91 160
132 91 160
132 90 160
132 90 160
131 90 160
131 89 160
131 89 160
131 88 160
131 88 160
131 88 160
130 87 160
130 87 160
130 86 160
130 86 160
130 86 160
130 85 160
129 85 160
129 84 160
129 84 160
129 84 160
129 83 160
129 83 160
128 82 160
128 82 160
128 81 160
128 81 160
128 81 160
128 80 160
127 80 160
127 79 160
127 79 160
127 79 160
127 78 160
127 78 160
126 77 160
126 77 160
126 77 160
126 76 160
126 76 160
126 75 160
125 75 160
125 75 160
125 74 160
125 74 160
125 73 160
125 73 160
124 73 160
124 72 160
124 72 160
124 71 160
124 71 160
124 71 160
123 70 160
123 70 160
123 69 160
123 69 160
123 69 160
123 68 160
123 68 160
122 67 160
122 67 160
122 67 160
122 66 160
122 66 160
122 65 160
121 65 160
121 65 160
121 64 160
121 64 160
121 63 160
121 63 160
120 63 160
120 62 160
120 62 160
120 61 160
120 61 160
120 61 160
119 60 160
119 60 160
119 59 160
119 59 160
119 59 160
119 58 160
118 58 160
118 57 160
118 57 160
118 57 160
118 56 160
118 56 160
117 55 160
117 55 160
117 55 160
117 54 160
117 54 160
117 53 160
116 53 160
116 53 160
116 52 160
116 52 160
116 51 160
116 51 160
115 51 160
115 50 160
115 50 160
115 49 160
115 49 160
115 49 160
114 48 160
114 48 160
114 47 160
114 47 160
114 47 160
114 46 160
113 46 160
113 45 160
113 45 160
113 45 160
113 44 160
113 44 160
113 43 160
112 43 160
112 43 160
112 42 160
112 42 160
112 41 160
112 41 160
111 41 160
111 40 160
111 40 160
111 39 160
111 39 160
111 39 160
110 38 160
110 38 160
110 37 160
110 37 160
110 37 160
110 36 160
109 36 160
109 35 160
109 35 160
109 35 160
109 34 160
109 34 160
108 33 160
108 33 160
108 33 160
108 32 160
108 32 160
108 31 160
107 31 160
107 31 160
107 30 160
107 30 160
107 29 160
107 29 160
106 29 160
106 28 160
106 28 160
106 27 160
106 27 160
106 26 160
105 26 160
105 26 160
105 25 160
105 25 160
105 24 160
105 24 160
104 24 160
104 23 160
104 23 160
104 22 160
104 22 160
104 22 160
104 21 160
103 21 160
103 20 160
103 20 160
103 20 160
103 19 160
103 19 160
102 18 160
102 18 160
102 18 160
102 17 160
102 17 160
102 16 160
101 16 160
101 16 160
101 15 160
101 15 160
101 14 160
101 14 160
100 14 160
100 13 160
100 13 160
100 12 160
100 12 160
100 12 160
99 11 160
99 11 160
99 10 160
99 10 160
99 10 160
99 9 160
98 9 160
98 8 160
98 8 160
98 8 160
98 7 160
98 7 160
97 6 160
97 6 160
97 6 160
97 5 160
97 5 160
97 4 160
96 4 160
96 4 160
96 3 160
96 3 160
96 2 160
96 2 160
95 2 160
95 1 160
95 1 160
95 0 160
95 0 160
159 159 159
159 158 159
159 158 159
158 158 159
158 157 159
158 157 159
158 157 159
158 156 159
158 156 159
157 155 159
157 155 159
157 155 159
157 154 159
157 154 159
157 153 159
157 153 159
156 153 159
156 152 159
156 152 159
156 151 159
156 151 159
156 151 159
155 150 159
155 150 159
155 149 159
155 149 159
155 149 159
155 148 159
154 148 159
154 147 159
154 147 159
154 147 159
154 146 159
154 146 159
154 145 159
153 145 159
153 145 159
153 144 159
153 144 159
153 143 159
153 143 159
152 143 159
152 142 159
152 142 159
152 141 159
152 141 159
152 141 159
151 140 159
151 140 159
151 139 159
151 139 159
151 139 159
151 138 159
151 138 159
150 137 159
150 137 159
150 137 159
150 136 159
150 136 159
150 135 159
149 135 159
149 135 159
149 134 159
149 134 159
149 133 159
149 133 159
149 133 159
148 132 159
148 132 159
148 131 159
148 131 159
148 131 159
148 130 159
147 130 159
147 129 159
147 129 159
147 129 159
147 128 159
147 128 159
146 127 159
146 127 159
146 127 159
146 126 159
146 126 159
146 125 159
146 125 159
145 125 159
145 124 159
145 124 159
145 123 159
145 123 159
145 123 159
144 122 159
144 122 159
144 121 159
144 121 159
144 121 159
144 120 159
143 120 159
143 119 159
143 119 159
143 119 159
143 118 159
143 118 159
143 117 159
142 117 159
142 117 159
142 116 159
142 116 159
142 115 159
142 115 159
141 115 159
141 114 159
141 114 159
141 113 159
141 113 159
141 113 159
140 112 159
140 112 159
140 112 159
140 111 159
140 111 159
140 110 159
140 110 159
139 110 159
139 109 159
139 109 159
139 108 159
139 108 159
139 108 159
138 107 159
138 107 159
138 106 159
138 106 159
138 106 159
138 105 159
137 105 159
137 104 159
137 104 159
137 104 159
137 103 159
137 103 159
137 102 159
136 102 159
136 102 159
136 101 159
136 101 159
136 100 159
136 100 159
135 100 159
135 99 159
135 99 159
135 98 159
135 98 159
135 98 159
135 97 159
134 97 159
134 96 159
134 96 159
134 96 159
134 95 159
134 95 159
133 94 159
133 94 159
133 94 159
133 93 159
133 93 159
133 92 159
132 92 159
132 92 159
132 91 159
132 91 159
132 90 159
132 90 159
132 90 159
131 89 159
131 89 159
131 88 159
131 88 159
131 88 159
131 87 159
130 87 159
130 86 159
130 86 159
130 86 159
130 85 159
130 85 159
129 84 159
129 84 159
129 84 159
129 83 159
129 83 159
129 82 159
129 82 159
128 82 159
128 81 159
128 81 159
128 80 159
128 80 159
128 80 159
127 79 159
127 79 159
127 78 159
127 78 159
127 78 159
127 77 159
126 77 159
126 76 159
126 76 159
126 76 159
126 75 159
126 75 159
126 74 159
125 74 159
125 74 159
125 73 159
125 73 159
125 72 159
125 72 159
124 72 159
124 71 159
124 71 159
124 70 159
124 70 159
124 70 159
123 69 159
123 69 159
123 68 159
123 68 159
123 68 159
123 67 159
123 67 159
122 67 159
122 66 159
122 66 159
122 65 159
122 65 159
122 65 159
121 64 159
121 64 159
121 63 159
121 63 159
121 63 159
121 62 159
120 62 159
120 61 159
120 61 159
120 61 159
120 60 159
120 60 159
120 59 159
119 59 159
119 59 159
119 58 159
119 58 159
119 57 159
119 57 159
118 57 159
118 56 159
118 56 159
118 55 159
118 55 159
118 55 159
118 54 159
117 54 159
117 53 159
117 53 159
117 53 159
117 52 159
117 52 159
116 51 159
116 51 159
116 51 159
116 50 159
116 50 159
116 49 159
115 49 159
115 49 159
115 48 159
115 48 159
115 47 159
115 47 159
115 47 159
114 46 159
114 46 159
114 45 159
114 45 159
114 45 159
114 44 159
113 44 159
113 43 159
113 43 159
113 43 159
113 42 159
113 42 159
112 41 159
112 41 159
112 41 159
112 40 159
112 40 159
112 39 159
112 39 159
111 39 159
111 38 159
111 38 159
111 37 159
111 37 159
111 37 159
110 36 159
110 36 159
110 35 159
110 35 159
110 35 159
110 34 159
109 34 159
109 33 159
109 33 159
109 33 159
109 32 159
109 32 159
109 31 159
108 31 159
108 31 159
108 30 159
108 30 159
108 29 159
108 29 159
107 29 159
107 28 159
107 28 159
107 27 159
107 27 159
107 27 159
106 26 159
106 26 159
106 25 159
106 25 159
106 25 159
106 24 159
106 24 159
105 23 159
105 23 159
105 23 159
105 22 159
105 22 159
105 22 159
104 21 159
104 21 159
104 20 159
104 20 159
104 20 159
104 19 159
104 19 159
103 18 159
103 18 159
103 18 159
103 17 159
103 17 159
103 16 159
102 16 159
102 16 159
102 15 159
102 15 159
102 14 159
102 14 159
101 14 159
101 13 159
101 13 159
101 12 159
101 12 159
101 12 159
101 11 159
100 11 159
100 10 159
100 10 159
100 10 159
100 9 159
100 9 159
99 8 159
99 8 159
99 8 159
99 7 159
99 7 159
99 6 159
98 6 159
98 6 159
98 5 159
98 5 159
98 4 159
98 4 159
98 4 159
97 3 159
97 3 159
97 2 159
97 2 159
97 2 159
97 1 159
96 1 159
96 0 159
96 0 159
158 158 158
157 157 158
157 157 158
157 156 158
157 156 158
157 156 158
157 155 158
157 155 158
156 154 158
156 154 158
156 154 158
156 153 158
156 153 158
156 152 158
155 152 158
155 152 158
155 151 158
155 151 158
155 151 158
155 150 158
155 150 158
154 149 158
154 149 158
154 149 158
154 148 158
154 148 158
154 147 158
154 147 158
153 147 158
153 146 158
153 146 158
153 145 158
153 145 158
153 145 158
152 144 158
152 144 158
152 143 158
152 143 158
152 143 158
152 142 158
152 142 158
151 141 158
151 141 158
151 141 158
151 140 158
151 140 158
151 139 158
151 139 158
150 139 158
150 138 158
150 138 158
150 137 158
150 137 158
150 137 158
149 136 158
149 136 158
149 135 158
149 135 158
149 135 158
149 134 158
149 134 158
148 134 158
148 133 158
148 133 158
148 132 158
148 132 158
148 132 158
147 131 158
147 131 158
147 130 158
147 130 158
147 130 158
147 129 158
147 129 158
146 128 158
146 128 158
146 128 158
146 127 158
146 127 158
146 126 158
146 126 158
145 126 158
145 125 158
145 125 158
145 124 158
145 124 158
145 124 158
144 123 158
144 123 158
144 122 158
144 122 158
144 122 158
144 121 158
144 121 158
143 120 158
143 120 158
143 120 158
143 119 158
143 119 158
143 119 158
143 118 158
142 118 158
142 117 158
142 117 158
142 117 158
142 116 158
142 116 158
141 115 158
141 115 158
141 115 158
141 114 158
141 114 158
141 113 158
141 113 158
140 113 158
140 112 158
140 112 158
140 111 158
140 111 158
140 111 158
139 110 158
139 110 158
139 109 158
139 109 158
139 109 158
139 108 158
139 108 158
138 107 158
138 107 158
138 107 158
138 106 158
138 106 158
138 105 158
138 105 158
137 105 158
137 104 158
137 104 158
137 103 158
137 103 158
137 103 158
136 102 158
136 102 158
136 102 158
136 101 158
136 101 158
136 100 158
136 100 158
135 100 158
135 99 158
135 99 158
135 98 158
135 98 158
135 98 158
135 97 158
134 97 158
134 96 158
134 96 158
134 96 158
134 95 158
134 95 158
133 94 158
133 94 158
133 94 158
133 93 158
133 93 158
133 92 158
133 92 158
132 92 158
132 91 158
132 91 158
132 90 158
132 90 158
132 90 158
131 89 158
131 89 158
131 88 158
131 88 158
131 88 158
131 87 158
131 87 158
130 87 158
130 86 158
130 86 158
130 85 158
130 85 158
130 85 158
130 84 158
129 84 158
129 83 158
129 83 158
129 83 158
129 82 158
129 82 158
128 81 158
128 81 158
128 81 158
128 80 158
128 80 158
128 79 158
128 79 158
127 79 158
127 78 158
127 78 158
127 77 158
127 77 158
127 77 158
127 76 158
126 76 158
126 75 158
126 75 158
126 75 158
126 74 158
126 74 158
125 73 158
125 73 158
125 73 158
125 72 158
125 72 158
125 71 158
125 71 158
124 71 158
124 70 158
124 70 158
124 70 158
124 69 158
124 69 158
124 68 158
123 68 158
123 68 158
123 67 158
123 67 158
123 66 158
123 66 158
122 66 158
122 65 158
122 65 158
122 64 158
122 64 158
122 64 158
122 63 158
121 63 158
121 62 158
121 62 158
121 62 158
121 61 158
121 61 158
120 60 158
120 60 158
120 60 158
120 59 158
120 59 158
120 58 158
120 58 158
119 58 158
119 57 158
119 57 158
119 56 158
119 56 158
119 56 158
119 55 158
118 55 158
118 55 158
118 54 158
118 54 158
118 53 158
118 53 158
117 53 158
117 52 158
117 52 158
117 51 158
117 51 158
117 51 158
117 50 158
116 50 158
116 49 158
116 49 158
116 49 158
116 48 158
116 48 158
116 47 158
115 47 158
115 47 158
115 46 158
115 46 158
115 45 158
115 45 158
114 45 158
114 44 158
114 44 158
114 43 158
114 43 158
114 43 158
114 42 158
113 42 158
113 41 158
113 41 158
113 41 158
113 40 158
113 40 158
112 40 158
112 39 158
112 39 158
112 38 158
112 38 158
112 38 158
112 37 158
111 37 158
111 36 158
111 36 158
111 36 158
111 35 158
111 35 158
111 34 158
110 34 158
110 34 158
110 33 158
110 33 158
110 32 158
110 32 158
109 32 158
109 31 158
109 31 158
109 30 158
109 30 158
109 30 158
109 29 158
108 29 158
108 28 158
108 28 158
108 28 158
108 27 158
108 27 158
108 26 158
107 26 158
107 26 158
107 25 158
107 25 158
107 24 158
107 24 158
106 24 158
106 23 158
106 23 158
106 23 158
106 22 158
106 22 158
106 21 158
105 21 158
105 21 158
105 20 158
105 20 158
105 19 158
105 19 158
104 19 158
104 18 158
104 18 158
104 17 158
104 17 158
104 17 158
104 16 158
103 16 158
103 15 158
103 15 158
103 15 158
103 14 158
103 14 158
103 13 158
102 13 158
102 13 158
102 12 158
102 12 158
102 11 158
102 11 158
101 11 158
101 10 158
101 10 158
101 9 158
101 9 158
101 9 158
101 8 158
100 8 158
100 8 158
100 7 158
100 7 158
100 6 158
100 6 158
100 6 158
99 5 158
99 5 158
99 4 158
99 4 158
99 4 158
99 3 158
98 3 158
98 2 158
98 2 158
98 2 158
98 1 158
98 1 158
98 0 158
97 0 158
156 156 156
156 156 156
156 156 156
156 155 156
156 155 156
156 154 156
155 154 156
155 154 156
155 153 156
155 153 156
155 152 156
155 152 156
155 152 156
154 151 156
154 151 156
154 150 156
154 150 156
154 150 156
154 149 156
154 149 156
153 148 156
153 148 156
153 148 156
153 147 156
153 147 156
153 147 156
153 146 156
152 146 156
152 145 156
152 145 156
152 145 156
152 144 156
152 144 156
152 143 156
151 143 156
151 143 156
151 142 156
151 142 156
151 141 156
151 141 156
151 141 156
150 140 156
150 140 156
150 139 156
150 139 156
150 139 156
150 138 156
150 138 156
149 138 156
149 137 156
149 137 156
149 136 156
149 136 156
149 136 156
149 135 156
148 135 156
148 134 156
148 134 156
148 134 156
148 133 156
148 133 156
148 132 156
147 132 156
147 132 156
147 131 156
147 131 156
147 130 156
147 130 156
147 130 156
146 129 156
146 129 156
146 129 156
146 128 156
146 128 156
146 127 156
145 127 156
145 127 156
145 126 156
145 126 156
145 125 156
145 125 156
145 125 156
144 124 156
144 124 156
144 123 156
144 123 156
144 123 156
144 122 156
144 122 156
143 121 156
143 121 156
143 121 156
143 120 156
143 120 156
143 120 156
143 119 156
142 119 156
142 118 156
142 118 156
142 118 156
142 117 156
142 117 156
142 116 156
141 116 156
141 116 156
141 115 156
141 115 156
141 114 156
141 114 156
141 114 156
140 113 156
140 113 156
140 112 156
140 112 156
140 112 156
140 111 156
140 111 156
139 110 156
139 110 156
139 110 156
139 109 156
139 109 156
139 109 156
139 108 156
138 108 156
138 107 156
138 107 156
138 107 156
138 106 156
138 106 156
138 105 156
137 105 156
137 105 156
137 104 156
137 104 156
137 103 156
137 103 156
137 103 156
136 102 156
136 102 156
136 101 156
136 101 156
136 101 156
136 100 156
136 100 156
135 100 156
135 99 156
135 99 156
135 98 156
135 98 156
135 98 156
135 97 156
134 97 156
134 96 156
134 96 156
134 96 156
134 95 156
134 95 156
133 94 156
133 94 156
133 94 156
133 93 156
133 93 156
133 92 156
133 92 156
132 92 156
132 91 156
132 91 156
132 91 156
132 90 156
132 90 156
132 89 156
131 89 156
131 89 156
131 88 156
131 88 156
131 87 156
131 87 156
131 87 156
130 86 156
130 86 156
130 85 156
130 85 156
130 85 156
130 84 156
130 84 156
129 83 156
129 83 156
129 83 156
129 82 156
129 82 156
129 81 156
129 81 156
128 81 156
128 80 156
128 80 156
128 80 156
128 79 156
128 79 156
128 78 156
127 78 156
127 78 156
127 77 156
127 77 156
127 76 156
127 76 156
127 76 156
126 75 156
126 75 156
126 74 156
126 74 156
126 74 156
126 73 156
126 73 156
125 72 156
125 72 156
125 72 156
125 71 156
125 71 156
125 71 156
125 70 156
124 70 156
124 69 156
124 69 156
124 69 156
124 68 156
124 68 156
124 67 156
123 67 156
123 67 156
123 66 156
123 66 156
123 65 156
123 65 156
123 65 156
122 64 156
122 64 156
122 63 156
122 63 156
122 63 156
122 62 156
122 62 156
121 62 156
121 61 156
121 61 156
121 60 156
121 60 156
121 60 156
120 59 156
120 59 156
120 58 156
120 58 156
120 58 156
120 57 156
120 57 156
119 56 156
119 56 156
119 56 156
119 55 156
119 55 156
119 54 156
119 54 156
118 54 156
118 53 156
118 53 156
118 53 156
118 52 156
118 52 156
118 51 156
117 51 156
117 51 156
117 50 156
117 50 156
117 49 156
117 49 156
117 49 156
116 48 156
116 48 156
116 47 156
116 47 156
116 47 156
116 46 156
116 46 156
115 45 156
115 45 156
115 45 156
115 44 156
115 44 156
115 43 156
115 43 156
114 43 156
114 42 156
114 42 156
114 42 156
114 41 156
114 41 156
114 40 156
113 40 156
113 40 156
113 39 156
113 39 156
113 38 156
113 38 156
113 38 156
112 37 156
112 37 156
112 36 156
112 36 156
112 36 156
112 35 156
112 35 156
111 34 156
111 34 156
111 34 156
111 33 156
111 33 156
111 33 156
111 32 156
110 32 156
110 31 156
110 31 156
110 31 156
110 30 156
110 30 156
110 29 156
109 29 156
109 29 156
109 28 156
109 28 156
109 27 156
109 27 156
108 27 156
108 26 156
108 26 156
108 25 156
108 25 156
108 25 156
108 24 156
107 24 156
107 24 156
107 23 156
107 23 156
107 22 156
107 22 156
107 22 156
106 21 156
106 21 156
106 20 156
106 20 156
106 20 156
106 19 156
106 19 156
105 18 156
105 18 156
105 18 156
105 17 156
105 17 156
105 16 156
105 16 156
104 16 156
104 15 156
104 15 156
104 14 156
104 14 156
104 14 156
104 13 156
103 13 156
103 13 156
103 12 156
103 12 156
103 11 156
103 11 156
103 11 156
102 10 156
102 10 156
102 9 156
102 9 156
102 9 156
102 8 156
102 8 156
101 7 156
101 7 156
101 7 156
101 6 156
101 6 156
101 5 156
101 5 156
100 5 156
100 4 156
100 4 156
100 4 156
100 3 156
100 3 156
100 2 156
99 2 156
99 2 156
99 1 156
99 1 156
99 0 156
99 0 156
155 155 155
155 155 155
155 154 155
155 154 155
154 153 155
154 153 155
154 153 155
154 152 155
154 152 155
154 152 155
154 151 155
154 151 155
153 150 155
153 150 155
153 150 155
153 149 155
153 149 155
153 148 155
153 148 155
152 148 155
152 147 155
152 147 155
152 147 155
152 146 155
152 146 155
152 145 155
151 145 155
151 145 155
151 144 155
151 144 155
151 143 155
151 143 155
151 143 155
150 142 155
150 142 155
150 141 155
150 141 155
150 141 155
150 140 155
150 140 155
150 140 155
149 139 155
149 139 155
149 138 155
149 138 155
149 138 155
149 137 155
149 137 155
148 136 155
148 136 155
148 136 155
148 135 155
148 135 155
148 134 155
148 134 155
147 134 155
147 133 155
147 133 155
147 133 155
147 132 155
147 132 155
147 131 155
146 131 155
146 131 155
146 130 155
146 130 155
146 129 155
146 129 155
146 129 155
146 128 155
145 128 155
145 127 155
145 127 155
145 127 155
145 126 155
145 126 155
145 126 155
144 125 155
144 125 155
144 124 155
144 124 155
144 124 155
144 123 155
144 123 155
143 122 155
143 122 155
143 122 155
143 121 155
143 121 155
143 120 155
143 120 155
142 120 155
142 119 155
142 119 155
142 119 155
142 118 155
142 118 155
142 117 155
142 117 155
141 117 155
141 116 155
141 116 155
141 115 155
141 115 155
141 115 155
141 114 155
140 114 155
140 113 155
140 113 155
140 113 155
140 112 155
140 112 155
140 112 155
139 111 155
139 111 155
139 110 155
139 110 155
139 110 155
139 109 155
139 109 155
138 108 155
138 108 155
138 108 155
138 107 155
138 107 155
138 106 155
138 106 155
138 106 155
137 105 155
137 105 155
137 105 155
137 104 155
137 104 155
137 103 155
137 103 155
136 103 155
136 102 155
136 102 155
136 101 155
136 101 155
136 101 155
136 100 155
135 100 155
135 99 155
135 99 155
135 99 155
135 98 155
135 98 155
135 98 155
134 97 155
134 97 155
134 96 155
134 96 155
134 96 155
134 95 155
134 95 155
134 94 155
133 94 155
133 94 155
133 93 155
133 93 155
133 92 155
133 92 155
133 92 155
132 91 155
132 91 155
132 91 155
132 90 155
132 90 155
132 89 155
132 89 155
131 89 155
131 88 155
131 88 155
131 87 155
131 87 155
131 87 155
131 86 155
130 86 155
130 85 155
130 85 155
130 85 155
130 84 155
130 84 155
130 84 155
130 83 155
129 83 155
129 82 155
129 82 155
129 82 155
129 81 155
129 81 155
129 80 155
128 80 155
128 80 155
128 79 155
128 79 155
128 78 155
128 78 155
128 78 155
127 77 155
127 77 155
127 77 155
127 76 155
127 76 155
127 75 155
127 75 155
126 75 155
126 74 155
126 74 155
126 73 155
126 73 155
126 73 155
126 72 155
125 72 155
125 72 155
125 71 155
125 71 155
125 70 155
125 70 155
125 70 155
125 69 155
124 69 155
124 68 155
124 68 155
124 68 155
124 67 155
124 67 155
124 66 155
123 66 155
123 66 155
123 65 155
123 65 155
123 65 155
123 64 155
123 64 155
122 63 155
122 63 155
122 63 155
122 62 155
122 62 155
122 61 155
122 61 155
121 61 155
121 60 155
121 60 155
121 59 155
121 59 155
121 59 155
121 58 155
121 58 155
120 58 155
120 57 155
120 57 155
120 56 155
120 56 155
120 56 155
120 55 155
119 55 155
119 54 155
119 54 155
119 54 155
119 53 155
119 53 155
119 52 155
118 52 155
118 52 155
118 51 155
118 51 155
118 51 155
118 50 155
118 50 155
117 49 155
117 49 155
117 49 155
117 48 155
117 48 155
117 47 155
117 47 155
117 47 155
116 46 155
116 46 155
116 45 155
116 45 155
116 45 155
116 44 155
116 44 155
115 44 155
115 43 155
115 43 155
115 42 155
115 42 155
115 42 155
115 41 155
114 41 155
114 40 155
114 40 155
114 40 155
114 39 155
114 39 155
114 38 155
113 38 155
113 38 155
113 37 155
113 37 155
113 37 155
113 36 155
113 36 155
113 35 155
112 35 155
112 35 155
112 34 155
112 34 155
112 33 155
112 33 155
112 33 155
111 32 155
111 32 155
111 31 155
111 31 155
111 31 155
111 30 155
111 30 155
110 30 155
110 29 155
110 29 155
110 28 155
110 28 155
110 28 155
110 27 155
109 27 155
109 26 155
109 26 155
109 26 155
109 25 155
109 25 155
109 24 155
109 24 155
108 24 155
108 23 155
108 23 155
108 23 155
108 22 155
108 22 155
108 21 155
107 21 155
107 21 155
107 20 155
107 20 155
107 19 155
107 19 155
107 19 155
106 18 155
106 18 155
106 17 155
106 17 155
106 17 155
106 16 155
106 16 155
105 16 155
105 15 155
105 15 155
105 14 155
105 14 155
105 14 155
105 13 155
105 13 155
104 12 155
104 12 155
104 12 155
104 11 155
104 11 155
104 10 155
104 10 155
103 10 155
103 9 155
103 9 155
103 9 155
103 8 155
103 8 155
103 7 155
102 7 155
102 7 155
102 6 155
102 6 155
102 5 155
102 5 155
102 5 155
101 4 155
101 4 155
101 3 155
101 3 155
101 3 155
101 2 155
101 2 155
101 2 155
100 1 155
100 1 155
100 0 155
100 0 155
154 154 154
154 153 154
154 153 154
153 153 154
153 152 154
153 152 154
153 151 154
153 151 154
153 151 154
153 150 154
152 150 154
152 150 154
152 149 154
152 149 154
152 148 154
152 148 154
152 148 154
152 147 154
151 147 154
151 146 154
151 146 154
151 146 154
151 145 154
151 145 154
151 145 154
150 144 154
150 144 154
150 143 154
150 143 154
150 143 154
150 142 154
150 142 154
150 141 154
149 141 154
149 141 154
149 140 154
149 140 154
149 140 154
149 139 154
149 139 154
149 138 154
148 138 154
148 138 154
148 137 154
148 137 154
148 136 154
148 136 154
148 136 154
147 135 154
147 135 154
147 134 154
147 134 154
147 134 154
147 133 154
147 133 154
147 133 154
146 132 154
146 132 154
146 131 154
146 131 154
146 131 154
146 130 154
146 130 154
145 129 154
145 129 154
145 129 154
145 128 154
145 128 154
145 128 154
145 127 154
145 127 154
144 126 154
144 126 154
144 126 154
144 125 154
144 125 154
144 124 154
144 124 154
143 124 154
143 123 154
143 123 154
143 123 154
143 122 154
143 122 154
143 121 154
143 121 154
142 121 154
142 120 154
142 120 154
142 119 154
142 119 154
142 119 154
142 118 154
142 118 154
141 118 154
141 117 154
141 117 154
141 116 154
141 116 154
141 116 154
141 115 154
140 115 154
140 114 154
140 114 154
140 114 154
140 113 154
140 113 154
140 113 154
140 112 154
139 112 154
139 111 154
139 111 154
139 111 154
139 110 154
139 110 154
139 109 154
138 109 154
138 109 154
138 108 154
138 108 154
138 108 154
138 107 154
138 107 154
138 106 154
137 106 154
137 106 154
137 105 154
137 105 154
137 104 154
137 104 154
137 104 154
137 103 154
136 103 154
136 103 154
136 102 154
136 102 154
136 101 154
136 101 154
136 101 154
135 100 154
135 100 154
135 99 154
135 99 154
135 99 154
135 98 154
135 98 154
135 98 154
134 97 154
134 97 154
134 96 154
134 96 154
134 96 154
134 95 154
134 95 154
133 94 154
133 94 154
133 94 154
133 93 154
133 93 154
133 92 154
133 92 154
133 92 154
132 91 154
132 91 154
132 91 154
132 90 154
132 90 154
132 89 154
132 89 154
132 89 154
131 88 154
131 88 154
131 87 154
131 87 154
131 87 154
131 86 154
131 86 154
130 86 154
130 85 154
130 85 154
130 84 154
130 84 154
130 84 154
130 83 154
130 83 154
129 82 154
129 82 154
129 82 154
129 81 154
129 81 154
129 81 154
129 80 154
128 80 154
128 79 154
128 79 154
128 79 154
128 78 154
128 78 154
128 77 154
128 77 154
127 77 154
127 76 154
127 76 154
127 76 154
127 75 154
127 75 154
127 74 154
127 74 154
126 74 154
126 73 154
126 73 154
126 72 154
126 72 154
126 72 154
126 71 154
125 71 154
125 71 154
125 70 154
125 70 154
125 69 154
125 69 154
125 69 154
125 68 154
124 68 154
124 67 154
124 67 154
124 67 154
124 66 154
124 66 154
124 66 154
123 65 154
123 65 154
123 64 154
123 64 154
123 64 154
123 63 154
123 63 154
123 62 154
122 62 154
122 62 154
122 61 154
122 61 154
122 61 154
122 60 154
122 60 154
122 59 154
121 59 154
121 59 154
121 58 154
121 58 154
121 57 154
121 57 154
121 57 154
120 56 154
120 56 154
120 55 154
120 55 154
120 55 154
120 54 154
120 54 154
120 54 154
119 53 154
119 53 154
119 52 154
119 52 154
119 52 154
119 51 154
119 51 154
118 50 154
118 50 154
118 50 154
118 49 154
118 49 154
118 49 154
118 48 154
118 48 154
117 47 154
117 47 154
117 47 154
117 46 154
117 46 154
117 45 154
117 45 154
117 45 154
116 44 154
116 44 154
116 44 154
116 43 154
116 43 154
116 42 154
116 42 154
115 42 154
115 41 154
115 41 154
115 40 154
115 40 154
115 40 154
115 39 154
115 39 154
114 39 154
114 38 154
114 38 154
114 37 154
114 37 154
114 37 154
114 36 154
113 36 154
113 35 154
113 35 154
113 35 154
113 34 154
113 34 154
113 34 154
113 33 154
112 33 154
112 32 154
112 32 154
112 32 154
112 31 154
112 31 154
112 30 154
112 30 154
111 30 154
111 29 154
111 29 154
111 29 154
111 28 154
111 28 154
111 27 154
110 27 154
110 27 154
110 26 154
110 26 154
110 25 154
110 25 154
110 25 154
110 24 154
109 24 154
109 24 154
109 23 154
109 23 154
109 22 154
109 22 154
109 22 154
108 21 154
108 21 154
108 20 154
108 20 154
108 20 154
108 19 154
108 19 154
108 18 154
107 18 154
107 18 154
107 17 154
107 17 154
107 17 154
107 16 154
107 16 154
106 15 154
106 15 154
106 15 154
106 14 154
106 14 154
106 13 154
106 13 154
106 13 154
105 12 154
105 12 154
105 12 154
105 11 154
105 11 154
105 10 154
105 10 154
105 10 154
104 9 154
104 9 154
104 8 154
104 8 154
104 8 154
104 7 154
104 7 154
103 7 154
103 6 154
103 6 154
103 5 154
103 5 154
103 5 154
103 4 154
103 4 154
102 3 154
102 3 154
102 3 154
102 2 154
102 2 154
102 2 154
102 1 154
101 1 154
101 0 154
101 0 154
152 152 152
152 152 152
152 152 152
152 151 152
152 151 152
152 151 152
152 150 152
152 150 152
151 149 152
151 149 152
151 149 152
151 148 152
151 148 152
151 148 152
151 147 152
151 147 152
150 146 152
150 146 152
150 146 152
150 145 152
150 145 152
150 144 152
150 144 152
150 144 152
149 143 152
149 143 152
149 143 152
149 142 152
149 142 152
149 141 152
149 141 152
149 141 152
148 140 152
148 140 152
148 139 152
148 139 152
148 139 152
148 138 152
148 138 152
148 138 152
147 137 152
147 137 152
147 136 152
147 136 152
147 136 152
147 135 152
147 135 152
147 135 152
146 134 152
146 134 152
146 133 152
146 133 152
146 133 152
146 132 152
146 132 152
146 131 152
145 131 152
145 131 152
145 130 152
145 130 152
145 130 152
145 129 152
145 129 152
145 128 152
144 128 152
144 128 152
144 127 152
144 127 152
144 126 152
144 126 152
144 126 152
144 125 152
143 125 152
143 125 152
143 124 152
143 124 152
143 123 152
143 123 152
143 123 152
143 122 152
142 122 152
142 122 152
142 121 152
142 121 152
142 120 152
142 120 152
142 120 152
142 119 152
141 119 152
141 118 152
141 118 152
141 118 152
141 117 152
141 117 152
141 117 152
141 116 152
140 116 152
140 115 152
140 115 152
140 115 152
140 114 152
140 114 152
140 114 152
140 113 152
139 113 152
139 112 152
139 112 152
139 112 152
139 111 152
139 111 152
139 110 152
139 110 152
138 110 152
138 109 152
138 109 152
138 109 152
138 108 152
138 108 152
138 107 152
138 107 152
137 107 152
137 106 152
137 106 152
137 105 152
137 105 152
137 105 152
137 104 152
137 104 152
136 104 152
136 103 152
136 103 152
136 102 152
136 102 152
136 102 152
136 101 152
136 101 152
135 101 152
135 100 152
135 100 152
135 99 152
135 99 152
135 99 152
135 98 152
135 98 152
134 97 152
134 97 152
134 97 152
134 96 152
134 96 152
134 96 152
134 95 152
134 95 152
133 94 152
133 94 152
133 94 152
133 93 152
133 93 152
133 92 152
133 92 152
133 92 152
132 91 152
132 91 152
132 91 152
132 90 152
132 90 152
132 89 152
132 89 152
132 89 152
131 88 152
131 88 152
131 88 152
131 87 152
131 87 152
131 86 152
131 86 152
131 86 152
130 85 152
130 85 152
130 84 152
130 84 152
130 84 152
130 83 152
130 83 152
130 83 152
129 82 152
129 82 152
129 81 152
129 81 152
129 81 152
129 80 152
129 80 152
129 79 152
128 79 152
128 79 152
128 78 152
128 78 152
128 78 152
128 77 152
128 77 152
128 76 152
127 76 152
127 76 152
127 75 152
127 75 152
127 75 152
127 74 152
127 74 152
127 73 152
126 73 152
126 73 152
126 72 152
126 72 152
126 71 152
126 71 152
126 71 152
126 70 152
125 70 152
125 70 152
125 69 152
125 69 152
125 68 152
125 68 152
125 68 152
125 67 152
124 67 152
124 66 152
124 66 152
124 66 152
124 65 152
124 65 152
124 65 152
124 64 152
123 64 152
123 63 152
123 63 152
123 63 152
123 62 152
123 62 152
123 62 152
123 61 152
122 61 152
122 60 152
122 60 152
122 60 152
122 59 152
122 59 152
122 58 152
122 58 152
121 58 152
121 57 152
121 57 152
121 57 152
121 56 152
121 56 152
121 55 152
121 55 152
120 55 152
120 54 152
120 54 152
120 54 152
120 53 152
120 53 152
120 52 152
120 52 152
119 52 152
119 51 152
119 51 152
119 50 152
119 50 152
119 50 152
119 49 152
119 49 152
118 49 152
118 48 152
118 48 152
118 47 152
118 47 152
118 47 152
118 46 152
118 46 152
117 45 152
117 45 152
117 45 152
117 44 152
117 44 152
117 44 152
117 43 152
117 43 152
116 42 152
116 42 152
116 42 152
116 41 152
116 41 152
116 41 152
116 40 152
116 40 152
115 39 152
115 39 152
115 39 152
115 38 152
115 38 152
115 37 152
115 37 152
115 37 152
114 36 152
114 36 152
114 36 152
114 35 152
114 35 152
114 34 152
114 34 152
114 34 152
113 33 152
113 33 152
113 32 152
113 32 152
113 32 152
113 31 152
113 31 152
113 31 152
112 30 152
112 30 152
112 29 152
112 29 152
112 29 152
112 28 152
112 28 152
112 28 152
111 27 152
111 27 152
111 26 152
111 26 152
111 26 152
111 25 152
111 25 152
111 24 152
110 24 152
110 24 152
110 23 152
110 23 152
110 23 152
110 22 152
110 22 152
110 21 152
109 21 152
109 21 152
109 20 152
109 20 152
109 19 152
109 19 152
109 19 152
109 18 152
108 18 152
108 18 152
108 17 152
108 17 152
108 16 152
108 16 152
108 16 152
108 15 152
107 15 152
107 15 152
107 14 152
107 14 152
107 13 152
107 13 152
107 13 152
107 12 152
106 12 152
106 11 152
106 11 152
106 11 152
106 10 152
106 10 152
106 10 152
106 9 152
105 9 152
105 8 152
105 8 152
105 8 152
105 7 152
105 7 152
105 6 152
105 6 152
104 6 152
104 5 152
104 5 152
104 5 152
104 4 152
104 4 152
104 3 152
104 3 152
103 3 152
103 2 152
103 2 152
103 2 152
103 1 152
103 1 152
103 0 152
103 0 152
151 151 151
151 151 151
151 150 151
151 150 151
151 150 151
151 149 151
150 149 151
150 149 151
150 148 151
150 148 151
150 147 151
150 147 151
150 147 151
150 146 151
150 146 151
149 146 151
149 145 151
149 145 151
149 144 151
149 144 151
149 144 151
149 143 151
149 143 151
148 142 151
148 142 151
148 142 151
148 141 151
148 141 151
148 141 151
148 140 151
148 140 151
148 139 151
147 139 151
147 139 151
147 138 151
147 138 151
147 138 151
147 137 151
147 137 151
147 136 151
146 136 151
146 136 151
146 135 151
146 135 151
146 135 151
146 134 151
146 134 151
146 133 151
146 133 151
145 133 151
145 132 151
145 132 151
145 131 151
145 131 151
145 131 151
145 130 151
145 130 151
144 130 151
144 129 151
144 129 151
144 128 151
144 128 151
144 128 151
144 127 151
144 127 151
143 127 151
143 126 151
143 126 151
143 125 151
143 125 151
143 125 151
143 124 151
143 124 151
143 124 151
142 123 151
142 123 151
142 122 151
142 122 151
142 122 151
142 121 151
142 121 151
142 121 151
141 120 151
141 120 151
141 119 151
141 119 151
141 119 151
141 118 151
141 118 151
141 117 151
141 117 151
140 117 151
140 116 151
140 116 151
140 116 151
140 115 151
140 115 151
140 114 151
140 114 151
139 114 151
139 113 151
139 113 151
139 113 151
139 112 151
139 112 151
139 111 151
139 111 151
138 111 151
138 110 151
138 110 151
138 110 151
138 109 151
138 109 151
138 108 151
138 108 151
138 108 151
137 107 151
137 107 151
137 106 151
137 106 151
137 106 151
137 105 151
137 105 151
137 105 151
136 104 151
136 104 151
136 103 151
136 103 151
136 103 151
136 102 151
136 102 151
136 102 151
136 101 151
135 101 151
135 100 151
135 100 151
135 100 151
135 99 151
135 99 151
135 99 151
135 98 151
134 98 151
134 97 151
134 97 151
134 97 151
134 96 151
134 96 151
134 95 151
134 95 151
134 95 151
133 94 151
133 94 151
133 94 151
133 93 151
133 93 151
133 92 151
133 92 151
133 92 151
132 91 151
132 91 151
132 91 151
132 90 151
132 90 151
132 89 151
132 89 151
132 89 151
131 88 151
131 88 151
131 88 151
131 87 151
131 87 151
131 86 151
131 86 151
131 86 151
131 85 151
130 85 151
130 85 151
130 84 151
130 84 151
130 83 151
130 83 151
130 83 151
130 82 151
129 82 151
129 81 151
129 81 151
129 81 151
129 80 151
129 80 151
129 80 151
129 79 151
129 79 151
128 78 151
128 78 151
128 78 151
128 77 151
128 77 151
128 77 151
128 76 151
128 76 151
127 75 151
127 75 151
127 75 151
127 74 151
127 74 151
127 74 151
127 73 151
127 73 151
126 72 151
126 72 151
126 72 151
126 71 151
126 71 151
126 70 151
126 70 151
126 70 151
126 69 151
125 69 151
125 69 151
125 68 151
125 68 151
125 67 151
125 67 151
125 67 151
125 66 151
124 66 151
124 66 151
124 65 151
124 65 151
124 64 151
124 64 151
124 64 151
124 63 151
124 63 151
123 63 151
123 62 151
123 62 151
123 61 151
123 61 151
123 61 151
123 60 151
123 60 151
122 59 151
122 59 151
122 59 151
122 58 151
122 58 151
122 58 151
122 57 151
122 57 151
121 56 151
121 56 151
121 56 151
121 55 151
121 55 151
121 55 151
121 54 151
121 54 151
121 53 151
120 53 151
120 53 151
120 52 151
120 52 151
120 52 151
120 51 151
120 51 151
120 50 151
119 50 151
119 50 151
119 49 151
119 49 151
119 49 151
119 48 151
119 48 151
119 47 151
119 47 151
118 47 151
118 46 151
118 46 151
118 45 151
118 45 151
118 45 151
118 44 151
118 44 151
117 44 151
117 43 151
117 43 151
117 42 151
117 42 151
117 42 151
117 41 151
117 41 151
117 41 151
116 40 151
116 40 151
116 39 151
116 39 151
116 39 151
116 38 151
116 38 151
116 38 151
115 37 151
115 37 151
115 36 151
115 36 151
115 36 151
115 35 151
115 35 151
115 34 151
114 34 151
114 34 151
114 33 151
114 33 151
114 33 151
114 32 151
114 32 151
114 31 151
114 31 151
113 31 151
113 30 151
113 30 151
113 30 151
113 29 151
113 29 151
113 28 151
113 28 151
112 28 151
112 27 151
112 27 151
112 27 151
112 26 151
112 26 151
112 25 151
112 25 151
112 25 151
111 24 151
111 24 151
111 23 151
111 23 151
111 23 151
111 22 151
111 22 151
111 22 151
110 21 151
110 21 151
110 20 151
110 20 151
110 20 151
110 19 151
110 19 151
110 19 151
109 18 151
109 18 151
109 17 151
109 17 151
109 17 151
109 16 151
109 16 151
109 16 151
109 15 151
108 15 151
108 14 151
108 14 151
108 14 151
108 13 151
108 13 151
108 13 151
108 12 151
107 12 151
107 11 151
107 11 151
107 11 151
107 10 151
107 10 151
107 9 151
107 9 151
107 9 151
106 8 151
106 8 151
106 8 151
106 7 151
106 7 151
106 6 151
106 6 151
106 6 151
105 5 151
105 5 151
105 5 151
105 4 151
105 4 151
105 3 151
105 3 151
105 3 151
105 2 151
104 2 151
104 2 151
104 1 151
104 1 151
104 0 151
104 0 151
150 150 150
150 150 150
150 149 150
150 149 150
149 148 150
149 148 150
149 148 150
149 147 150
149 147 150
149 147 150
149 146 150
149 146 150
149 145 150
148 145 150
148 145 150
148 144 150
148 144 150
148 144 150
148 143 150
148 143 150
148 142 150
148 142 150
147 142 150
147 141 150
147 141 150
147 141 150
147 140 150
147 140 150
147 139 150
147 139 150
147 139 150
146 138 150
146 138 150
146 138 150
146 137 150
146 137 150
146 136 150
146 136 150
146 136 150
146 135 150
145 135 150
145 135 150
145 134 150
145 134 150
145 133 150
145 133 150
145 133 150
145 132 150
145 132 150
144 132 150
144 131 150
144 131 150
144 130 150
144 130 150
144 130 150
144 129 150
144 129 150
144 129 150
143 128 150
143 128 150
143 127 150
143 127 150
143 127 150
143 126 150
143 126 150
143 126 150
143 125 150
142 125 150
142 124 150
142 124 150
142 124 150
142 123 150
142 123 150
142 122 150
142 122 150
141 122 150
141 121 150
141 121 150
141 121 150
141 120 150
141 120 150
141 119 150
141 119 150
141 119 150
140 118 150
140 118 150
140 118 150
140 117 150
140 117 150
140 116 150
140 116 150
140 116 150
140 115 150
139 115 150
139 115 150
139 114 150
139 114 150
139 113 150
139 113 150
139 113 150
139 112 150
139 112 150
138 112 150
138 111 150
138 111 150
138 110 150
138 110 150
138 110 150
138 109 150
138 109 150
138 109 150
137 108 150
137 108 150
137 107 150
137 107 150
137 107 150
137 106 150
137 106 150
137 106 150
137 105 150
136 105 150
136 104 150
136 104 150
136 104 150
136 103 150
136 103 150
136 103 150
136 102 150
136 102 150
135 101 150
135 101 150
135 101 150
135 100 150
135 100 150
135 100 150
135 99 150
135 99 150
135 98 150
134 98 150
134 98 150
134 97 150
134 97 150
134 97 150
134 96 150
134 96 150
134 95 150
134 95 150
133 95 150
133 94 150
133 94 150
133 94 150
133 93 150
133 93 150
133 92 150
133 92 150
133 92 150
132 91 150
132 91 150
132 91 150
132 90 150
132 90 150
132 89 150
132 89 150
132 89 150
131 88 150
131 88 150
131 88 150
131 87 150
131 87 150
131 86 150
131 86 150
131 86 150
131 85 150
130 85 150
130 85 150
130 84 150
130 84 150
130 83 150
130 83 150
130 83 150
130 82 150
130 82 150
129 82 150
129 81 150
129 81 150
129 80 150
129 80 150
129 80 150
129 79 150
129 79 150
129 79 150
128 78 150
128 78 150
128 77 150
128 77 150
128 77 150
128 76 150
128 76 150
128 76 150
128 75 150
127 75 150
127 74 150
127 74 150
127 74 150
127 73 150
127 73 150
127 73 150
127 72 150
127 72 150
126 71 150
126 71 150
126 71 150
126 70 150
126 70 150
126 70 150
126 69 150
126 69 150
126 68 150
125 68 150
125 68 150
125 67 150
125 67 150
125 67 150
125 66 150
125 66 150
125 65 150
125 65 150
124 65 150
124 64 150
124 64 150
124 64 150
124 63 150
124 63 150
124 62 150
124 62 150
124 62 150
123 61 150
123 61 150
123 60 150
123 60 150
123 60 150
123 59 150
123 59 150
123 59 150
122 58 150
122 58 150
122 57 150
122 57 150
122 57 150
122 56 150
122 56 150
122 56 150
122 55 150
121 55 150
121 54 150
121 54 150
121 54 150
121 53 150
121 53 150
121 53 150
121 52 150
121 52 150
120 51 150
120 51 150
120 51 150
120 50 150
120 50 150
120 50 150
120 49 150
120 49 150
120 48 150
119 48 150
119 48 150
119 47 150
119 47 150
119 47 150
119 46 150
119 46 150
119 45 150
119 45 150
118 45 150
118 44 150
118 44 150
118 44 150
118 43 150
118 43 150
118 42 150
118 42 150
118 42 150
117 41 150
117 41 150
117 41 150
117 40 150
117 40 150
117 39 150
117 39 150
117 39 150
117 38 150
116 38 150
116 38 150
116 37 150
116 37 150
116 36 150
116 36 150
116 36 150
116 35 150
116 35 150
115 35 150
115 34 150
115 34 150
115 33 150
115 33 150
115 33 150
115 32 150
115 32 150
115 32 150
114 31 150
114 31 150
114 30 150
114 30 150
114 30 150
114 29 150
114 29 150
114 29 150
114 28 150
113 28 150
113 27 150
113 27 150
113 27 150
113 26 150
113 26 150
113 26 150
113 25 150
112 25 150
112 24 150
112 24 150
112 24 150
112 23 150
112 23 150
112 23 150
112 22 150
112 22 150
111 21 150
111 21 150
111 21 150
111 20 150
111 20 150
111 20 150
111 19 150
111 19 150
111 18 150
110 18 150
110 18 150
110 17 150
110 17 150
110 17 150
110 16 150
110 16 150
110 15 150
110 15 150
109 15 150
109 14 150
109 14 150
109 14 150
109 13 150
109 13 150
109 12 150
109 12 150
109 12 150
108 11 150
108 11 150
108 11 150
108 10 150
108 10 150
108 9 150
108 9 150
108 9 150
108 8 150
107 8 150
107 8 150
107 7 150
107 7 150
107 6 150
107 6 150
107 6 150
107 5 150
107 5 150
106 5 150
106 4 150
106 4 150
106 3 150
106 3 150
106 3 150
106 2 150
106 2 150
106 2 150
105 1 150
105 1 150
105 0 150
105 0 150
149 149 149
149 148 149
148 148 149
148 148 149
148 147 149
148 147 149
148 146 149
148 146 149
148 146 149
148 145 149
148 145 149
147 145 149
147 144 149
147 144 149
147 143 149
147 143 149
147 143 149
147 142 149
147 142 149
147 142 149
147 141 149
146 141 149
146 140 149
146 140 149
146 140 149
146 139 149
146 139 149
146 139 149
146 138 149
146 138 149
145 137 149
145 137 149
145 137 149
145 136 149
145 136 149
145 136 149
145 135 149
145 135 149
145 134 149
145 134 149
144 134 149
144 133 149
144 133 149
144 133 149
144 132 149
144 132 149
144 132 149
144 131 149
144 131 149
143 130 149
143 130 149
143 130 149
143 129 149
143 129 149
143 129 149
143 128 149
143 128 149
143 127 149
142 127 149
142 127 149
142 126 149
142 126 149
142 126 149
142 125 149
142 125 149
142 124 149
142 124 149
142 124 149
141 123 149
141 123 149
141 123 149
141 122 149
141 122 149
141 121 149
141 121 149
141 121 149
141 120 149
140 120 149
140 120 149
140 119 149
140 119 149
140 118 149
140 118 149
140 118 149
140 117 149
140 117 149
140 117 149
139 116 149
139 116 149
139 115 149
139 115 149
139 115 149
139 114 149
139 114 149
139 114 149
139 113 149
138 113 149
138 113 149
138 112 149
138 112 149
138 111 149
138 111 149
138 111 149
138 110 149
138 110 149
138 110 149
137 109 149
137 109 149
137 108 149
137 108 149
137 108 149
137 107 149
137 107 149
137 107 149
137 106 149
136 106 149
136 105 149
136 105 149
136 105 149
136 104 149
136 104 149
136 104 149
136 103 149
136 103 149
136 102 149
135 102 149
135 102 149
135 101 149
135 101 149
135 101 149
135 100 149
135 100 149
135 99 149
135 99 149
134 99 149
134 98 149
134 98 149
134 98 149
134 97 149
134 97 149
134 96 149
134 96 149
134 96 149
133 95 149
133 95 149
133 95 149
133 94 149
133 94 149
133 94 149
133 93 149
133 93 149
133 92 149
133 92 149
132 92 149
132 91 149
132 91 149
132 91 149
132 90 149
132 90 149
132 89 149
132 89 149
132 89 149
131 88 149
131 88 149
131 88 149
131 87 149
131 87 149
131 86 149
131 86 149
131 86 149
131 85 149
131 85 149
130 85 149
130 84 149
130 84 149
130 83 149
130 83 149
130 83 149
130 82 149
130 82 149
130 82 149
129 81 149
129 81 149
129 80 149
129 80 149
129 80 149
129 79 149
129 79 149
129 79 149
129 78 149
129 78 149
128 77 149
128 77 149
128 77 149
128 76 149
128 76 149
128 76 149
128 75 149
128 75 149
128 75 149
127 74 149
127 74 149
127 73 149
127 73 149
127 73 149
127 72 149
127 72 149
127 72 149
127 71 149
126 71 149
126 70 149
126 70 149
126 70 149
126 69 149
126 69 149
126 69 149
126 68 149
126 68 149
126 67 149
125 67 149
125 67 149
125 66 149
125 66 149
125 66 149
125 65 149
125 65 149
125 64 149
125 64 149
124 64 149
124 63 149
124 63 149
124 63 149
124 62 149
124 62 149
124 61 149
124 61 149
124 61 149
124 60 149
123 60 149
123 60 149
123 59 149
123 59 149
123 58 149
123 58 149
123 58 149
123 57 149
123 57 149
122 57 149
122 56 149
122 56 149
122 56 149
122 55 149
122 55 149
122 54 149
122 54 149
122 54 149
122 53 149
121 53 149
121 53 149
121 52 149
121 52 149
121 51 149
121 51 149
121 51 149
121 50 149
121 50 149
120 50 149
120 49 149
120 49 149
120 48 149
120 48 149
120 48 149
120 47 149
120 47 149
120 47 149
119 46 149
119 46 149
119 45 149
119 45 149
119 45 149
119 44 149
119 44 149
119 44 149
119 43 149
119 43 149
118 42 149
118 42 149
118 42 149
118 41 149
118 41 149
118 41 149
118 40 149
118 40 149
118 39 149
117 39 149
117 39 149
117 38 149
117 38 149
117 38 149
117 37 149
117 37 149
117 37 149
117 36 149
117 36 149
116 35 149
116 35 149
116 35 149
116 34 149
116 34 149
116 34 149
116 33 149
116 33 149
116 32 149
115 32 149
115 32 149
115 31 149
115 31 149
115 31 149
115 30 149
115 30 149
115 29 149
115 29 149
115 29 149
114 28 149
114 28 149
114 28 149
114 27 149
114 27 149
114 26 149
114 26 149
114 26 149
114 25 149
113 25 149
113 25 149
113 24 149
113 24 149
113 23 149
113 23 149
113 23 149
113 22 149
113 22 149
113 22 149
112 21 149
112 21 149
112 20 149
112 20 149
112 20 149
112 19 149
112 19 149
112 19 149
112 18 149
111 18 149
111 18 149
111 17 149
111 17 149
111 16 149
111 16 149
111 16 149
111 15 149
111 15 149
110 15 149
110 14 149
110 14 149
110 13 149
110 13 149
110 13 149
110 12 149
110 12 149
110 12 149
110 11 149
109 11 149
109 10 149
109 10 149
109 10 149
109 9 149
109 9 149
109 9 149
109 8 149
109 8 149
108 7 149
108 7 149
108 7 149
108 6 149
108 6 149
108 6 149
108 5 149
108 5 149
108 4 149
108 4 149
107 4 149
107 3 149
107 3 149
107 3 149
107 2 149
107 2 149
107 1 149
107 1 149
107 1 149
106 0 149
106 0 149
147 147 147
147 147 147
147 147 147
147 146 147
147 146 147
147 146 147
147 145 147
147 145 147
147 144 147
146 144 147
146 144 147
146 143 147
146 143 147
146 143 147
146 142 147
146 142 147
146 141 147
146 141 147
146 141 147
145 140 147
145 140 147
145 140 147
145 139 147
145 139 147
145 138 147
145 138 147
145 138 147
145 137 147
145 137 147
144 137 147
144 136 147
144 136 147
144 136 147
144 135 147
144 135 147
144 134 147
144 134 147
144 134 147
144 133 147
143 133 147
143 133 147
143 132 147
143 132 147
143 131 147
143 131 147
143 131 147
143 130 147
143 130 147
143 130 147
142 129 147
142 129 147
142 129 147
142 128 147
142 128 147
142 127 147
142 127 147
142 127 147
142 126 147
142 126 147
141 126 147
141 125 147
141 125 147
141 124 147
141 124 147
141 124 147
141 123 147
141 123 147
141 123 147
141 122 147
140 122 147
140 122 147
140 121 147
140 121 147
140 120 147
140 120 147
140 120 147
140 119 147
140 119 147
140 119 147
139 118 147
139 118 147
139 117 147
139 117 147
139 117 147
139 116 147
139 116 147
139 116 147
139 115 147
139 115 147
139 114 147
138 114 147
138 114 147
138 113 147
138 113 147
138 113 147
138 112 147
138 112 147
138 112 147
138 111 147
138 111 147
137 110 147
137 110 147
137 110 147
137 109 147
137 109 147
137 109 147
137 108 147
137 108 147
137 107 147
137 107 147
136 107 147
136 106 147
136 106 147
136 106 147
136 105 147
136 105 147
136 105 147
136 104 147
136 104 147
136 103 147
135 103 147
135 103 147
135 102 147
135 102 147
135 102 147
135 101 147
135 101 147
135 100 147
135 100 147
135 100 147
134 99 147
134 99 147
134 99 147
134 98 147
134 98 147
134 98 147
134 97 147
134 97 147
134 96 147
134 96 147
133 96 147
133 95 147
133 95 147
133 95 147
133 94 147
133 94 147
133 93 147
133 93 147
133 93 147
133 92 147
132 92 147
132 92 147
132 91 147
132 91 147
132 90 147
132 90 147
132 90 147
132 89 147
132 89 147
132 89 147
131 88 147
131 88 147
131 88 147
131 87 147
131 87 147
131 86 147
131 86 147
131 86 147
131 85 147
131 85 147
130 85 147
130 84 147
130 84 147
130 83 147
130 83 147
130 83 147
130 82 147
130 82 147
130 82 147
130 81 147
129 81 147
129 81 147
129 80 147
129 80 147
129 79 147
129 79 147
129 79 147
129 78 147
129 78 147
129 78 147
128 77 147
128 77 147
128 76 147
128 76 147
128 76 147
128 75 147
128 75 147
128 75 147
128 74 147
128 74 147
127 73 147
127 73 147
127 73 147
127 72 147
127 72 147
127 72 147
127 71 147
127 71 147
127 71 147
127 70 147
126 70 147
126 69 147
126 69 147
126 69 147
126 68 147
126 68 147
126 68 147
126 67 147
126 67 147
126 66 147
125 66 147
125 66 147
125 65 147
125 65 147
125 65 147
125 64 147
125 64 147
125 64 147
125 63 147
125 63 147
124 62 147
124 62 147
124 62 147
124 61 147
124 61 147
124 61 147
124 60 147
124 60 147
124 59 147
124 59 147
123 59 147
123 58 147
123 58 147
123 58 147
123 57 147
123 57 147
123 57 147
123 56 147
123 56 147
123 55 147
122 55 147
122 55 147
122 54 147
122 54 147
122 54 147
122 53 147
122 53 147
122 52 147
122 52 147
122 52 147
121 51 147
121 51 147
121 51 147
121 50 147
121 50 147
121 49 147
121 49 147
121 49 147
121 48 147
121 48 147
120 48 147
120 47 147
120 47 147
120 47 147
120 46 147
120 46 147
120 45 147
120 45 147
120 45 147
120 44 147
119 44 147
119 44 147
119 43 147
119 43 147
119 42 147
119 42 147
119 42 147
119 41 147
119 41 147
119 41 147
118 40 147
118 40 147
118 40 147
118 39 147
118 39 147
118 38 147
118 38 147
118 38 147
118 37 147
118 37 147
117 37 147
117 36 147
117 36 147
117 35 147
117 35 147
117 35 147
117 34 147
117 34 147
117 34 147
117 33 147
116 33 147
116 33 147
116 32 147
116 32 147
116 31 147
116 31 147
116 31 147
116 30 147
116 30 147
116 30 147
116 29 147
115 29 147
115 28 147
115 28 147
115 28 147
115 27 147
115 27 147
115 27 147
115 26 147
115 26 147
115 25 147
114 25 147
114 25 147
114 24 147
114 24 147
114 24 147
114 23 147
114 23 147
114 23 147
114 22 147
114 22 147
113 21 147
113 21 147
113 21 147
113 20 147
113 20 147
113 20 147
113 19 147
113 19 147
113 18 147
113 18 147
112 18 147
112 17 147
112 17 147
112 17 147
112 16 147
112 16 147
112 16 147
112 15 147
112 15 147
112 14 147
111 14 147
111 14 147
111 13 147
111 13 147
111 13 147
111 12 147
111 12 147
111 11 147
111 11 147
111 11 147
110 10 147
110 10 147
110 10 147
110 9 147
110 9 147
110 8 147
110 8 147
110 8 147
110 7 147
110 7 147
109 7 147
109 6 147
109 6 147
109 6 147
109 5 147
109 5 147
109 4 147
109 4 147
109 4 147
109 3 147
108 3 147
108 3 147
108 2 147
108 2 147
108 1 147
108 1 147
108 1 147
108 0 147
108 0 147
146 146 146
146 146 146
146 145 146
146 145 146
146 145 146
146 144 146
146 144 146
145 144 146
145 143 146
145 143 146
145 142 146
145 142 146
145 142 146
145 141 146
145 141 146
145 141 146
145 140 146
144 140 146
144 139 146
144 139 146
144 139 146
144 138 146
144 138 146
144 138 146
144 137 146
144 137 146
144 137 146
144 136 146
143 136 146
143 135 146
143 135 146
143 135 146
143 134 146
143 134 146
143 134 146
143 133 146
143 133 146
143 133 146
143 132 146
142 132 146
142 131 146
142 131 146
142 131 146
142 130 146
142 130 146
142 130 146
142 129 146
142 129 146
142 129 146
142 128 146
141 128 146
141 127 146
141 127 146
141 127 146
141 126 146
141 126 146
141 126 146
141 125 146
141 125 146
141 124 146
140 124 146
140 124 146
140 123 146
140 123 146
140 123 146
140 122 146
140 122 146
140 122 146
140 121 146
140 121 146
140 120 146
139 120 146
139 120 146
139 119 146
139 119 146
139 119 146
139 118 146
139 118 146
139 118 146
139 117 146
139 117 146
139 116 146
138 116 146
138 116 146
138 115 146
138 115 146
138 115 146
138 114 146
138 114 146
138 113 146
138 113 146
138 113 146
138 112 146
137 112 146
137 112 146
137 111 146
137 111 146
137 111 146
137 110 146
137 110 146
137 109 146
137 109 146
137 109 146
136 108 146
136 108 146
136 108 146
136 107 146
136 107 146
136 107 146
136 106 146
136 106 146
136 105 146
136 105 146
136 105 146
135 104 146
135 104 146
135 104 146
135 103 146
135 103 146
135 103 146
135 102 146
135 102 146
135 101 146
135 101 146
135 101 146
134 100 146
134 100 146
134 100 146
134 99 146
134 99 146
134 98 146
134 98 146
134 98 146
134 97 146
134 97 146
134 97 146
133 96 146
133 96 146
133 96 146
133 95 146
133 95 146
133 94 146
133 94 146
133 94 146
133 93 146
133 93 146
132 93 146
132 92 146
132 92 146
132 92 146
132 91 146
132 91 146
132 90 146
132 90 146
132 90 146
132 89 146
132 89 146
131 89 146
131 88 146
131 88 146
131 88 146
131 87 146
131 87 146
131 86 146
131 86 146
131 86 146
131 85 146
131 85 146
130 85 146
130 84 146
130 84 146
130 83 146
130 83 146
130 83 146
130 82 146
130 82 146
130 82 146
130 81 146
130 81 146
129 81 146
129 80 146
129 80 146
129 79 146
129 79 146
129 79 146
129 78 146
129 78 146
129 78 146
129 77 146
128 77 146
128 77 146
128 76 146
128 76 146
128 75 146
128 75 146
128 75 146
128 74 146
128 74 146
128 74 146
128 73 146
127 73 146
127 72 146
127 72 146
127 72 146
127 71 146
127 71 146
127 71 146
127 70 146
127 70 146
127 70 146
127 69 146
126 69 146
126 68 146
126 68 146
126 68 146
126 67 146
126 67 146
126 67 146
126 66 146
126 66 146
126 66 146
125 65 146
125 65 146
125 64 146
125 64 146
125 64 146
125 63 146
125 63 146
125 63 146
125 62 146
125 62 146
125 62 146
124 61 146
124 61 146
124 60 146
124 60 146
124 60 146
124 59 146
124 59 146
124 59 146
124 58 146
124 58 146
124 57 146
123 57 146
123 57 146
123 56 146
123 56 146
123 56 146
123 55 146
123 55 146
123 55 146
123 54 146
123 54 146
123 53 146
122 53 146
122 53 146
122 52 146
122 52 146
122 52 146
122 51 146
122 51 146
122 51 146
122 50 146
122 50 146
121 49 146
121 49 146
121 49 146
121 48 146
121 48 146
121 48 146
121 47 146
121 47 146
121 46 146
121 46 146
121 46 146
120 45 146
120 45 146
120 45 146
120 44 146
120 44 146
120 44 146
120 43 146
120 43 146
120 42 146
120 42 146
120 42 146
119 41 146
119 41 146
119 41 146
119 40 146
119 40 146
119 40 146
119 39 146
119 39 146
119 38 146
119 38 146
119 38 146
118 37 146
118 37 146
118 37 146
118 36 146
118 36 146
118 36 146
118 35 146
118 35 146
118 34 146
118 34 146
117 34 146
117 33 146
117 33 146
117 33 146
117 32 146
117 32 146
117 31 146
117 31 146
117 31 146
117 30 146
117 30 146
116 30 146
116 29 146
116 29 146
116 29 146
116 28 146
116 28 146
116 27 146
116 27 146
116 27 146
116 26 146
116 26 146
115 26 146
115 25 146
115 25 146
115 25 146
115 24 146
115 24 146
115 23 146
115 23 146
115 23 146
115 22 146
115 22 146
114 22 146
114 21 146
114 21 146
114 21 146
114 20 146
114 20 146
114 19 146
114 19 146
114 19 146
114 18 146
113 18 146
113 18 146
113 17 146
113 17 146
113 16 146
113 16 146
113 16 146
113 15 146
113 15 146
113 15 146
113 14 146
112 14 146
112 14 146
112 13 146
112 13 146
112 12 146
112 12 146
112 12 146
112 11 146
112 11 146
112 11 146
112 10 146
111 10 146
111 10 146
111 9 146
111 9 146
111 8 146
111 8 146
111 8 146
111 7 146
111 7 146
111 7 146
111 6 146
110 6 146
110 5 146
110 5 146
110 5 146
110 4 146
110 4 146
110 4 146
110 3 146
110 3 146
110 3 146
109 2 146
109 2 146
109 1 146
109 1 146
109 1 146
109 0 146
109 0 146
145 145 145
145 144 145
145 144 145
145 144 145
144 143 145
144 143 145
144 143 145
144 142 145
144 142 145
144 142 145
144 141 145
144 141 145
144 140 145
144 140 145
144 140 145
143 139 145
143 139 145
143 139 145
143 138 145
143 138 145
143 138 145
143 137 145
143 137 145
143 136 145
143 136 145
143 136 145
143 135 145
142 135 145
142 135 145
142 134 145
142 134 145
142 134 145
142 133 145
142 133 145
142 132 145
142 132 145
142 132 145
142 131 145
142 131 145
141 131 145
141 130 145
141 130 145
141 130 145
141 129 145
141 129 145
141 128 145
141 128 145
141 128 145
141 127 145
141 127 145
140 127 145
140 126 145
140 126 145
140 126 145
140 125 145
140 125 145
140 124 145
140 124 145
140 124 145
140 123 145
140 123 145
140 123 145
139 122 145
139 122 145
139 122 145
139 121 145
139 121 145
139 120 145
139 120 145
139 120 145
139 119 145
139 119 145
139 119 145
138 118 145
138 118 145
138 118 145
138 117 145
138 117 145
138 116 145
138 116 145
138 116 145
138 115 145
138 115 145
138 115 145
138 114 145
137 114 145
137 114 145
137 113 145
137 113 145
137 113 145
137 112 145
137 112 145
137 111 145
137 111 145
137 111 145
137 110 145
136 110 145
136 110 145
136 109 145
136 109 145
136 109 145
136 108 145
136 108 145
136 107 145
136 107 145
136 107 145
136 106 145
136 106 145
135 106 145
135 105 145
135 105 145
135 105 145
135 104 145
135 104 145
135 103 145
135 103 145
135 103 145
135 102 145
135 102 145
134 102 145
134 101 145
134 101 145
134 101 145
134 100 145
134 100 145
134 99 145
134 99 145
134 99 145
134 98 145
134 98 145
134 98 145
133 97 145
133 97 145
133 97 145
133 96 145
133 96 145
133 95 145
133 95 145
133 95 145
133 94 145
133 94 145
133 94 145
132 93 145
132 93 145
132 93 145
132 92 145
132 92 145
132 91 145
132 91 145
132 91 145
132 90 145
132 90 145
132 90 145
132 89 145
131 89 145
131 89 145
131 88 145
131 88 145
131 87 145
131 87 145
131 87 145
131 86 145
131 86 145
131 86 145
131 85 145
130 85 145
130 85 145
130 84 145
130 84 145
130 83 145
130 83 145
130 83 145
130 82 145
130 82 145
130 82 145
130 81 145
130 81 145
129 81 145
129 80 145
129 80 145
129 79 145
129 79 145
129 79 145
129 78 145
129 78 145
129 78 145
129 77 145
129 77 145
128 77 145
128 76 145
128 76 145
128 75 145
128 75 145
128 75 145
128 74 145
128 74 145
128 74 145
128 73 145
128 73 145
128 73 145
127 72 145
127 72 145
127 71 145
127 71 145
127 71 145
127 70 145
127 70 145
127 70 145
127 69 145
127 69 145
127 69 145
127 68 145
126 68 145
126 68 145
126 67 145
126 67 145
126 66 145
126 66 145
126 66 145
126 65 145
126 65 145
126 65 145
126 64 145
125 64 145
125 64 145
125 63 145
125 63 145
125 62 145
125 62 145
125 62 145
125 61 145
125 61 145
125 61 145
125 60 145
125 60 145
124 60 145
124 59 145
124 59 145
124 58 145
124 58 145
124 58 145
124 57 145
124 57 145
124 57 145
124 56 145
124 56 145
123 56 145
123 55 145
123 55 145
123 54 145
123 54 145
123 54 145
123 53 145
123 53 145
123 53 145
123 52 145
123 52 145
123 52 145
122 51 145
122 51 145
122 50 145
122 50 145
122 50 145
122 49 145
122 49 145
122 49 145
122 48 145
122 48 145
122 48 145
121 47 145
121 47 145
121 46 145
121 46 145
121 46 145
121 45 145
121 45 145
121 45 145
121 44 145
121 44 145
121 44 145
121 43 145
120 43 145
120 42 145
120 42 145
120 42 145
120 41 145
120 41 145
120 41 145
120 40 145
120 40 145
120 40 145
120 39 145
119 39 145
119 38 145
119 38 145
119 38 145
119 37 145
119 37 145
119 37 145
119 36 145
119 36 145
119 36 145
119 35 145
119 35 145
118 34 145
118 34 145
118 34 145
118 33 145
118 33 145
118 33 145
118 32 145
118 32 145
118 32 145
118 31 145
118 31 145
117 30 145
117 30 145
117 30 145
117 29 145
117 29 145
117 29 145
117 28 145
117 28 145
117 28 145
117 27 145
117 27 145
117 26 145
116 26 145
116 26 145
116 25 145
116 25 145
116 25 145
116 24 145
116 24 145
116 24 145
116 23 145
116 23 145
116 23 145
115 22 145
115 22 145
115 21 145
115 21 145
115 21 145
115 20 145
115 20 145
115 20 145
115 19 145
115 19 145
115 19 145
115 18 145
114 18 145
114 17 145
114 17 145
114 17 145
114 16 145
114 16 145
114 16 145
114 15 145
114 15 145
114 15 145
114 14 145
113 14 145
113 13 145
113 13 145
113 13 145
113 12 145
113 12 145
113 12 145
113 11 145
113 11 145
113 11 145
113 10 145
113 10 145
112 9 145
112 9 145
112 9 145
112 8 145
112 8 145
112 8 145
112 7 145
112 7 145
112 7 145
112 6 145
112 6 145
112 5 145
111 5 145
111 5 145
111 4 145
111 4 145
111 4 145
111 3 145
111 3 145
111 3 145
111 2 145
111 2 145
111 1 145
110 1 145
110 1 145
110 0 145
110 0 145
144 144 144
143 143 144
143 143 144
143 142 144
143 142 144
143 142 144
143 141 144
143 141 144
143 141 144
143 140 144
143 140 144
143 140 144
143 139 144
142 139 144
142 138 144
142 138 144
142 138 144
142 137 144
142 137 144
142 137 144
142 136 144
142 136 144
142 136 144
142 135 144
142 135 144
142 135 144
141 134 144
141 134 144
141 133 144
141 133 144
141 133 144
141 132 144
141 132 144
141 132 144
141 131 144
141 131 144
141 131 144
141 130 144
140 130 144
140 129 144
140 129 144
140 129 144
140 128 144
140 128 144
140 128 144
140 127 144
140 127 144
140 127 144
140 126 144
140 126 144
140 126 144
139 125 144
139 125 144
139 124 144
139 124 144
139 124 144
139 123 144
139 123 144
139 123 144
139 122 144
139 122 144
139 122 144
139 121 144
138 121 144
138 120 144
138 120 144
138 120 144
138 119 144
138 119 144
138 119 144
138 118 144
138 118 144
138 118 144
138 117 144
138 117 144
137 117 144
137 116 144
137 116 144
137 115 144
137 115 144
137 115 144
137 114 144
137 114 144
137 114 144
137 113 144
137 113 144
137 113 144
137 112 144
136 112 144
136 112 144
136 111 144
136 111 144
136 110 144
136 110 144
136 110 144
136 109 144
136 109 144
136 109 144
136 108 144
136 108 144
135 108 144
135 107 144
135 107 144
135 106 144
135 106 144
135 106 144
135 105 144
135 105 144
135 105 144
135 104 144
135 104 144
135 104 144
135 103 144
134 103 144
134 103 144
134 102 144
134 102 144
134 101 144
134 101 144
134 101 144
134 100 144
134 100 144
134 100 144
134 99 144
134 99 144
133 99 144
133 98 144
133 98 144
133 97 144
133 97 144
133 97 144
133 96 144
133 96 144
133 96 144
133 95 144
133 95 144
133 95 144
133 94 144
132 94 144
132 94 144
132 93 144
132 93 144
132 92 144
132 92 144
132 92 144
132 91 144
132 91 144
132 91 144
132 90 144
132 90 144
131 90 144
131 89 144
131 89 144
131 88 144
131 88 144
131 88 144
131 87 144
131 87 144
131 87 144
131 86 144
131 86 144
131 86 144
131 85 144
130 85 144
130 85 144
130 84 144
130 84 144
130 83 144
130 83 144
130 83 144
130 82 144
130 82 144
130 82 144
130 81 144
130 81 144
129 81 144
129 80 144
129 80 144
129 79 144
129 79 144
129 79 144
129 78 144
129 78 144
129 78 144
129 77 144
129 77 144
129 77 144
129 76 144
128 76 144
128 76 144
128 75 144
128 75 144
128 74 144
128 74 144
128 74 144
128 73 144
128 73 144
128 73 144
128 72 144
128 72 144
127 72 144
127 71 144
127 71 144
127 70 144
127 70 144
127 70 144
127 69 144
127 69 144
127 69 144
127 68 144
127 68 144
127 68 144
126 67 144
126 67 144
126 67 144
126 66 144
126 66 144
126 65 144
126 65 144
126 65 144
126 64 144
126 64 144
126 64 144
126 63 144
126 63 144
125 63 144
125 62 144
125 62 144
125 62 144
125 61 144
125 61 144
125 60 144
125 60 144
125 60 144
125 59 144
125 59 144
125 59 144
124 58 144
124 58 144
124 58 144
124 57 144
124 57 144
124 56 144
124 56 144
124 56 144
124 55 144
124 55 144
124 55 144
124 54 144
124 54 144
123 54 144
123 53 144
123 53 144
123 53 144
123 52 144
123 52 144
123 51 144
123 51 144
123 51 144
123 50 144
123 50 144
123 50 144
122 49 144
122 49 144
122 49 144
122 48 144
122 48 144
122 47 144
122 47 144
122 47 144
122 46 144
122 46 144
122 46 144
122 45 144
122 45 144
121 45 144
121 44 144
121 44 144
121 44 144
121 43 144
121 43 144
121 42 144
121 42 144
121 42 144
121 41 144
121 41 144
121 41 144
120 40 144
120 40 144
120 40 144
120 39 144
120 39 144
120 38 144
120 38 144
120 38 144
120 37 144
120 37 144
120 37 144
120 36 144
120 36 144
119 36 144
119 35 144
119 35 144
119 35 144
119 34 144
119 34 144
119 33 144
119 33 144
119 33 144
119 32 144
119 32 144
119 32 144
118 31 144
118 31 144
118 31 144
118 30 144
118 30 144
118 29 144
118 29 144
118 29 144
118 28 144
118 28 144
118 28 144
118 27 144
118 27 144
117 27 144
117 26 144
117 26 144
117 26 144
117 25 144
117 25 144
117 24 144
117 24 144
117 24 144
117 23 144
117 23 144
117 23 144
116 22 144
116 22 144
116 22 144
116 21 144
116 21 144
116 21 144
116 20 144
116 20 144
116 19 144
116 19 144
116 19 144
116 18 144
115 18 144
115 18 144
115 17 144
115 17 144
115 17 144
115 16 144
115 16 144
115 15 144
115 15 144
115 15 144
115 14 144
115 14 144
115 14 144
114 13 144
114 13 144
114 13 144
114 12 144
114 12 144
114 12 144
114 11 144
114 11 144
114 10 144
114 10 144
114 10 144
114 9 144
113 9 144
113 9 144
113 8 144
113 8 144
113 8 144
113 7 144
113 7 144
113 6 144
113 6 144
113 6 144
113 5 144
113 5 144
113 5 144
112 4 144
112 4 144
112 4 144
112 3 144
112 3 144
112 3 144
112 2 144
112 2 144
112 1 144
112 1 144
112 1 144
112 0 144
111 0 144
142 142 142
142 142 142
142 142 142
142 141 142
142 141 142
142 140 142
142 140 142
142 140 142
142 139 142
142 139 142
141 139 142
141 138 142
141 138 142
141 138 142
141 137 142
141 137 142
141 137 142
141 136 142
141 136 142
141 135 142
141 135 142
141 135 142
141 134 142
141 134 142
140 134 142
140 133 142
140 133 142
140 133 142
140 132 142
140 132 142
140 132 142
140 131 142
140 131 142
140 130 142
140 130 142
140 130 142
140 129 142
140 129 142
139 129 142
139 128 142
139 128 142
139 128 142
139 127 142
139 127 142
139 127 142
139 126 142
139 126 142
139 125 142
139 125 142
139 125 142
139 124 142
138 124 142
138 124 142
138 123 142
138 123 142
138 123 142
138 122 142
138 122 142
138 122 142
138 121 142
138 121 142
138 120 142
138 120 142
138 120 142
138 119 142
137 119 142
137 119 142
137 118 142
137 118 142
137 118 142
137 117 142
137 117 142
137 117 142
137 116 142
137 116 142
137 116 142
137 115 142
137 115 142
136 114 142
136 114 142
136 114 142
136 113 142
136 113 142
136 113 142
136 112 142
136 112 142
136 112 142
136 111 142
136 111 142
136 111 142
136 110 142
136 110 142
135 109 142
135 109 142
135 109 142
135 108 142
135 108 142
135 108 142
135 107 142
135 107 142
135 107 142
135 106 142
135 106 142
135 106 142
135 105 142
134 105 142
134 104 142
134 104 142
134 104 142
134 103 142
134 103 142
134 103 142
134 102 142
134 102 142
134 102 142
134 101 142
134 101 142
134 101 142
134 100 142
133 100 142
133 99 142
133 99 142
133 99 142
133 98 142
133 98 142
133 98 142
133 97 142
133 97 142
133 97 142
133 96 142
133 96 142
133 96 142
132 95 142
132 95 142
132 94 142
132 94 142
132 94 142
132 93 142
132 93 142
132 93 142
132 92 142
132 92 142
132 92 142
132 91 142
132 91 142
132 91 142
131 90 142
131 90 142
131 89 142
131 89 142
131 89 142
131 88 142
131 88 142
131 88 142
131 87 142
131 87 142
131 87 142
131 86 142
131 86 142
130 86 142
130 85 142
130 85 142
130 84 142
130 84 142
130 84 142
130 83 142
130 83 142
130 83 142
130 82 142
130 82 142
130 82 142
130 81 142
130 81 142
129 81 142
129 80 142
129 80 142
129 79 142
129 79 142
129 79 142
129 78 142
129 78 142
129 78 142
129 77 142
129 77 142
129 77 142
129 76 142
128 76 142
128 76 142
128 75 142
128 75 142
128 75 142
128 74 142
128 74 142
128 73 142
128 73 142
128 73 142
128 72 142
128 72 142
128 72 142
128 71 142
127 71 142
127 71 142
127 70 142
127 70 142
127 70 142
127 69 142
127 69 142
127 68 142
127 68 142
127 68 142
127 67 142
127 67 142
127 67 142
127 66 142
126 66 142
126 66 142
126 65 142
126 65 142
126 65 142
126 64 142
126 64 142
126 63 142
126 63 142
126 63 142
126 62 142
126 62 142
126 62 142
125 61 142
125 61 142
125 61 142
125 60 142
125 60 142
125 60 142
125 59 142
125 59 142
125 58 142
125 58 142
125 58 142
125 57 142
125 57 142
125 57 142
124 56 142
124 56 142
124 56 142
124 55 142
124 55 142
124 55 142
124 54 142
124 54 142
124 53 142
124 53 142
124 53 142
124 52 142
124 52 142
123 52 142
123 51 142
123 51 142
123 51 142
123 50 142
123 50 142
123 50 142
123 49 142
123 49 142
123 48 142
123 48 142
123 48 142
123 47 142
123 47 142
122 47 142
122 46 142
122 46 142
122 46 142
122 45 142
122 45 142
122 45 142
122 44 142
122 44 142
122 43 142
122 43 142
122 43 142
122 42 142
121 42 142
121 42 142
121 41 142
121 41 142
121 41 142
121 40 142
121 40 142
121 40 142
121 39 142
121 39 142
121 39 142
121 38 142
121 38 142
121 37 142
120 37 142
120 37 142
120 36 142
120 36 142
120 36 142
120 35 142
120 35 142
120 35 142
120 34 142
120 34 142
120 34 142
120 33 142
120 33 142
119 32 142
119 32 142
119 32 142
119 31 142
119 31 142
119 31 142
119 30 142
119 30 142
119 30 142
119 29 142
119 29 142
119 29 142
119 28 142
119 28 142
118 27 142
118 27 142
118 27 142
118 26 142
118 26 142
118 26 142
118 25 142
118 25 142
118 25 142
118 24 142
118 24 142
118 24 142
118 23 142
117 23 142
117 22 142
117 22 142
117 22 142
117 21 142
117 21 142
117 21 142
117 20 142
117 20 142
117 20 142
117 19 142
117 19 142
117 19 142
117 18 142
116 18 142
116 17 142
116 17 142
116 17 142
116 16 142
116 16 142
116 16 142
116 15 142
116 15 142
116 15 142
116 14 142
116 14 142
116 14 142
115 13 142
115 13 142
115 12 142
115 12 142
115 12 142
115 11 142
115 11 142
115 11 142
115 10 142
115 10 142
115 10 142
115 9 142
115 9 142
115 9 142
114 8 142
114 8 142
114 7 142
114 7 142
114 7 142
114 6 142
114 6 142
114 6 142
114 5 142
114 5 142
114 5 142
114 4 142
114 4 142
114 4 142
113 3 142
113 3 142
113 2 142
113 2 142
113 2 142
113 1 142
113 1 142
113 1 142
113 0 142
113 0 142
141 141 141
141 141 141
141 140 141
141 140 141
141 140 141
141 139 141
141 139 141
140 138 141
140 138 141
140 138 141
140 137 141
140 137 141
140 137 141
140 136 141
140 136 141
140 136 141
140 135 141
140 135 141
140 135 141
140 134 141
140 134 141
140 134 141
139 133 141
139 133 141
139 132 141
139 132 141
139 132 141
139 131 141
139 131 141
139 131 141
139 130 141
139 130 141
139 130 141
139 129 141
139 129 141
139 129 141
139 128 141
138 128 141
138 128 141
138 127 141
138 127 141
138 126 141
138 126 141
138 126 141
138 125 141
138 125 141
138 125 141
138 124 141
138 124 141
138 124 141
138 123 141
138 123 141
137 123 141
137 122 141
137 122 141
137 122 141
137 121 141
137 121 141
137 120 141
137 120 141
137 120 141
137 119 141
137 119 141
137 119 141
137 118 141
137 118 141
137 118 141
136 117 141
136 117 141
136 117 141
136 116 141
136 116 141
136 116 141
136 115 141
136 115 141
136 114 141
136 114 141
136 114 141
136 113 141
136 113 141
136 113 141
135 112 141
135 112 141
135 112 141
135 111 141
135 111 141
135 111 141
135 110 141
135 110 141
135 110 141
135 109 141
135 109 141
135 108 141
135 108 141
135 108 141
135 107 141
134 107 141
134 107 141
134 106 141
134 106 141
134 106 141
134 105 141
134 105 141
134 105 141
134 104 141
134 104 141
134 104 141
134 103 141
134 103 141
134 102 141
134 102 141
133 102 141
133 101 141
133 101 141
133 101 141
133 100 141
133 100 141
133 100 141
133 99 141
133 99 141
133 99 141
133 98 141
133 98 141
133 98 141
133 97 141
133 97 141
132 96 141
132 96 141
132 96 141
132 95 141
132 95 141
132 95 141
132 94 141
132 94 141
132 94 141
132 93 141
132 93 141
132 93 141
132 92 141
132 92 141
132 91 141
131 91 141
131 91 141
131 90 141
131 90 141
131 90 141
131 89 141
131 89 141
131 89 141
131 88 141
131 88 141
131 88 141
131 87 141
131 87 141
131 87 141
131 86 141
130 86 141
130 85 141
130 85 141
130 85 141
130 84 141
130 84 141
130 84 141
130 83 141
130 83 141
130 83 141
130 82 141
130 82 141
130 82 141
130 81 141
129 81 141
129 81 141
129 80 141
129 80 141
129 79 141
129 79 141
129 79 141
129 78 141
129 78 141
129 78 141
129 77 141
129 77 141
129 77 141
129 76 141
129 76 141
128 76 141
128 75 141
128 75 141
128 75 141
128 74 141
128 74 141
128 73 141
128 73 141
128 73 141
128 72 141
128 72 141
128 72 141
128 71 141
128 71 141
128 71 141
127 70 141
127 70 141
127 70 141
127 69 141
127 69 141
127 69 141
127 68 141
127 68 141
127 67 141
127 67 141
127 67 141
127 66 141
127 66 141
127 66 141
127 65 141
126 65 141
126 65 141
126 64 141
126 64 141
126 64 141
126 63 141
126 63 141
126 63 141
126 62 141
126 62 141
126 61 141
126 61 141
126 61 141
126 60 141
126 60 141
125 60 141
125 59 141
125 59 141
125 59 141
125 58 141
125 58 141
125 58 141
125 57 141
125 57 141
125 57 141
125 56 141
125 56 141
125 55 141
125 55 141
124 55 141
124 54 141
124 54 141
124 54 141
124 53 141
124 53 141
124 53 141
124 52 141
124 52 141
124 52 141
124 51 141
124 51 141
124 51 141
124 50 141
124 50 141
123 49 141
123 49 141
123 49 141
123 48 141
123 48 141
123 48 141
123 47 141
123 47 141
123 47 141
123 46 141
123 46 141
123 46 141
123 45 141
123 45 141
123 45 141
122 44 141
122 44 141
122 43 141
122 43 141
122 43 141
122 42 141
122 42 141
122 42 141
122 41 141
122 41 141
122 41 141
122 40 141
122 40 141
122 40 141
122 39 141
121 39 141
121 39 141
121 38 141
121 38 141
121 37 141
121 37 141
121 37 141
121 36 141
121 36 141
121 36 141
121 35 141
121 35 141
121 35 141
121 34 141
121 34 141
120 34 141
120 33 141
120 33 141
120 33 141
120 32 141
120 32 141
120 31 141
120 31 141
120 31 141
120 30 141
120 30 141
120 30 141
120 29 141
120 29 141
120 29 141
119 28 141
119 28 141
119 28 141
119 27 141
119 27 141
119 26 141
119 26 141
119 26 141
119 25 141
119 25 141
119 25 141
119 24 141
119 24 141
119 24 141
118 23 141
118 23 141
118 23 141
118 22 141
118 22 141
118 22 141
118 21 141
118 21 141
118 20 141
118 20 141
118 20 141
118 19 141
118 19 141
118 19 141
118 18 141
117 18 141
117 18 141
117 17 141
117 17 141
117 17 141
117 16 141
117 16 141
117 16 141
117 15 141
117 15 141
117 14 141
117 14 141
117 14 141
117 13 141
117 13 141
116 13 141
116 12 141
116 12 141
116 12 141
116 11 141
116 11 141
116 11 141
116 10 141
116 10 141
116 10 141
116 9 141
116 9 141
116 8 141
116 8 141
116 8 141
115 7 141
115 7 141
115 7 141
115 6 141
115 6 141
115 6 141
115 5 141
115 5 141
115 5 141
115 4 141
115 4 141
115 4 141
115 3 141
115 3 141
115 2 141
114 2 141
114 2 141
114 1 141
114 1 141
114 1 141
114 0 141
114 0 141
140 140 140
140 139 140
140 139 140
139 139 140
139 138 140
139 138 140
139 138 140
139 137 140
139 137 140
139 137 140
139 136 140
139 136 140
139 135 140
139 135 140
139 135 140
139 134 140
139 134 140
139 134 140
139 133 140
139 133 140
138 133 140
138 132 140
138 132 140
138 132 140
138 131 140
138 131 140
138 131 140
138 130 140
138 130 140
138 130 140
138 129 140
138 129 140
138 128 140
138 128 140
138 128 140
138 127 140
137 127 140
137 127 140
137 126 140
137 126 140
137 126 140
137 125 140
137 125 140
137 125 140
137 124 140
137 124 140
137 124 140
137 123 140
137 123 140
137 123 140
137 122 140
137 122 140
137 121 140
136 121 140
136 121 140
136 120 140
136 120 140
136 120 140
136 119 140
136 119 140
136 119 140
136 118 140
136 118 140
136 118 140
136 117 140
136 117 140
136 117 140
136 116 140
136 116 140
135 116 140
135 115 140
135 115 140
135 114 140
135 114 140
135 114 140
135 113 140
135 113 140
135 113 140
135 112 140
135 112 140
135 112 140
135 111 140
135 111 140
135 111 140
135 110 140
134 110 140
134 110 140
134 109 140
134 109 140
134 109 140
134 108 140
134 108 140
134 107 140
134 107 140
134 107 140
134 106 140
134 106 140
134 106 140
134 105 140
134 105 140
134 105 140
134 104 140
133 104 140
133 104 140
133 103 140
133 103 140
133 103 140
133 102 140
133 102 140
133 102 140
133 101 140
133 101 140
133 100 140
133 100 140
133 100 140
133 99 140
133 99 140
133 99 140
132 98 140
132 98 140
132 98 140
132 97 140
132 97 140
132 97 140
132 96 140
132 96 140
132 96 140
132 95 140
132 95 140
132 95 140
132 94 140
132 94 140
132 93 140
132 93 140
131 93 140
131 92 140
131 92 140
131 92 140
131 91 140
131 91 140
131 91 140
131 90 140
131 90 140
131 90 140
131 89 140
131 89 140
131 89 140
131 88 140
131 88 140
131 88 140
131 87 140
130 87 140
130 86 140
130 86 140
130 86 140
130 85 140
130 85 140
130 85 140
130 84 140
130 84 140
130 84 140
130 83 140
130 83 140
130 83 140
130 82 140
130 82 140
130 82 140
129 81 140
129 81 140
129 81 140
129 80 140
129 80 140
129 79 140
129 79 140
129 79 140
129 78 140
129 78 140
129 78 140
129 77 140
129 77 140
129 77 140
129 76 140
129 76 140
129 76 140
128 75 140
128 75 140
128 75 140
128 74 140
128 74 140
128 74 140
128 73 140
128 73 140
128 72 140
128 72 140
128 72 140
128 71 140
128 71 140
128 71 140
128 70 140
128 70 140
127 70 140
127 69 140
127 69 140
127 69 140
127 68 140
127 68 140
127 68 140
127 67 140
127 67 140
127 67 140
127 66 140
127 66 140
127 65 140
127 65 140
127 65 140
127 64 140
126 64 140
126 64 140
126 63 140
126 63 140
126 63 140
126 62 140
126 62 140
126 62 140
126 61 140
126 61 140
126 61 140
126 60 140
126 60 140
126 60 140
126 59 140
126 59 140
126 58 140
125 58 140
125 58 140
125 57 140
125 57 140
125 57 140
125 56 140
125 56 140
125 56 140
125 55 140
125 55 140
125 55 140
125 54 140
125 54 140
125 54 140
125 53 140
125 53 140
124 53 140
124 52 140
124 52 140
124 51 140
124 51 140
124 51 140
124 50 140
124 50 140
124 50 140
124 49 140
124 49 140
124 49 140
124 48 140
124 48 140
124 48 140
124 47 140
124 47 140
123 47 140
123 46 140
123 46 140
123 46 140
123 45 140
123 45 140
123 44 140
123 44 140
123 44 140
123 43 140
123 43 140
123 43 140
123 42 140
123 42 140
123 42 140
123 41 140
122 41 140
122 41 140
122 40 140
122 40 140
122 40 140
122 39 140
122 39 140
122 39 140
122 38 140
122 38 140
122 37 140
122 37 140
122 37 140
122 36 140
122 36 140
122 36 140
121 35 140
121 35 140
121 35 140
121 34 140
121 34 140
121 34 140
121 33 140
121 33 140
121 33 140
121 32 140
121 32 140
121 32 140
121 31 140
121 31 140
121 30 140
121 30 140
121 30 140
120 29 140
120 29 140
120 29 140
120 28 140
120 28 140
120 28 140
120 27 140
120 27 140
120 27 140
120 26 140
120 26 140
120 26 140
120 25 140
120 25 140
120 25 140
120 24 140
119 24 140
119 23 140
119 23 140
119 23 140
119 22 140
119 22 140
119 22 140
119 21 140
119 21 140
119 21 140
119 20 140
119 20 140
119 20 140
119 19 140
119 19 140
119 19 140
118 18 140
118 18 140
118 18 140
118 17 140
118 17 140
118 16 140
118 16 140
118 16 140
118 15 140
118 15 140
118 15 140
118 14 140
118 14 140
118 14 140
118 13 140
118 13 140
118 13 140
117 12 140
117 12 140
117 12 140
117 11 140
117 11 140
117 11 140
117 10 140
117 10 140
117 9 140
117 9 140
117 9 140
117 8 140
117 8 140
117 8 140
117 7 140
117 7 140
116 7 140
116 6 140
116 6 140
116 6 140
116 5 140
116 5 140
116 5 140
116 4 140
116 4 140
116 4 140
116 3 140
116 3 140
116 2 140
116 2 140
116 2 140
116 1 140
116 1 140
115 1 140
115 0 140
115 0 140
138 138 138
138 138 138
138 138 138
138 137 138
138 137 138
138 137 138
138 136 138
138 136 138
138 136 138
138 135 138
138 135 138
138 135 138
138 134 138
138 134 138
138 134 138
138 133 138
138 133 138
137 132 138
137 132 138
137 132 138
137 131 138
137 131 138
137 131 138
137 130 138
137 130 138
137 130 138
137 129 138
137 129 138
137 129 138
137 128 138
137 128 138
137 128 138
137 127 138
137 127 138
137 127 138
136 126 138
136 126 138
136 126 138
136 125 138
136 125 138
136 125 138
136 124 138
136 124 138
136 123 138
136 123 138
136 123 138
136 122 138
136 122 138
136 122 138
136 121 138
136 121 138
136 121 138
136 120 138
135 120 138
135 120 138
135 119 138
135 119 138
135 119 138
135 118 138
135 118 138
135 118 138
135 117 138
135 117 138
135 117 138
135 116 138
135 116 138
135 116 138
135 115 138
135 115 138
135 114 138
135 114 138
135 114 138
134 113 138
134 113 138
134 113 138
134 112 138
134 112 138
134 112 138
134 111 138
134 111 138
134 111 138
134 110 138
134 110 138
134 110 138
134 109 138
134 109 138
134 109 138
134 108 138
134 108 138
134 108 138
133 107 138
133 107 138
133 106 138
133 106 138
133 106 138
133 105 138
133 105 138
133 105 138
133 104 138
133 104 138
133 104 138
133 103 138
133 103 138
133 103 138
133 102 138
133 102 138
133 102 138
133 101 138
132 101 138
132 101 138
132 100 138
132 100 138
132 100 138
132 99 138
132 99 138
132 99 138
132 98 138
132 98 138
132 97 138
132 97 138
132 97 138
132 96 138
132 96 138
132 96 138
132 95 138
132 95 138
132 95 138
131 94 138
131 94 138
131 94 138
131 93 138
131 93 138
131 93 138
131 92 138
131 92 138
131 92 138
131 91 138
131 91 138
131 91 138
131 90 138
131 90 138
131 89 138
131 89 138
131 89 138
131 88 138
130 88 138
130 88 138
130 87 138
130 87 138
130 87 138
130 86 138
130 86 138
130 86 138
130 85 138
130 85 138
130 85 138
130 84 138
130 84 138
130 84 138
130 83 138
130 83 138
130 83 138
130 82 138
129 82 138
129 82 138
129 81 138
129 81 138
129 80 138
129 80 138
129 80 138
129 79 138
129 79 138
129 79 138
129 78 138
129 78 138
129 78 138
129 77 138
129 77 138
129 77 138
129 76 138
129 76 138
129 76 138
128 75 138
128 75 138
128 75 138
128 74 138
128 74 138
128 74 138
128 73 138
128 73 138
128 72 138
128 72 138
128 72 138
128 71 138
128 71 138
128 71 138
128 70 138
128 70 138
128 70 138
128 69 138
127 69 138
127 69 138
127 68 138
127 68 138
127 68 138
127 67 138
127 67 138
127 67 138
127 66 138
127 66 138
127 66 138
127 65 138
127 65 138
127 65 138
127 64 138
127 64 138
127 63 138
127 63 138
126 63 138
126 62 138
126 62 138
126 62 138
126 61 138
126 61 138
126 61 138
126 60 138
126 60 138
126 60 138
126 59 138
126 59 138
126 59 138
126 58 138
126 58 138
126 58 138
126 57 138
126 57 138
126 57 138
125 56 138
125 56 138
125 55 138
125 55 138
125 55 138
125 54 138
125 54 138
125 54 138
125 53 138
125 53 138
125 53 138
125 52 138
125 52 138
125 52 138
125 51 138
125 51 138
125 51 138
125 50 138
124 50 138
124 50 138
124 49 138
124 49 138
124 49 138
124 48 138
124 48 138
124 48 138
124 47 138
124 47 138
124 46 138
124 46 138
124 46 138
124 45 138
124 45 138
124 45 138
124 44 138
124 44 138
123 44 138
123 43 138
123 43 138
123 43 138
123 42 138
123 42 138
123 42 138
123 41 138
123 41 138
123 41 138
123 40 138
123 40 138
123 40 138
123 39 138
123 39 138
123 39 138
123 38 138
123 38 138
123 37 138
122 37 138
122 37 138
122 36 138
122 36 138
122 36 138
122 35 138
122 35 138
122 35 138
122 34 138
122 34 138
122 34 138
122 33 138
122 33 138
122 33 138
122 32 138
122 32 138
122 32 138
122 31 138
121 31 138
121 31 138
121 30 138
121 30 138
121 29 138
121 29 138
121 29 138
121 28 138
121 28 138
121 28 138
121 27 138
121 27 138
121 27 138
121 26 138
121 26 138
121 26 138
121 25 138
121 25 138
120 25 138
120 24 138
120 24 138
120 24 138
120 23 138
120 23 138
120 23 138
120 22 138
120 22 138
120 22 138
120 21 138
120 21 138
120 20 138
120 20 138
120 20 138
120 19 138
120 19 138
120 19 138
120 18 138
119 18 138
119 18 138
119 17 138
119 17 138
119 17 138
119 16 138
119 16 138
119 16 138
119 15 138
119 15 138
119 15 138
119 14 138
119 14 138
119 14 138
119 13 138
119 13 138
119 12 138
119 12 138
118 12 138
118 11 138
118 11 138
118 11 138
118 10 138
118 10 138
118 10 138
118 9 138
118 9 138
118 9 138
118 8 138
118 8 138
118 8 138
118 7 138
118 7 138
118 7 138
118 6 138
118 6 138
117 6 138
117 5 138
117 5 138
117 5 138
117 4 138
117 4 138
117 3 138
117 3 138
117 3 138
117 2 138
117 2 138
117 2 138
117 1 138
117 1 138
117 1 138
117 0 138
117 0 138
137 137 137
137 137 137
137 136 137
137 136 137
137 136 137
137 135 137
137 135 137
137 135 137
137 134 137
137 134 137
137 134 137
137 133 137
137 133 137
136 133 137
136 132 137
136 132 137
136 132 137
136 131 137
136 131 137
136 131 137
136 130 137
136 130 137
136 130 137
136 129 137
136 129 137
136 129 137
136 128 137
136 128 137
136 127 137
136 127 137
136 127 137
136 126 137
136 126 137
136 126 137
135 125 137
135 125 137
135 125 137
135 124 137
135 124 137
135 124 137
135 123 137
135 123 137
135 123 137
135 122 137
135 122 137
135 122 137
135 121 137
135 121 137
135 121 137
135 120 137
135 120 137
135 120 137
135 119 137
135 119 137
135 119 137
134 118 137
134 118 137
134 118 137
134 117 137
134 117 137
134 116 137
134 116 137
134 116 137
134 115 137
134 115 137
134 115 137
134 114 137
134 114 137
134 114 137
134 113 137
134 113 137
134 113 137
134 112 137
134 112 137
134 112 137
133 111 137
133 111 137
133 111 137
133 110 137
133 110 137
133 110 137
133 109 137
133 109 137
133 109 137
133 108 137
133 108 137
133 108 137
133 107 137
133 107 137
133 107 137
133 106 137
133 106 137
133 105 137
133 105 137
133 105 137
133 104 137
132 104 137
132 104 137
132 103 137
132 103 137
132 103 137
132 102 137
132 102 137
132 102 137
132 101 137
132 101 137
132 101 137
132 100 137
132 100 137
132 100 137
132 99 137
132 99 137
132 99 137
132 98 137
132 98 137
132 98 137
132 97 137
131 97 137
131 97 137
131 96 137
131 96 137
131 96 137
131 95 137
131 95 137
131 94 137
131 94 137
131 94 137
131 93 137
131 93 137
131 93 137
131 92 137
131 92 137
131 92 137
131 91 137
131 91 137
131 91 137
131 90 137
131 90 137
130 90 137
130 89 137
130 89 137
130 89 137
130 88 137
130 88 137
130 88 137
130 87 137
130 87 137
130 87 137
130 86 137
130 86 137
130 86 137
130 85 137
130 85 137
130 85 137
130 84 137
130 84 137
130 84 137
130 83 137
129 83 137
129 82 137
129 82 137
129 82 137
129 81 137
129 81 137
129 81 137
129 80 137
129 80 137
129 80 137
129 79 137
129 79 137
129 79 137
129 78 137
129 78 137
129 78 137
129 77 137
129 77 137
129 77 137
129 76 137
129 76 137
128 76 137
128 75 137
128 75 137
128 75 137
128 74 137
128 74 137
128 74 137
128 73 137
128 73 137
128 73 137
128 72 137
128 72 137
128 71 137
128 71 137
128 71 137
128 70 137
128 70 137
128 70 137
128 69 137
128 69 137
128 69 137
127 68 137
127 68 137
127 68 137
127 67 137
127 67 137
127 67 137
127 66 137
127 66 137
127 66 137
127 65 137
127 65 137
127 65 137
127 64 137
127 64 137
127 64 137
127 63 137
127 63 137
127 63 137
127 62 137
127 62 137
127 62 137
126 61 137
126 61 137
126 60 137
126 60 137
126 60 137
126 59 137
126 59 137
126 59 137
126 58 137
126 58 137
126 58 137
126 57 137
126 57 137
126 57 137
126 56 137
126 56 137
126 56 137
126 55 137
126 55 137
126 55 137
126 54 137
125 54 137
125 54 137
125 53 137
125 53 137
125 53 137
125 52 137
125 52 137
125 52 137
125 51 137
125 51 137
125 51 137
125 50 137
125 50 137
125 49 137
125 49 137
125 49 137
125 48 137
125 48 137
125 48 137
125 47 137
124 47 137
124 47 137
124 46 137
124 46 137
124 46 137
124 45 137
124 45 137
124 45 137
124 44 137
124 44 137
124 44 137
124 43 137
124 43 137
124 43 137
124 42 137
124 42 137
124 42 137
124 41 137
124 41 137
124 41 137
124 40 137
123 40 137
123 40 137
123 39 137
123 39 137
123 38 137
123 38 137
123 38 137
123 37 137
123 37 137
123 37 137
123 36 137
123 36 137
123 36 137
123 35 137
123 35 137
123 35 137
123 34 137
123 34 137
123 34 137
123 33 137
123 33 137
122 33 137
122 32 137
122 32 137
122 32 137
122 31 137
122 31 137
122 31 137
122 30 137
122 30 137
122 30 137
122 29 137
122 29 137
122 29 137
122 28 137
122 28 137
122 27 137
122 27 137
122 27 137
122 26 137
122 26 137
122 26 137
121 25 137
121 25 137
121 25 137
121 24 137
121 24 137
121 24 137
121 23 137
121 23 137
121 23 137
121 22 137
121 22 137
121 22 137
121 21 137
121 21 137
121 21 137
121 20 137
121 20 137
121 20 137
121 19 137
121 19 137
120 19 137
120 18 137
120 18 137
120 18 137
120 17 137
120 17 137
120 16 137
120 16 137
120 16 137
120 15 137
120 15 137
120 15 137
120 14 137
120 14 137
120 14 137
120 13 137
120 13 137
120 13 137
120 12 137
120 12 137
120 12 137
119 11 137
119 11 137
119 11 137
119 10 137
119 10 137
119 10 137
119 9 137
119 9 137
119 9 137
119 8 137
119 8 137
119 8 137
119 7 137
119 7 137
119 7 137
119 6 137
119 6 137
119 5 137
119 5 137
119 5 137
119 4 137
118 4 137
118 4 137
118 3 137
118 3 137
118 3 137
118 2 137
118 2 137
118 2 137
118 1 137
118 1 137
118 1 137
118 0 137
118 0 137
136 136 136
136 135 136
136 135 136
136 135 136
136 134 136
136 134 136
136 134 136
136 133 136
135 133 136
135 133 136
135 132 136
135 132 136
135 132 136
135 131 136
135 131 136
135 131 136
135 130 136
135 130 136
135 130 136
135 129 136
135 129 136
135 129 136
135 128 136
135 128 136
135 128 136
135 127 136
135 127 136
135 127 136
135 126 136
135 126 136
135 126 136
135 125 136
134 125 136
134 125 136
134 124 136
134 124 136
134 124 136
134 123 136
134 123 136
134 123 136
134 122 136
134 122 136
134 122 136
134 121 136
134 121 136
134 121 136
134 120 136
134 120 136
134 119 136
134 119 136
134 119 136
134 118 136
134 118 136
134 118 136
134 117 136
134 117 136
133 117 136
133 116 136
133 116 136
133 116 136
133 115 136
133 115 136
133 115 136
133 114 136
133 114 136
133 114 136
133 113 136
133 113 136
133 113 136
133 112 136
133 112 136
133 112 136
133 111 136
133 111 136
133 111 136
133 110 136
133 110 136
133 110 136
133 109 136
133 109 136
132 109 136
132 108 136
132 108 136
132 108 136
132 107 136
132 107 136
132 107 136
132 106 136
132 106 136
132 106 136
132 105 136
132 105 136
132 105 136
132 104 136
132 104 136
132 103 136
132 103 136
132 103 136
132 102 136
132 102 136
132 102 136
132 101 136
132 101 136
132 101 136
131 100 136
131 100 136
131 100 136
131 99 136
131 99 136
131 99 136
131 98 136
131 98 136
131 98 136
131 97 136
131 97 136
131 97 136
131 96 136
131 96 136
131 96 136
131 95 136
131 95 136
131 95 136
131 94 136
131 94 136
131 94 136
131 93 136
131 93 136
131 93 136
130 92 136
130 92 136
130 92 136
130 91 136
130 91 136
130 91 136
130 90 136
130 90 136
130 90 136
130 89 136
130 89 136
130 89 136
130 88 136
130 88 136
130 87 136
130 87 136
130 87 136
130 86 136
130 86 136
130 86 136
130 85 136
130 85 136
130 85 136
130 84 136
129 84 136
129 84 136
129 83 136
129 83 136
129 83 136
129 82 136
129 82 136
129 82 136
129 81 136
129 81 136
129 81 136
129 80 136
129 80 136
129 80 136
129 79 136
129 79 136
129 79 136
129 78 136
129 78 136
129 78 136
129 77 136
129 77 136
129 77 136
129 76 136
128 76 136
128 76 136
128 75 136
128 75 136
128 75 136
128 74 136
128 74 136
128 74 136
128 73 136
128 73 136
128 73 136
128 72 136
128 72 136
128 71 136
128 71 136
128 71 136
128 70 136
128 70 136
128 70 136
128 69 136
128 69 136
128 69 136
128 68 136
128 68 136
127 68 136
127 67 136
127 67 136
127 67 136
127 66 136
127 66 136
127 66 136
127 65 136
127 65 136
127 65 136
127 64 136
127 64 136
127 64 136
127 63 136
127 63 136
127 63 136
127 62 136
127 62 136
127 62 136
127 61 136
127 61 136
127 61 136
127 60 136
127 60 136
126 60 136
126 59 136
126 59 136
126 59 136
126 58 136
126 58 136
126 58 136
126 57 136
126 57 136
126 57 136
126 56 136
126 56 136
126 55 136
126 55 136
126 55 136
126 54 136
126 54 136
126 54 136
126 53 136
126 53 136
126 53 136
126 52 136
126 52 136
126 52 136
125 51 136
125 51 136
125 51 136
125 50 136
125 50 136
125 50 136
125 49 136
125 49 136
125 49 136
125 48 136
125 48 136
125 48 136
125 47 136
125 47 136
125 47 136
125 46 136
125 46 136
125 46 136
125 45 136
125 45 136
125 45 136
125 44 136
125 44 136
125 44 136
124 43 136
124 43 136
124 43 136
124 42 136
124 42 136
124 42 136
124 41 136
124 41 136
124 41 136
124 40 136
124 40 136
124 39 136
124 39 136
124 39 136
124 38 136
124 38 136
124 38 136
124 37 136
124 37 136
124 37 136
124 36 136
124 36 136
124 36 136
124 35 136
123 35 136
123 35 136
123 34 136
123 34 136
123 34 136
123 33 136
123 33 136
123 33 136
123 32 136
123 32 136
123 32 136
123 31 136
123 31 136
123 31 136
123 30 136
123 30 136
123 30 136
123 29 136
123 29 136
123 29 136
123 28 136
123 28 136
123 28 136
123 27 136
122 27 136
122 27 136
122 26 136
122 26 136
122 26 136
122 25 136
122 25 136
122 25 136
122 24 136
122 24 136
122 23 136
122 23 136
122 23 136
122 22 136
122 22 136
122 22 136
122 21 136
122 21 136
122 21 136
122 20 136
122 20 136
122 20 136
122 19 136
122 19 136
121 19 136
121 18 136
121 18 136
121 18 136
121 17 136
121 17 136
121 17 136
121 16 136
121 16 136
121 16 136
121 15 136
121 15 136
121 15 136
121 14 136
121 14 136
121 14 136
121 13 136
121 13 136
121 13 136
121 12 136
121 12 136
121 12 136
121 11 136
121 11 136
120 11 136
120 10 136
120 10 136
120 10 136
120 9 136
120 9 136
120 9 136
120 8 136
120 8 136
120 7 136
120 7 136
120 7 136
120 6 136
120 6 136
120 6 136
120 5 136
120 5 136
120 5 136
120 4 136
120 4 136
120 4 136
120 3 136
120 3 136
120 3 136
119 2 136
119 2 136
119 2 136
119 1 136
119 1 136
119 1 136
119 0 136
119 0 136
135 135 135
135 134 135
134 134 135
134 134 135
134 133 135
134 133 135
134 133 135
134 132 135
134 132 135
134 132 135
134 131 135
134 131 135
134 131 135
134 130 135
134 130 135
134 129 135
134 129 135
134 129 135
134 128 135
134 128 135
134 128 135
134 127 135
134 127 135
134 127 135
134 126 135
134 126 135
134 126 135
134 125 135
134 125 135
134 125 135
133 124 135
133 124 135
133 124 135
133 123 135
133 123 135
133 123 135
133 122 135
133 122 135
133 122 135
133 121 135
133 121 135
133 121 135
133 120 135
133 120 135
133 120 135
133 119 135
133 119 135
133 119 135
133 118 135
133 118 135
133 118 135
133 117 135
133 117 135
133 117 135
133 116 135
133 116 135
133 116 135
133 115 135
132 115 135
132 115 135
132 114 135
132 114 135
132 114 135
132 113 135
132 113 135
132 113 135
132 112 135
132 112 135
132 112 135
132 111 135
132 111 135
132 111 135
132 110 135
132 110 135
132 110 135
132 109 135
132 109 135
132 109 135
132 108 135
132 108 135
132 108 135
132 107 135
132 107 135
132 107 135
132 106 135
132 106 135
132 106 135
131 105 135
131 105 135
131 105 135
131 104 135
131 104 135
131 104 135
131 103 135
131 103 135
131 103 135
131 102 135
131 102 135
131 102 135
131 101 135
131 101 135
131 100 135
131 100 135
131 100 135
131 99 135
131 99 135
131 99 135
131 98 135
131 98 135
131 98 135
131 97 135
131 97 135
131 97 135
131 96 135
131 96 135
130 96 135
130 95 135
130 95 135
130 95 135
130 94 135
130 94 135
130 94 135
130 93 135
130 93 135
130 93 135
130 92 135
130 92 135
130 92 135
130 91 135
130 91 135
130 91 135
130 90 135
130 90 135
130 90 135
130 89 135
130 89 135
130 89 135
130 88 135
130 88 135
130 88 135
130 87 135
130 87 135
130 87 135
129 86 135
129 86 135
129 86 135
129 85 135
129 85 135
129 85 135
129 84 135
129 84 135
129 84 135
129 83 135
129 83 135
129 83 135
129 82 135
129 82 135
129 82 135
129 81 135
129 81 135
129 81 135
129 80 135
129 80 135
129 80 135
129 79 135
129 79 135
129 79 135
129 78 135
129 78 135
129 78 135
129 77 135
129 77 135
128 77 135
128 76 135
128 76 135
128 76 135
128 75 135
128 75 135
128 75 135
128 74 135
128 74 135
128 74 135
128 73 135
128 73 135
128 73 135
128 72 135
128 72 135
128 71 135
128 71 135
128 71 135
128 70 135
128 70 135
128 70 135
128 69 135
128 69 135
128 69 135
128 68 135
128 68 135
128 68 135
128 67 135
127 67 135
127 67 135
127 66 135
127 66 135
127 66 135
127 65 135
127 65 135
127 65 135
127 64 135
127 64 135
127 64 135
127 63 135
127 63 135
127 63 135
127 62 135
127 62 135
127 62 135
127 61 135
127 61 135
127 61 135
127 60 135
127 60 135
127 60 135
127 59 135
127 59 135
127 59 135
127 58 135
127 58 135
126 58 135
126 57 135
126 57 135
126 57 135
126 56 135
126 56 135
126 56 135
126 55 135
126 55 135
126 55 135
126 54 135
126 54 135
126 54 135
126 53 135
126 53 135
126 53 135
126 52 135
126 52 135
126 52 135
126 51 135
126 51 135
126 51 135
126 50 135
126 50 135
126 50 135
126 49 135
126 49 135
126 49 135
126 48 135
125 48 135
125 48 135
125 47 135
125 47 135
125 47 135
125 46 135
125 46 135
125 46 135
125 45 135
125 45 135
125 45 135
125 44 135
125 44 135
125 44 135
125 43 135
125 43 135
125 42 135
125 42 135
125 42 135
125 41 135
125 41 135
125 41 135
125 40 135
125 40 135
125 40 135
125 39 135
125 39 135
125 39 135
124 38 135
124 38 135
124 38 135
124 37 135
124 37 135
124 37 135
124 36 135
124 36 135
124 36 135
124 35 135
124 35 135
124 35 135
124 34 135
124 34 135
124 34 135
124 33 135
124 33 135
124 33 135
124 32 135
124 32 135
124 32 135
124 31 135
124 31 135
124 31 135
124 30 135
124 30 135
124 30 135
124 29 135
123 29 135
123 29 135
123 28 135
123 28 135
123 28 135
123 27 135
123 27 135
123 27 135
123 26 135
123 26 135
123 26 135
123 25 135
123 25 135
123 25 135
123 24 135
123 24 135
123 24 135
123 23 135
123 23 135
123 23 135
123 22 135
123 22 135
123 22 135
123 21 135
123 21 135
123 21 135
123 20 135
123 20 135
123 20 135
122 19 135
122 19 135
122 19 135
122 18 135
122 18 135
122 18 135
122 17 135
122 17 135
122 17 135
122 16 135
122 16 135
122 16 135
122 15 135
122 15 135
122 15 135
122 14 135
122 14 135
122 13 135
122 13 135
122 13 135
122 12 135
122 12 135
122 12 135
122 11 135
122 11 135
122 11 135
122 10 135
122 10 135
121 10 135
121 9 135
121 9 135
121 9 135
121 8 135
121 8 135
121 8 135
121 7 135
121 7 135
121 7 135
121 6 135
121 6 135
121 6 135
121 5 135
121 5 135
121 5 135
121 4 135
121 4 135
121 4 135
121 3 135
121 3 135
121 3 135
121 2 135
121 2 135
121 2 135
121 1 135
121 1 135
121 1 135
120 0 135
120 0 135
133 133 133
133 133 133
133 133 133
133 132 133
133 132 133
133 132 133
133 131 133
133 131 133
133 131 133
133 130 133
133 130 133
133 130 133
133 129 133
133 129 133
133 129 133
133 128 133
133 128 133
133 128 133
133 127 133
133 127 133
133 127 133
133 126 133
133 126 133
133 126 133
133 125 133
133 125 133
133 125 133
132 124 133
132 124 133
132 124 133
132 123 133
132 123 133
132 123 133
132 122 133
132 122 133
132 122 133
132 121 133
132 121 133
132 121 133
132 120 133
132 120 133
132 120 133
132 119 133
132 119 133
132 119 133
132 118 133
132 118 133
132 118 133
132 117 133
132 117 133
132 117 133
132 116 133
132 116 133
132 116 133
132 115 133
132 115 133
132 115 133
132 114 133
132 114 133
132 114 133
132 113 133
132 113 133
131 113 133
131 112 133
131 112 133
131 112 133
131 111 133
131 111 133
131 111 133
131 110 133
131 110 133
131 110 133
131 109 133
131 109 133
131 109 133
131 108 133
131 108 133
131 108 133
131 107 133
131 107 133
131 107 133
131 106 133
131 106 133
131 106 133
131 105 133
131 105 133
131 105 133
131 104 133
131 104 133
131 104 133
131 103 133
131 103 133
131 103 133
131 102 133
131 102 133
131 102 133
130 101 133
130 101 133
130 101 133
130 100 133
130 100 133
130 100 133
130 99 133
130 99 133
130 99 133
130 98 133
130 98 133
130 98 133
130 97 133
130 97 133
130 97 133
130 96 133
130 96 133
130 96 133
130 95 133
130 95 133
130 95 133
130 94 133
130 94 133
130 94 133
130 93 133
130 93 133
130 93 133
130 92 133
130 92 133
130 92 133
130 91 133
130 91 133
130 91 133
130 90 133
130 90 133
129 90 133
129 89 133
129 89 133
129 89 133
129 88 133
129 88 133
129 88 133
129 87 133
129 87 133
129 87 133
129 86 133
129 86 133
129 86 133
129 85 133
129 85 133
129 85 133
129 84 133
129 84 133
129 84 133
129 83 133
129 83 133
129 82 133
129 82 133
129 82 133
129 81 133
129 81 133
129 81 133
129 80 133
129 80 133
129 80 133
129 79 133
129 79 133
129 79 133
129 78 133
128 78 133
128 78 133
128 77 133
128 77 133
128 77 133
128 76 133
128 76 133
128 76 133
128 75 133
128 75 133
128 75 133
128 74 133
128 74 133
128 74 133
128 73 133
128 73 133
128 73 133
128 72 133
128 72 133
128 72 133
128 71 133
128 71 133
128 71 133
128 70 133
128 70 133
128 70 133
128 69 133
128 69 133
128 69 133
128 68 133
128 68 133
128 68 133
128 67 133
128 67 133
128 67 133
127 66 133
127 66 133
127 66 133
127 65 133
127 65 133
127 65 133
127 64 133
127 64 133
127 64 133
127 63 133
127 63 133
127 63 133
127 62 133
127 62 133
127 62 133
127 61 133
127 61 133
127 61 133
127 60 133
127 60 133
127 60 133
127 59 133
127 59 133
127 59 133
127 58 133
127 58 133
127 58 133
127 57 133
127 57 133
127 57 133
127 56 133
127 56 133
127 56 133
127 55 133
127 55 133
126 55 133
126 54 133
126 54 133
126 54 133
126 53 133
126 53 133
126 53 133
126 52 133
126 52 133
126 52 133
126 51 133
126 51 133
126 51 133
126 50 133
126 50 133
126 50 133
126 49 133
126 49 133
126 49 133
126 48 133
126 48 133
126 48 133
126 47 133
126 47 133
126 47 133
126 46 133
126 46 133
126 46 133
126 45 133
126 45 133
126 45 133
126 44 133
126 44 133
126 44 133
125 43 133
125 43 133
125 43 133
125 42 133
125 42 133
125 42 133
125 41 133
125 41 133
125 41 133
125 40 133
125 40 133
125 40 133
125 39 133
125 39 133
125 39 133
125 38 133
125 38 133
125 38 133
125 37 133
125 37 133
125 37 133
125 36 133
125 36 133
125 36 133
125 35 133
125 35 133
125 35 133
125 34 133
125 34 133
125 34 133
125 33 133
125 33 133
125 33 133
125 32 133
125 32 133
124 32 133
124 31 133
124 31 133
124 31 133
124 30 133
124 30 133
124 30 133
124 29 133
124 29 133
124 29 133
124 28 133
124 28 133
124 28 133
124 27 133
124 27 133
124 27 133
124 26 133
124 26 133
124 26 133
124 25 133
124 25 133
124 25 133
124 24 133
124 24 133
124 24 133
124 23 133
124 23 133
124 23 133
124 22 133
124 22 133
124 22 133
124 21 133
124 21 133
124 21 133
123 20 133
123 20 133
123 20 133
123 19 133
123 19 133
123 19 133
123 18 133
123 18 133
123 18 133
123 17 133
123 17 133
123 17 133
123 16 133
123 16 133
123 16 133
123 15 133
123 15 133
123 15 133
123 14 133
123 14 133
123 14 133
123 13 133
123 13 133
123 13 133
123 12 133
123 12 133
123 12 133
123 11 133
123 11 133
123 11 133
123 10 133
123 10 133
123 10 133
123 9 133
123 9 133
122 9 133
122 8 133
122 8 133
122 8 133
122 7 133
122 7 133
122 7 133
122 6 133
122 6 133
122 6 133
122 5 133
122 5 133
122 5 133
122 4 133
122 4 133
122 4 133
122 3 133
122 3 133
122 3 133
122 2 133
122 2 133
122 2 133
122 1 133
122 1 133
122 1 133
122 0 133
122 0 133
132 132 132
132 132 132
132 131 132
132 131 132
132 131 132
132 130 132
132 130 132
132 130 132
132 129 132
132 129 132
132 129 132
132 128 132
132 128 132
132 128 132
132 127 132
132 127 132
132 127 132
132 126 132
132 126 132
132 126 132
132 125 132
132 125 132
131 125 132
131 124 132
131 124 132
131 124 132
131 123 132
131 123 132
131 123 132
131 122 132
131 122 132
131 122 132
131 121 132
131 121 132
131 121 132
131 120 132
131 120 132
131 120 132
131 119 132
131 119 132
131 119 132
131 118 132
131 118 132
131 118 132
131 117 132
131 117 132
131 117 132
131 116 132
131 116 132
131 116 132
131 115 132
131 115 132
131 115 132
131 114 132
131 114 132
131 114 132
131 113 132
131 113 132
131 113 132
131 112 132
131 112 132
131 112 132
131 111 132
131 111 132
131 111 132
131 110 132
131 110 132
130 110 132
130 109 132
130 109 132
130 109 132
130 108 132
130 108 132
130 108 132
130 108 132
130 107 132
130 107 132
130 107 132
130 106 132
130 106 132
130 106 132
130 105 132
130 105 132
130 105 132
130 104 132
130 104 132
130 104 132
130 103 132
130 103 132
130 103 132
130 102 132
130 102 132
130 102 132
130 101 132
130 101 132
130 101 132
130 100 132
130 100 132
130 100 132
130 99 132
130 99 132
130 99 132
130 98 132
130 98 132
130 98 132
130 97 132
130 97 132
130 97 132
130 96 132
130 96 132
130 96 132
129 95 132
129 95 132
129 95 132
129 94 132
129 94 132
129 94 132
129 93 132
129 93 132
129 93 132
129 92 132
129 92 132
129 92 132
129 91 132
129 91 132
129 91 132
129 90 132
129 90 132
129 90 132
129 89 132
129 89 132
129 89 132
129 88 132
129 88 132
129 88 132
129 87 132
129 87 132
129 87 132
129 86 132
129 86 132
129 86 132
129 85 132
129 85 132
129 85 132
129 84 132
129 84 132
129 84 132
129 83 132
129 83 132
129 83 132
129 82 132
129 82 132
129 82 132
129 81 132
129 81 132
129 81 132
128 80 132
128 80 132
128 80 132
128 79 132
128 79 132
128 79 132
128 78 132
128 78 132
128 78 132
128 77 132
128 77 132
128 77 132
128 76 132
128 76 132
128 76 132
128 75 132
128 75 132
128 75 132
128 74 132
128 74 132
128 74 132
128 73 132
128 73 132
128 73 132
128 72 132
128 72 132
128 72 132
128 71 132
128 71 132
128 71 132
128 70 132
128 70 132
128 70 132
128 69 132
128 69 132
128 69 132
128 68 132
128 68 132
128 68 132
128 67 132
128 67 132
128 67 132
128 66 132
128 66 132
127 66 132
127 65 132
127 65 132
127 65 132
127 65 132
127 64 132
127 64 132
127 64 132
127 63 132
127 63 132
127 63 132
127 62 132
127 62 132
127 62 132
127 61 132
127 61 132
127 61 132
127 60 132
127 60 132
127 60 132
127 59 132
127 59 132
127 59 132
127 58 132
127 58 132
127 58 132
127 57 132
127 57 132
127 57 132
127 56 132
127 56 132
127 56 132
127 55 132
127 55 132
127 55 132
127 54 132
127 54 132
127 54 132
127 53 132
127 53 132
127 53 132
127 52 132
127 52 132
127 52 132
126 51 132
126 51 132
126 51 132
126 50 132
126 50 132
126 50 132
126 49 132
126 49 132
126 49 132
126 48 132
126 48 132
126 48 132
126 47 132
126 47 132
126 47 132
126 46 132
126 46 132
126 46 132
126 45 132
126 45 132
126 45 132
126 44 132
126 44 132
126 44 132
126 43 132
126 43 132
126 43 132
126 42 132
126 42 132
126 42 132
126 41 132
126 41 132
126 41 132
126 40 132
126 40 132
126 40 132
126 39 132
126 39 132
126 39 132
126 38 132
126 38 132
126 38 132
126 37 132
126 37 132
126 37 132
125 36 132
125 36 132
125 36 132
125 35 132
125 35 132
125 35 132
125 34 132
125 34 132
125 34 132
125 33 132
125 33 132
125 33 132
125 32 132
125 32 132
125 32 132
125 31 132
125 31 132
125 31 132
125 30 132
125 30 132
125 30 132
125 29 132
125 29 132
125 29 132
125 28 132
125 28 132
125 28 132
125 27 132
125 27 132
125 27 132
125 26 132
125 26 132
125 26 132
125 25 132
125 25 132
125 25 132
125 24 132
125 24 132
125 24 132
125 23 132
125 23 132
125 23 132
125 22 132
125 22 132
124 22 132
124 22 132
124 21 132
124 21 132
124 21 132
124 20 132
124 20 132
124 20 132
124 19 132
124 19 132
124 19 132
124 18 132
124 18 132
124 18 132
124 17 132
124 17 132
124 17 132
124 16 132
124 16 132
124 16 132
124 15 132
124 15 132
124 15 132
124 14 132
124 14 132
124 14 132
124 13 132
124 13 132
124 13 132
124 12 132
124 12 132
124 12 132
124 11 132
124 11 132
124 11 132
124 10 132
124 10 132
124 10 132
124 9 132
124 9 132
124 9 132
124 8 132
124 8 132
124 8 132
124 7 132
123 7 132
123 7 132
123 6 132
123 6 132
123 6 132
123 5 132
123 5 132
123 5 132
123 4 132
123 4 132
123 4 132
123 3 132
123 3 132
123 3 132
123 2 132
123 2 132
123 2 132
123 1 132
123 1 132
123 1 132
123 0 132
123 0 132
131 131 131
131 130 131
131 130 131
131 130 131
131 129 131
131 129 131
131 129 131
131 128 131
131 128 131
131 128 131
131 127 131
131 127 131
131 127 131
130 126 131
130 126 131
130 126 131
130 125 131
130 125 131
130 125 131
130 124 131
130 124 131
130 124 131
130 123 131
130 123 131
130 123 131
130 123 131
130 122 131
130 122 131
130 122 131
130 121 131
130 121 131
130 121 131
130 120 131
130 120 131
130 120 131
130 119 131
130 119 131
130 119 131
130 118 131
130 118 131
130 118 131
130 117 131
130 117 131
130 117 131
130 116 131
130 116 131
130 116 131
130 115 131
130 115 131
130 115 131
130 114 131
130 114 131
130 114 131
130 113 131
130 113 131
130 113 131
130 112 131
130 112 131
130 112 131
130 111 131
130 111 131
130 111 131
130 110 131
130 110 131
130 110 131
130 109 131
130 109 131
130 109 131
130 108 131
130 108 131
130 108 131
130 107 131
130 107 131
130 107 131
130 106 131
129 106 131
129 106 131
129 105 131
129 105 131
129 105 131
129 104 131
129 104 131
129 104 131
129 104 131
129 103 131
129 103 131
129 103 131
129 102 131
129 102 131
129 102 131
129 101 131
129 101 131
129 101 131
129 100 131
129 100 131
129 100 131
129 99 131
129 99 131
129 99 131
129 98 131
129 98 131
129 98 131
129 97 131
129 97 131
129 97 131
129 96 131
129 96 131
129 96 131
129 95 131
129 95 131
129 95 131
129 94 131
129 94 131
129 94 131
129 93 131
129 93 131
129 93 131
129 92 131
129 92 131
129 92 131
129 91 131
129 91 131
129 91 131
129 90 131
129 90 131
129 90 131
129 89 131
129 89 131
129 89 131
129 88 131
129 88 131
129 88 131
129 87 131
129 87 131
129 87 131
129 86 131
129 86 131
129 86 131
128 85 131
128 85 131
128 85 131
128 85 131
128 84 131
128 84 131
128 84 131
128 83 131
128 83 131
128 83 131
128 82 131
128 82 131
128 82 131
128 81 131
128 81 131
128 81 131
128 80 131
128 80 131
128 80 131
128 79 131
128 79 131
128 79 131
128 78 131
128 78 131
128 78 131
128 77 131
128 77 131
128 77 131
128 76 131
128 76 131
128 76 131
128 75 131
128 75 131
128 75 131
128 74 131
128 74 131
128 74 131
128 73 131
128 73 131
128 73 131
128 72 131
128 72 131
128 72 131
128 71 131
128 71 131
128 71 131
128 70 131
128 70 131
128 70 131
128 69 131
128 69 131
128 69 131
128 68 131
128 68 131
128 68 131
128 67 131
128 67 131
128 67 131
128 66 131
128 66 131
128 66 131
128 66 131
127 65 131
127 65 131
127 65 131
127 64 131
127 64 131
127 64 131
127 63 131
127 63 131
127 63 131
127 62 131
127 62 131
127 62 131
127 61 131
127 61 131
127 61 131
127 60 131
127 60 131
127 60 131
127 59 131
127 59 131
127 59 131
127 58 131
127 58 131
127 58 131
127 57 131
127 57 131
127 57 131
127 56 131
127 56 131
127 56 131
127 55 131
127 55 131
127 55 131
127 54 131
127 54 131
127 54 131
127 53 131
127 53 131
127 53 131
127 52 131
127 52 131
127 52 131
127 51 131
127 51 131
127 51 131
127 50 131
127 50 131
127 50 131
127 49 131
127 49 131
127 49 131
127 48 131
127 48 131
127 48 131
127 47 131
127 47 131
127 47 131
127 47 131
127 46 131
127 46 131
127 46 131
127 45 131
126 45 131
126 45 131
126 44 131
126 44 131
126 44 131
126 43 131
126 43 131
126 43 131
126 42 131
126 42 131
126 42 131
126 41 131
126 41 131
126 41 131
126 40 131
126 40 131
126 40 131
126 39 131
126 39 131
126 39 131
126 38 131
126 38 131
126 38 131
126 37 131
126 37 131
126 37 131
126 36 131
126 36 131
126 36 131
126 35 131
126 35 131
126 35 131
126 34 131
126 34 131
126 34 131
126 33 131
126 33 131
126 33 131
126 32 131
126 32 131
126 32 131
126 31 131
126 31 131
126 31 131
126 30 131
126 30 131
126 30 131
126 29 131
126 29 131
126 29 131
126 28 131
126 28 131
126 28 131
126 28 131
126 27 131
126 27 131
126 27 131
126 26 131
126 26 131
126 26 131
126 25 131
126 25 131
126 25 131
125 24 131
125 24 131
125 24 131
125 23 131
125 23 131
125 23 131
125 22 131
125 22 131
125 22 131
125 21 131
125 21 131
125 21 131
125 20 131
125 20 131
125 20 131
125 19 131
125 19 131
125 19 131
125 18 131
125 18 131
125 18 131
125 17 131
125 17 131
125 17 131
125 16 131
125 16 131
125 16 131
125 15 131
125 15 131
125 15 131
125 14 131
125 14 131
125 14 131
125 13 131
125 13 131
125 13 131
125 12 131
125 12 131
125 12 131
125 11 131
125 11 131
125 11 131
125 10 131
125 10 131
125 10 131
125 9 131
125 9 131
125 9 131
125 9 131
125 8 131
125 8 131
125 8 131
125 7 131
125 7 131
125 7 131
125 6 131
125 6 131
125 6 131
125 5 131
125 5 131
125 5 131
125 4 131
124 4 131
124 4 131
124 3 131
124 3 131
124 3 131
124 2 131
124 2 131
124 2 131
124 1 131
124 1 131
124 1 131
124 0 131
124 0 131
129 129 129
129 129 129
129 129 129
129 128 129
129 128 129
129 128 129
129 127 129
129 127 129
129 127 129
129 127 129
129 126 129
129 126 129
129 126 129
129 125 129
129 125 129
129 125 129
129 124 129
129 124 129
129 124 129
129 123 129
129 123 129
129 123 129
129 122 129
129 122 129
129 122 129
129 121 129
129 121 129
129 121 129
129 120 129
129 120 129
129 120 129
129 119 129
129 119 129
129 119 129
129 118 129
129 118 129
129 118 129
129 117 129
129 117 129
129 117 129
129 116 129
129 116 129
129 116 129
129 115 129
129 115 129
129 115 129
129 115 129
129 114 129
129 114 129
129 114 129
129 113 129
129 113 129
129 113 129
129 112 129
129 112 129
129 112 129
129 111 129
129 111 129
129 111 129
129 110 129
129 110 129
129 110 129
129 109 129
129 109 129
129 109 129
129 108 129
129 108 129
129 108 129
129 107 129
129 107 129
129 107 129
129 106 129
129 106 129
129 106 129
129 105 129
129 105 129
129 105 129
129 104 129
129 104 129
129 104 129
129 103 129
129 103 129
129 103 129
129 102 129
129 102 129
129 102 129
129 102 129
129 101 129
129 101 129
129 101 129
129 100 129
129 100 129
129 100 129
129 99 129
129 99 129
129 99 129
128 98 129
128 98 129
128 98 129
128 97 129
128 97 129
128 97 129
128 96 129
128 96 129
128 96 129
128 95 129
128 95 129
128 95 129
128 94 129
128 94 129
128 94 129
128 93 129
128 93 129
128 93 129
128 92 129
128 92 129
128 92 129
128 91 129
128 91 129
128 91 129
128 90 129
128 90 129
128 90 129
128 90 129
128 89 129
128 89 129
128 89 129
128 88 129
128 88 129
128 88 129
128 87 129
128 87 129
128 87 129
128 86 129
128 86 129
128 86 129
128 85 129
128 85 129
128 85 129
128 84 129
128 84 129
128 84 129
128 83 129
128 83 129
128 83 129
128 82 129
128 82 129
128 82 129
128 81 129
128 81 129
128 81 129
128 80 129
128 80 129
128 80 129
128 79 129
128 79 129
128 79 129
128 78 129
128 78 129
128 78 129
128 78 129
128 77 129
128 77 129
128 77 129
128 76 129
128 76 129
128 76 129
128 75 129
128 75 129
128 75 129
128 74 129
128 74 129
128 74 129
128 73 129
128 73 129
128 73 129
128 72 129
128 72 129
128 72 129
128 71 129
128 71 129
128 71 129
128 70 129
128 70 129
128 70 129
128 69 129
128 69 129
128 69 129
128 68 129
128 68 129
128 68 129
128 67 129
128 67 129
128 67 129
128 66 129
128 66 129
128 66 129
128 66 129
128 65 129
128 65 129
127 65 129
127 64 129
127 64 129
127 64 129
127 63 129
127 63 129
127 63 129
127 62 129
127 62 129
127 62 129
127 61 129
127 61 129
127 61 129
127 60 129
127 60 129
127 60 129
127 59 129
127 59 129
127 59 129
127 58 129
127 58 129
127 58 129
127 57 129
127 57 129
127 57 129
127 56 129
127 56 129
127 56 129
127 55 129
127 55 129
127 55 129
127 54 129
127 54 129
127 54 129
127 54 129
127 53 129
127 53 129
127 53 129
127 52 129
127 52 129
127 52 129
127 51 129
127 51 129
127 51 129
127 50 129
127 50 129
127 50 129
127 49 129
127 49 129
127 49 129
127 48 129
127 48 129
127 48 129
127 47 129
127 47 129
127 47 129
127 46 129
127 46 129
127 46 129
127 45 129
127 45 129
127 45 129
127 44 129
127 44 129
127 44 129
127 43 129
127 43 129
127 43 129
127 42 129
127 42 129
127 42 129
127 42 129
127 41 129
127 41 129
127 41 129
127 40 129
127 40 129
127 40 129
127 39 129
127 39 129
127 39 129
127 38 129
127 38 129
127 38 129
127 37 129
127 37 129
127 37 129
127 36 129
127 36 129
127 36 129
127 35 129
127 35 129
127 35 129
127 34 129
127 34 129
127 34 129
127 33 129
127 33 129
127 33 129
127 32 129
127 32 129
127 32 129
127 31 129
127 31 129
126 31 129
126 30 129
126 30 129
126 30 129
126 30 129
126 29 129
126 29 129
126 29 129
126 28 129
126 28 129
126 28 129
126 27 129
126 27 129
126 27 129
126 26 129
126 26 129
126 26 129
126 25 129
126 25 129
126 25 129
126 24 129
126 24 129
126 24 129
126 23 129
126 23 129
126 23 129
126 22 129
126 22 129
126 22 129
126 21 129
126 21 129
126 21 129
126 20 129
126 20 129
126 20 129
126 19 129
126 19 129
126 19 129
126 18 129
126 18 129
126 18 129
126 18 129
126 17 129
126 17 129
126 17 129
126 16 129
126 16 129
126 16 129
126 15 129
126 15 129
126 15 129
126 14 129
126 14 129
126 14 129
126 13 129
126 13 129
126 13 129
126 12 129
126 12 129
126 12 129
126 11 129
126 11 129
126 11 129
126 10 129
126 10 129
126 10 129
126 9 129
126 9 129
126 9 129
126 8 129
126 8 129
126 8 129
126 7 129
126 7 129
126 7 129
126 6 129
126 6 129
126 6 129
126 6 129
126 5 129
126 5 129
126 5 129
126 4 129
126 4 129
126 4 129
126 3 129
126 3 129
126 3 129
126 2 129
126 2 129
126 2 129
126 1 129
126 1 129
126 1 129
126 0 129
126 0 129
128 128 128
128 128 128
128 127 128
128 127 128
128 127 128
128 127 128
128 126 128
128 126 128
128 126 128
128 125 128
128 125 128
128 125 128
128 124 128
128 124 128
128 124 128
128 123 128
128 123 128
128 123 128
128 122 128
128 122 128
128 122 128
128 121 128
128 121 128
128 121 128
128 120 128
128 120 128
128 120 128
128 119 128
128 119 128
128 119 128
128 119 128
128 118 128
128 118 128
128 118 128
128 117 128
128 117 128
128 117 128
128 116 128
128 116 128
128 116 128
128 115 128
128 115 128
128 115 128
128 114 128
128 114 128
128 114 128
128 113 128
128 113 128
128 113 128
128 112 128
128 112 128
128 112 128
128 111 128
128 111 128
128 111 128
128 110 128
128 110 128
128 110 128
128 110 128
128 109 128
128 109 128
128 109 128
128 108 128
128 108 128
128 108 128
128 107 128
128 107 128
128 107 128
128 106 128
128 106 128
128 106 128
128 105 128
128 105 128
128 105 128
128 104 128
128 104 128
128 104 128
128 103 128
128 103 128
128 103 128
128 102 128
128 102 128
128 102 128
128 101 128
128 101 128
128 101 128
128 101 128
128 100 128
128 100 128
128 100 128
128 99 128
128 99 128
128 99 128
128 98 128
128 98 128
128 98 128
128 97 128
128 97 128
128 97 128
128 96 128
128 96 128
128 96 128
128 95 128
128 95 128
128 95 128
128 94 128
128 94 128
128 94 128
128 93 128
128 93 128
128 93 128
128 92 128
128 92 128
128 92 128
128 92 128
128 91 128
128 91 128
128 91 128
128 90 128
128 90 128
128 90 128
128 89 128
128 89 128
128 89 128
128 88 128
128 88 128
128 88 128
128 87 128
128 87 128
128 87 128
128 86 128
128 86 128
128 86 128
128 85 128
128 85 128
128 85 128
128 84 128
128 84 128
128 84 128
128 84 128
128 83 128
128 83 128
128 83 128
128 82 128
128 82 128
128 82 128
128 81 128
128 81 128
128 81 128
128 80 128
128 80 128
128 80 128
128 79 128
128 79 128
128 79 128
128 78 128
128 78 128
128 78 128
128 77 128
128 77 128
128 77 128
128 76 128
128 76 128
128 76 128
128 75 128
128 75 128
128 75 128
128 75 128
128 74 128
128 74 128
128 74 128
128 73 128
128 73 128
128 73 128
128 72 128
128 72 128
128 72 128
128 71 128
128 71 128
128 71 128
128 70 128
128 70 128
128 70 128
128 69 128
128 69 128
128 69 128
128 68 128
128 68 128
128 68 128
128 67 128
128 67 128
128 67 128
128 66 128
128 66 128
128 66 128
128 66 128
128 65 128
128 65 128
128 65 128
128 64 128
127 64 128
127 64 128
127 63 128
127 63 128
127 63 128
127 62 128
127 62 128
127 62 128
127 61 128
127 61 128
127 61 128
127 60 128
127 60 128
127 60 128
127 59 128
127 59 128
127 59 128
127 58 128
127 58 128
127 58 128
127 57 128
127 57 128
127 57 128
127 57 128
127 56 128
127 56 128
127 56 128
127 55 128
127 55 128
127 55 128
127 54 128
127 54 128
127 54 128
127 53 128
127 53 128
127 53 128
127 52 128
127 52 128
127 52 128
127 51 128
127 51 128
127 51 128
127 50 128
127 50 128
127 50 128
127 49 128
127 49 128
127 49 128
127 48 128
127 48 128
127 48 128
127 48 128
127 47 128
127 47 128
127 47 128
127 46 128
127 46 128
127 46 128
127 45 128
127 45 128
127 45 128
127 44 128
127 44 128
127 44 128
127 43 128
127 43 128
127 43 128
127 42 128
127 42 128
127 42 128
127 41 128
127 41 128
127 41 128
127 40 128
127 40 128
127 40 128
127 40 128
127 39 128
127 39 128
127 39 128
127 38 128
127 38 128
127 38 128
127 37 128
127 37 128
127 37 128
127 36 128
127 36 128
127 36 128
127 35 128
127 35 128
127 35 128
127 34 128
127 34 128
127 34 128
127 33 128
127 33 128
127 33 128
127 32 128
127 32 128
127 32 128
127 31 128
127 31 128
127 31 128
127 31 128
127 30 128
127 30 128
127 30 128
127 29 128
127 29 128
127 29 128
127 28 128
127 28 128
127 28 128
127 27 128
127 27 128
127 27 128
127 26 128
127 26 128
127 26 128
127 25 128
127 25 128
127 25 128
127 24 128
127 24 128
127 24 128
127 23 128
127 23 128
127 23 128
127 22 128
127 22 128
127 22 128
127 22 128
127 21 128
127 21 128
127 21 128
127 20 128
127 20 128
127 20 128
127 19 128
127 19 128
127 19 128
127 18 128
127 18 128
127 18 128
127 17 128
127 17 128
127 17 128
127 16 128
127 16 128
127 16 128
127 15 128
127 15 128
127 15 128
127 14 128
127 14 128
127 14 128
127 13 128
127 13 128
127 13 128
127 13 128
127 12 128
127 12 128
127 12 128
127 11 128
127 11 128
127 11 128
127 10 128
127 10 128
127 10 128
127 9 128
127 9 128
127 9 128
127 8 128
127 8 128
127 8 128
127 7 128
127 7 128
127 7 128
127 6 128
127 6 128
127 6 128
127 5 128
127 5 128
127 5 128
127 4 128
127 4 128
127 4 128
127 4 128
127 3 128
127 3 128
127 3 128
127 2 128
127 2 128
127 2 128
127 1 128
127 1 128
127 1 128
127 0 128
127 0 128
127 127 127
127 127 127
127 126 127
127 126 127
127 126 127
127 125 127
127 125 127
127 125 127
127 124 127
127 124 127
127 124 127
127 123 127
127 123 127
127 123 127
127 122 127
127 122 127
127 122 127
127 121 127
127 121 127
127 121 127
127 121 127
127 120 127
127 120 127
127 120 127
127 119 127
127 119 127
127 119 127
127 118 127
127 118 127
127 118 127
127 117 127
127 117 127
127 117 127
127 116 127
127 116 127
127 116 127
127 115 127
127 115 127
127 115 127
127 114 127
127 114 127
127 114 127
127 114 127
127 113 127
127 113 127
127 113 127
127 112 127
127 112 127
127 112 127
127 111 127
127 111 127
127 111 127
127 110 127
127 110 127
127 110 127
127 109 127
127 109 127
127 109 127
127 108 127
127 108 127
127 108 127
127 107 127
127 107 127
127 107 127
127 107 127
127 106 127
127 106 127
127 106 127
127 105 127
127 105 127
127 105 127
127 104 127
127 104 127
127 104 127
127 103 127
127 103 127
127 103 127
127 102 127
127 102 127
127 102 127
127 101 127
127 101 127
127 101 127
127 100 127
127 100 127
127 100 127
127 100 127
127 99 127
127 99 127
127 99 127
127 98 127
127 98 127
127 98 127
127 97 127
127 97 127
127 97 127
127 96 127
127 96 127
127 96 127
127 95 127
127 95 127
127 95 127
127 94 127
127 94 127
127 94 127
127 93 127
127 93 127
127 93 127
127 93 127
127 92 127
127 92 127
127 92 127
127 91 127
127 91 127
127 91 127
127 90 127
127 90 127
127 90 127
127 89 127
127 89 127
127 89 127
127 88 127
127 88 127
127 88 127
127 87 127
127 87 127
127 87 127
127 86 127
127 86 127
127 86 127
127 86 127
127 85 127
127 85 127
127 85 127
127 84 127
127 84 127
127 84 127
127 83 127
127 83 127
127 83 127
127 82 127
127 82 127
127 82 127
127 81 127
127 81 127
127 81 127
127 80 127
127 80 127
127 80 127
127 79 127
127 79 127
127 79 127
127 79 127
127 78 127
127 78 127
127 78 127
127 77 127
127 77 127
127 77 127
127 76 127
127 76 127
127 76 127
127 75 127
127 75 127
127 75 127
127 74 127
127 74 127
127 74 127
127 73 127
127 73 127
127 73 127
127 72 127
127 72 127
127 72 127
127 72 127
127 71 127
127 71 127
127 71 127
127 70 127
127 70 127
127 70 127
127 69 127
127 69 127
127 69 127
127 68 127
127 68 127
127 68 127
127 67 127
127 67 127
127 67 127
127 66 127
127 66 127
127 66 127
127 65 127
127 65 127
127 65 127
127 65 127
127 64 127
127 64 127
127 64 127
128 63 127
128 63 127
128 63 127
128 62 127
128 62 127
128 62 127
128 61 127
128 61 127
128 61 127
128 60 127
128 60 127
128 60 127
128 59 127
128 59 127
128 59 127
128 59 127
128 58 127
128 58 127
128 58 127
128 57 127
128 57 127
128 57 127
128 56 127
128 56 127
128 56 127
128 55 127
128 55 127
128 55 127
128 54 127
128 54 127
128 54 127
128 53 127
128 53 127
128 53 127
128 52 127
128 52 127
128 52 127
128 52 127
128 51 127
128 51 127
128 51 127
128 50 127
128 50 127
128 50 127
128 49 127
128 49 127
128 49 127
128 48 127
128 48 127
128 48 127
128 47 127
128 47 127
128 47 127
128 46 127
128 46 127
128 46 127
128 45 127
128 45 127
128 45 127
128 45 127
128 44 127
128 44 127
128 44 127
128 43 127
128 43 127
128 43 127
128 42 127
128 42 127
128 42 127
128 41 127
128 41 127
128 41 127
128 40 127
128 40 127
128 40 127
128 39 127
128 39 127
128 39 127
128 38 127
128 38 127
128 38 127
128 38 127
128 37 127
128 37 127
128 37 127
128 36 127
128 36 127
128 36 127
128 35 127
128 35 127
128 35 127
128 34 127
128 34 127
128 34 127
128 33 127
128 33 127
128 33 127
128 32 127
128 32 127
128 32 127
128 31 127
128 31 127
128 31 127
128 31 127
128 30 127
128 30 127
128 30 127
128 29 127
128 29 127
128 29 127
128 28 127
128 28 127
128 28 127
128 27 127
128 27 127
128 27 127
128 26 127
128 26 127
128 26 127
128 25 127
128 25 127
128 25 127
128 24 127
128 24 127
128 24 127
128 24 127
128 23 127
128 23 127
128 23 127
128 22 127
128 22 127
128 22 127
128 21 127
128 21 127
128 21 127
128 20 127
128 20 127
128 20 127
128 19 127
128 19 127
128 19 127
128 18 127
128 18 127
128 18 127
128 17 127
128 17 127
128 17 127
128 17 127
128 16 127
128 16 127
128 16 127
128 15 127
128 15 127
128 15 127
128 14 127
128 14 127
128 14 127
128 13 127
128 13 127
128 13 127
128 12 127
128 12 127
128 12 127
128 11 127
128 11 127
128 11 127
128 10 127
128 10 127
128 10 127
128 10 127
128 9 127
128 9 127
128 9 127
128 8 127
128 8 127
128 8 127
128 7 127
128 7 127
128 7 127
128 6 127
128 6 127
128 6 127
128 5 127
128 5 127
128 5 127
128 4 127
128 4 127
128 4 127
128 3 127
128 3 127
128 3 127
128 3 127
128 2 127
128 2 127
128 2 127
128 1 127
128 1 127
128 1 127
128 0 127
128 0 127
126 126 126
126 125 126
126 125 126
126 125 126
126 124 126
126 124 126
126 124 126
126 123 126
126 123 126
126 123 126
126 122 126
126 122 126
126 122 126
126 121 126
126 121 126
126 121 126
126 121 126
126 120 126
126 120 126
126 120 126
126 119 126
126 119 126
126 119 126
126 118 126
126 118 126
126 118 126
126 117 126
126 117 126
126 117 126
126 116 126
126 116 126
126 116 126
126 116 126
126 115 126
126 115 126
126 115 126
126 114 126
126 114 126
126 114 126
126 113 126
126 113 126
126 113 126
126 112 126
126 112 126
126 112 126
126 111 126
126 111 126
126 111 126
126 110 126
126 110 126
126 110 126
126 110 126
126 109 126
126 109 126
126 109 126
126 108 126
126 108 126
126 108 126
126 107 126
126 107 126
126 107 126
126 106 126
126 106 126
126 106 126
126 105 126
126 105 126
126 105 126
126 104 126
126 104 126
126 104 126
126 104 126
126 103 126
126 103 126
126 103 126
126 102 126
126 102 126
126 102 126
126 101 126
126 101 126
126 101 126
126 100 126
126 100 126
126 100 126
126 99 126
126 99 126
126 99 126
126 99 126
126 98 126
126 98 126
126 98 126
126 97 126
126 97 126
126 97 126
126 96 126
126 96 126
126 96 126
127 95 126
127 95 126
127 95 126
127 94 126
127 94 126
127 94 126
127 93 126
127 93 126
127 93 126
127 93 126
127 92 126
127 92 126
127 92 126
127 91 126
127 91 126
127 91 126
127 90 126
127 90 126
127 90 126
127 89 126
127 89 126
127 89 126
127 88 126
127 88 126
127 88 126
127 87 126
127 87 126
127 87 126
127 87 126
127 86 126
127 86 126
127 86 126
127 85 126
127 85 126
127 85 126
127 84 126
127 84 126
127 84 126
127 83 126
127 83 126
127 83 126
127 82 126
127 82 126
127 82 126
127 82 126
127 81 126
127 81 126
127 81 126
127 80 126
127 80 126
127 80 126
127 79 126
127 79 126
127 79 126
127 78 126
127 78 126
127 78 126
127 77 126
127 77 126
127 77 126
127 76 126
127 76 126
127 76 126
127 76 126
127 75 126
127 75 126
127 75 126
127 74 126
127 74 126
127 74 126
127 73 126
127 73 126
127 73 126
127 72 126
127 72 126
127 72 126
127 71 126
127 71 126
127 71 126
127 70 126
127 70 126
127 70 126
127 70 126
127 69 126
127 69 126
127 69 126
127 68 126
127 68 126
127 68 126
127 67 126
127 67 126
127 67 126
127 66 126
127 66 126
127 66 126
127 65 126
127 65 126
127 65 126
127 65 126
127 64 126
127 64 126
127 64 126
127 63 126
127 63 126
128 63 126
128 62 126
128 62 126
128 62 126
128 61 126
128 61 126
128 61 126
128 60 126
128 60 126
128 60 126
128 59 126
128 59 126
128 59 126
128 59 126
128 58 126
128 58 126
128 58 126
128 57 126
128 57 126
128 57 126
128 56 126
128 56 126
128 56 126
128 55 126
128 55 126
128 55 126
128 54 126
128 54 126
128 54 126
128 54 126
128 53 126
128 53 126
128 53 126
128 52 126
128 52 126
128 52 126
128 51 126
128 51 126
128 51 126
128 50 126
128 50 126
128 50 126
128 49 126
128 49 126
128 49 126
128 48 126
128 48 126
128 48 126
128 48 126
128 47 126
128 47 126
128 47 126
128 46 126
128 46 126
128 46 126
128 45 126
128 45 126
128 45 126
128 44 126
128 44 126
128 44 126
128 43 126
128 43 126
128 43 126
128 42 126
128 42 126
128 42 126
128 42 126
128 41 126
128 41 126
128 41 126
128 40 126
128 40 126
128 40 126
128 39 126
128 39 126
128 39 126
128 38 126
128 38 126
128 38 126
128 37 126
128 37 126
128 37 126
128 37 126
128 36 126
128 36 126
128 36 126
128 35 126
128 35 126
128 35 126
128 34 126
128 34 126
128 34 126
128 33 126
128 33 126
128 33 126
128 32 126
128 32 126
128 32 126
128 31 126
128 31 126
128 31 126
128 31 126
128 30 126
129 30 126
129 30 126
129 29 126
129 29 126
129 29 126
129 28 126
129 28 126
129 28 126
129 27 126
129 27 126
129 27 126
129 26 126
129 26 126
129 26 126
129 25 126
129 25 126
129 25 126
129 25 126
129 24 126
129 24 126
129 24 126
129 23 126
129 23 126
129 23 126
129 22 126
129 22 126
129 22 126
129 21 126
129 21 126
129 21 126
129 20 126
129 20 126
129 20 126
129 20 126
129 19 126
129 19 126
129 19 126
129 18 126
129 18 126
129 18 126
129 17 126
129 17 126
129 17 126
129 16 126
129 16 126
129 16 126
129 15 126
129 15 126
129 15 126
129 14 126
129 14 126
129 14 126
129 14 126
129 13 126
129 13 126
129 13 126
129 12 126
129 12 126
129 12 126
129 11 126
129 11 126
129 11 126
129 10 126
129 10 126
129 10 126
129 9 126
129 9 126
129 9 126
129 8 126
129 8 126
129 8 126
129 8 126
129 7 126
129 7 126
129 7 126
129 6 126
129 6 126
129 6 126
129 5 126
129 5 126
129 5 126
129 4 126
129 4 126
129 4 126
129 3 126
129 3 126
129 3 126
129 3 126
129 2 126
129 2 126
129 2 126
129 1 126
129 1 126
129 1 126
129 0 126
129 0 126
124 124 124
124 124 124
124 124 124
124 123 124
124 123 124
124 123 124
124 122 124
124 122 124
124 122 124
124 121 124
124 121 124
124 121 124
124 121 124
125 120 124
125 120 124
125 120 124
125 119 124
125 119 124
125 119 124
125 118 124
125 118 124
125 118 124
125 117 124
125 117 124
125 117 124
125 117 124
125 116 124
125 116 124
125 116 124
125 115 124
125 115 124
125 115 124
125 114 124
125 114 124
125 114 124
125 113 124
125 113 124
125 113 124
125 112 124
125 112 124
125 112 124
125 112 124
125 111 124
125 111 124
125 111 124
125 110 124
125 110 124
125 110 124
125 109 124
125 109 124
125 109 124
125 108 124
125 108 124
125 108 124
125 107 124
125 107 124
125 107 124
125 107 124
125 106 124
125 106 124
125 106 124
125 105 124
125 105 124
125 105 124
125 104 124
125 104 124
125 104 124
125 103 124
125 103 124
125 103 124
125 102 124
125 102 124
125 102 124
125 102 124
125 101 124
126 101 124
126 101 124
126 100 124
126 100 124
126 100 124
126 99 124
126 99 124
126 99 124
126 98 124
126 98 124
126 98 124
126 98 124
126 97 124
126 97 124
126 97 124
126 96 124
126 96 124
126 96 124
126 95 124
126 95 124
126 95 124
126 94 124
126 94 124
126 94 124
126 93 124
126 93 124
126 93 124
126 93 124
126 92 124
126 92 124
126 92 124
126 91 124
126 91 124
126 91 124
126 90 124
126 90 124
126 90 124
126 89 124
126 89 124
126 89 124
126 88 124
126 88 124
126 88 124
126 88 124
126 87 124
126 87 124
126 87 124
126 86 124
126 86 124
126 86 124
126 85 124
126 85 124
126 85 124
126 84 124
126 84 124
126 84 124
126 83 124
126 83 124
126 83 124
126 83 124
126 82 124
126 82 124
126 82 124
127 81 124
127 81 124
127 81 124
127 80 124
127 80 124
127 80 124
127 79 124
127 79 124
127 79 124
127 79 124
127 78 124
127 78 124
127 78 124
127 77 124
127 77 124
127 77 124
127 76 124
127 76 124
127 76 124
127 75 124
127 75 124
127 75 124
127 74 124
127 74 124
127 74 124
127 74 124
127 73 124
127 73 124
127 73 124
127 72 124
127 72 124
127 72 124
127 71 124
127 71 124
127 71 124
127 70 124
127 70 124
127 70 124
127 69 124
127 69 124
127 69 124
127 69 124
127 68 124
127 68 124
127 68 124
127 67 124
127 67 124
127 67 124
127 66 124
127 66 124
127 66 124
127 65 124
127 65 124
127 65 124
127 64 124
127 64 124
127 64 124
127 64 124
127 63 124
127 63 124
127 63 124
127 62 124
128 62 124
128 62 124
128 61 124
128 61 124
128 61 124
128 60 124
128 60 124
128 60 124
128 60 124
128 59 124
128 59 124
128 59 124
128 58 124
128 58 124
128 58 124
128 57 124
128 57 124
128 57 124
128 56 124
128 56 124
128 56 124
128 55 124
128 55 124
128 55 124
128 55 124
128 54 124
128 54 124
128 54 124
128 53 124
128 53 124
128 53 124
128 52 124
128 52 124
128 52 124
128 51 124
128 51 124
128 51 124
128 50 124
128 50 124
128 50 124
128 50 124
128 49 124
128 49 124
128 49 124
128 48 124
128 48 124
128 48 124
128 47 124
128 47 124
128 47 124
128 46 124
128 46 124
128 46 124
128 45 124
128 45 124
128 45 124
128 45 124
128 44 124
128 44 124
128 44 124
128 43 124
128 43 124
129 43 124
129 42 124
129 42 124
129 42 124
129 41 124
129 41 124
129 41 124
129 40 124
129 40 124
129 40 124
129 40 124
129 39 124
129 39 124
129 39 124
129 38 124
129 38 124
129 38 124
129 37 124
129 37 124
129 37 124
129 36 124
129 36 124
129 36 124
129 36 124
129 35 124
129 35 124
129 35 124
129 34 124
129 34 124
129 34 124
129 33 124
129 33 124
129 33 124
129 32 124
129 32 124
129 32 124
129 31 124
129 31 124
129 31 124
129 31 124
129 30 124
129 30 124
129 30 124
129 29 124
129 29 124
129 29 124
129 28 124
129 28 124
129 28 124
129 27 124
129 27 124
129 27 124
129 26 124
129 26 124
129 26 124
129 26 124
129 25 124
129 25 124
129 25 124
129 24 124
129 24 124
129 24 124
129 23 124
130 23 124
130 23 124
130 22 124
130 22 124
130 22 124
130 21 124
130 21 124
130 21 124
130 21 124
130 20 124
130 20 124
130 20 124
130 19 124
130 19 124
130 19 124
130 18 124
130 18 124
130 18 124
130 17 124
130 17 124
130 17 124
130 17 124
130 16 124
130 16 124
130 16 124
130 15 124
130 15 124
130 15 124
130 14 124
130 14 124
130 14 124
130 13 124
130 13 124
130 13 124
130 12 124
130 12 124
130 12 124
130 12 124
130 11 124
130 11 124
130 11 124
130 10 124
130 10 124
130 10 124
130 9 124
130 9 124
130 9 124
130 8 124
130 8 124
130 8 124
130 7 124
130 7 124
130 7 124
130 7 124
130 6 124
130 6 124
130 6 124
130 5 124
130 5 124
130 5 124
130 4 124
130 4 124
131 4 124
131 3 124
131 3 124
131 3 124
131 2 124
131 2 124
131 2 124
131 2 124
131 1 124
131 1 124
131 1 124
131 0 124
131 0 124
123 123 123
123 123 123
123 122 123
123 122 123
123 122 123
123 121 123
123 121 123
123 121 123
123 121 123
123 120 123
123 120 123
123 120 123
123 119 123
123 119 123
123 119 123
123 118 123
123 118 123
123 118 123
123 117 123
123 117 123
123 117 123
123 117 123
124 116 123
124 116 123
124 116 123
124 115 123
124 115 123
124 115 123
124 114 123
124 114 123
124 114 123
124 113 123
124 113 123
124 113 123
124 113 123
124 112 123
124 112 123
124 112 123
124 111 123
124 111 123
124 111 123
124 110 123
124 110 123
124 110 123
124 109 123
124 109 123
124 109 123
124 109 123
124 108 123
124 108 123
124 108 123
124 107 123
124 107 123
124 107 123
124 106 123
124 106 123
124 106 123
124 105 123
124 105 123
124 105 123
124 105 123
124 104 123
124 104 123
124 104 123
124 103 123
124 103 123
124 103 123
125 102 123
125 102 123
125 102 123
125 101 123
125 101 123
125 101 123
125 101 123
125 100 123
125 100 123
125 100 123
125 99 123
125 99 123
125 99 123
125 98 123
125 98 123
125 98 123
125 97 123
125 97 123
125 97 123
125 97 123
125 96 123
125 96 123
125 96 123
125 95 123
125 95 123
125 95 123
125 94 123
125 94 123
125 94 123
125 93 123
125 93 123
125 93 123
125 92 123
125 92 123
125 92 123
125 92 123
125 91 123
125 91 123
125 91 123
125 90 123
125 90 123
125 90 123
125 89 123
125 89 123
126 89 123
126 88 123
126 88 123
126 88 123
126 88 123
126 87 123
126 87 123
126 87 123
126 86 123
126 86 123
126 86 123
126 85 123
126 85 123
126 85 123
126 84 123
126 84 123
126 84 123
126 84 123
126 83 123
126 83 123
126 83 123
126 82 123
126 82 123
126 82 123
126 81 123
126 81 123
126 81 123
126 80 123
126 80 123
126 80 123
126 80 123
126 79 123
126 79 123
126 79 123
126 78 123
126 78 123
126 78 123
126 77 123
126 77 123
126 77 123
126 76 123
126 76 123
126 76 123
126 76 123
126 75 123
127 75 123
127 75 123
127 74 123
127 74 123
127 74 123
127 73 123
127 73 123
127 73 123
127 72 123
127 72 123
127 72 123
127 72 123
127 71 123
127 71 123
127 71 123
127 70 123
127 70 123
127 70 123
127 69 123
127 69 123
127 69 123
127 68 123
127 68 123
127 68 123
127 68 123
127 67 123
127 67 123
127 67 123
127 66 123
127 66 123
127 66 123
127 65 123
127 65 123
127 65 123
127 64 123
127 64 123
127 64 123
127 64 123
127 63 123
127 63 123
127 63 123
127 62 123
127 62 123
127 62 123
128 61 123
128 61 123
128 61 123
128 60 123
128 60 123
128 60 123
128 60 123
128 59 123
128 59 123
128 59 123
128 58 123
128 58 123
128 58 123
128 57 123
128 57 123
128 57 123
128 56 123
128 56 123
128 56 123
128 55 123
128 55 123
128 55 123
128 55 123
128 54 123
128 54 123
128 54 123
128 53 123
128 53 123
128 53 123
128 52 123
128 52 123
128 52 123
128 51 123
128 51 123
128 51 123
128 51 123
128 50 123
128 50 123
128 50 123
128 49 123
128 49 123
128 49 123
128 48 123
128 48 123
129 48 123
129 47 123
129 47 123
129 47 123
129 47 123
129 46 123
129 46 123
129 46 123
129 45 123
129 45 123
129 45 123
129 44 123
129 44 123
129 44 123
129 43 123
129 43 123
129 43 123
129 43 123
129 42 123
129 42 123
129 42 123
129 41 123
129 41 123
129 41 123
129 40 123
129 40 123
129 40 123
129 39 123
129 39 123
129 39 123
129 39 123
129 38 123
129 38 123
129 38 123
129 37 123
129 37 123
129 37 123
129 36 123
129 36 123
129 36 123
129 35 123
129 35 123
129 35 123
129 35 123
129 34 123
130 34 123
130 34 123
130 33 123
130 33 123
130 33 123
130 32 123
130 32 123
130 32 123
130 31 123
130 31 123
130 31 123
130 31 123
130 30 123
130 30 123
130 30 123
130 29 123
130 29 123
130 29 123
130 28 123
130 28 123
130 28 123
130 27 123
130 27 123
130 27 123
130 27 123
130 26 123
130 26 123
130 26 123
130 25 123
130 25 123
130 25 123
130 24 123
130 24 123
130 24 123
130 23 123
130 23 123
130 23 123
130 23 123
130 22 123
130 22 123
130 22 123
130 21 123
130 21 123
130 21 123
131 20 123
131 20 123
131 20 123
131 19 123
131 19 123
131 19 123
131 18 123
131 18 123
131 18 123
131 18 123
131 17 123
131 17 123
131 17 123
131 16 123
131 16 123
131 16 123
131 15 123
131 15 123
131 15 123
131 14 123
131 14 123
131 14 123
131 14 123
131 13 123
131 13 123
131 13 123
131 12 123
131 12 123
131 12 123
131 11 123
131 11 123
131 11 123
131 10 123
131 10 123
131 10 123
131 10 123
131 9 123
131 9 123
131 9 123
131 8 123
131 8 123
131 8 123
131 7 123
131 7 123
131 7 123
132 6 123
132 6 123
132 6 123
132 6 123
132 5 123
132 5 123
132 5 123
132 4 123
132 4 123
132 4 123
132 3 123
132 3 123
132 3 123
132 2 123
132 2 123
132 2 123
132 2 123
132 1 123
132 1 123
132 1 123
132 0 123
132 0 123
122 122 122
122 121 122
122 121 122
122 121 122
122 121 122
122 120 122
122 120 122
122 120 122
122 119 122
122 119 122
122 119 122
122 118 122
122 118 122
122 118 122
122 117 122
122 117 122
122 117 122
122 117 122
122 116 122
122 116 122
122 116 122
122 115 122
122 115 122
122 115 122
122 114 122
122 114 122
122 114 122
123 113 122
123 113 122
123 113 122
123 113 122
123 112 122
123 112 122
123 112 122
123 111 122
123 111 122
123 111 122
123 110 122
123 110 122
123 110 122
123 110 122
123 109 122
123 109 122
123 109 122
123 108 122
123 108 122
123 108 122
123 107 122
123 107 122
123 107 122
123 106 122
123 106 122
123 106 122
123 106 122
123 105 122
123 105 122
123 105 122
123 104 122
123 104 122
123 104 122
123 103 122
123 103 122
124 103 122
124 103 122
124 102 122
124 102 122
124 102 122
124 101 122
124 101 122
124 101 122
124 100 122
124 100 122
124 100 122
124 99 122
124 99 122
124 99 122
124 99 122
124 98 122
124 98 122
124 98 122
124 97 122
124 97 122
124 97 122
124 96 122
124 96 122
124 96 122
124 95 122
124 95 122
124 95 122
124 95 122
124 94 122
124 94 122
124 94 122
124 93 122
124 93 122
124 93 122
125 92 122
125 92 122
125 92 122
125 92 122
125 91 122
125 91 122
125 91 122
125 90 122
125 90 122
125 90 122
125 89 122
125 89 122
125 89 122
125 88 122
125 88 122
125 88 122
125 88 122
125 87 122
125 87 122
125 87 122
125 86 122
125 86 122
125 86 122
125 85 122
125 85 122
125 85 122
125 85 122
125 84 122
125 84 122
125 84 122
125 83 122
125 83 122
125 83 122
125 82 122
125 82 122
126 82 122
126 81 122
126 81 122
126 81 122
126 81 122
126 80 122
126 80 122
126 80 122
126 79 122
126 79 122
126 79 122
126 78 122
126 78 122
126 78 122
126 77 122
126 77 122
126 77 122
126 77 122
126 76 122
126 76 122
126 76 122
126 75 122
126 75 122
126 75 122
126 74 122
126 74 122
126 74 122
126 74 122
126 73 122
126 73 122
126 73 122
126 72 122
126 72 122
126 72 122
127 71 122
127 71 122
127 71 122
127 70 122
127 70 122
127 70 122
127 70 122
127 69 122
127 69 122
127 69 122
127 68 122
127 68 122
127 68 122
127 67 122
127 67 122
127 67 122
127 67 122
127 66 122
127 66 122
127 66 122
127 65 122
127 65 122
127 65 122
127 64 122
127 64 122
127 64 122
127 63 122
127 63 122
127 63 122
127 63 122
127 62 122
127 62 122
127 62 122
127 61 122
127 61 122
128 61 122
128 60 122
128 60 122
128 60 122
128 59 122
128 59 122
128 59 122
128 59 122
128 58 122
128 58 122
128 58 122
128 57 122
128 57 122
128 57 122
128 56 122
128 56 122
128 56 122
128 56 122
128 55 122
128 55 122
128 55 122
128 54 122
128 54 122
128 54 122
128 53 122
128 53 122
128 53 122
128 52 122
128 52 122
128 52 122
128 52 122
128 51 122
128 51 122
128 51 122
128 50 122
129 50 122
129 50 122
129 49 122
129 49 122
129 49 122
129 49 122
129 48 122
129 48 122
129 48 122
129 47 122
129 47 122
129 47 122
129 46 122
129 46 122
129 46 122
129 45 122
129 45 122
129 45 122
129 45 122
129 44 122
129 44 122
129 44 122
129 43 122
129 43 122
129 43 122
129 42 122
129 42 122
129 42 122
129 41 122
129 41 122
129 41 122
129 41 122
129 40 122
129 40 122
130 40 122
130 39 122
130 39 122
130 39 122
130 38 122
130 38 122
130 38 122
130 38 122
130 37 122
130 37 122
130 37 122
130 36 122
130 36 122
130 36 122
130 35 122
130 35 122
130 35 122
130 34 122
130 34 122
130 34 122
130 34 122
130 33 122
130 33 122
130 33 122
130 32 122
130 32 122
130 32 122
130 31 122
130 31 122
130 31 122
130 31 122
130 30 122
130 30 122
130 30 122
130 29 122
131 29 122
131 29 122
131 28 122
131 28 122
131 28 122
131 27 122
131 27 122
131 27 122
131 27 122
131 26 122
131 26 122
131 26 122
131 25 122
131 25 122
131 25 122
131 24 122
131 24 122
131 24 122
131 23 122
131 23 122
131 23 122
131 23 122
131 22 122
131 22 122
131 22 122
131 21 122
131 21 122
131 21 122
131 20 122
131 20 122
131 20 122
131 20 122
131 19 122
131 19 122
132 19 122
132 18 122
132 18 122
132 18 122
132 17 122
132 17 122
132 17 122
132 16 122
132 16 122
132 16 122
132 16 122
132 15 122
132 15 122
132 15 122
132 14 122
132 14 122
132 14 122
132 13 122
132 13 122
132 13 122
132 13 122
132 12 122
132 12 122
132 12 122
132 11 122
132 11 122
132 11 122
132 10 122
132 10 122
132 10 122
132 9 122
132 9 122
132 9 122
132 9 122
132 8 122
133 8 122
133 8 122
133 7 122
133 7 122
133 7 122
133 6 122
133 6 122
133 6 122
133 5 122
133 5 122
133 5 122
133 5 122
133 4 122
133 4 122
133 4 122
133 3 122
133 3 122
133 3 122
133 2 122
133 2 122
133 2 122
133 2 122
133 1 122
133 1 122
133 1 122
133 0 122
133 0 122
120 120 120
120 120 120
121 120 120
121 120 120
121 119 120
121 119 120
121 119 120
121 118 120
121 118 120
121 118 120
121 117 120
121 117 120
121 117 120
121 117 120
121 116 120
121 116 120
121 116 120
121 115 120
121 115 120
121 115 120
121 114 120
121 114 120
121 114 120
121 114 120
121 113 120
121 113 120
121 113 120
121 112 120
121 112 120
121 112 120
122 111 120
122 111 120
122 111 120
122 110 120
122 110 120
122 110 120
122 110 120
122 109 120
122 109 120
122 109 120
122 108 120
122 108 120
122 108 120
122 107 120
122 107 120
122 107 120
122 107 120
122 106 120
122 106 120
122 106 120
122 105 120
122 105 120
122 105 120
122 104 120
122 104 120
122 104 120
122 104 120
122 103 120
123 103 120
123 103 120
123 102 120
123 102 120
123 102 120
123 101 120
123 101 120
123 101 120
123 101 120
123 100 120
123 100 120
123 100 120
123 99 120
123 99 120
123 99 120
123 98 120
123 98 120
123 98 120
123 98 120
123 97 120
123 97 120
123 97 120
123 96 120
123 96 120
123 96 120
123 95 120
123 95 120
123 95 120
123 94 120
124 94 120
124 94 120
124 94 120
124 93 120
124 93 120
124 93 120
124 92 120
124 92 120
124 92 120
124 91 120
124 91 120
124 91 120
124 91 120
124 90 120
124 90 120
124 90 120
124 89 120
124 89 120
124 89 120
124 88 120
124 88 120
124 88 120
124 88 120
124 87 120
124 87 120
124 87 120
124 86 120
124 86 120
125 86 120
125 85 120
125 85 120
125 85 120
125 85 120
125 84 120
125 84 120
125 84 120
125 83 120
125 83 120
125 83 120
125 82 120
125 82 120
125 82 120
125 82 120
125 81 120
125 81 120
125 81 120
125 80 120
125 80 120
125 80 120
125 79 120
125 79 120
125 79 120
125 78 120
125 78 120
125 78 120
125 78 120
126 77 120
126 77 120
126 77 120
126 76 120
126 76 120
126 76 120
126 75 120
126 75 120
126 75 120
126 75 120
126 74 120
126 74 120
126 74 120
126 73 120
126 73 120
126 73 120
126 72 120
126 72 120
126 72 120
126 72 120
126 71 120
126 71 120
126 71 120
126 70 120
126 70 120
126 70 120
126 69 120
126 69 120
126 69 120
127 69 120
127 68 120
127 68 120
127 68 120
127 67 120
127 67 120
127 67 120
127 66 120
127 66 120
127 66 120
127 66 120
127 65 120
127 65 120
127 65 120
127 64 120
127 64 120
127 64 120
127 63 120
127 63 120
127 63 120
127 62 120
127 62 120
127 62 120
127 62 120
127 61 120
127 61 120
127 61 120
127 60 120
128 60 120
128 60 120
128 59 120
128 59 120
128 59 120
128 59 120
128 58 120
128 58 120
128 58 120
128 57 120
128 57 120
128 57 120
128 56 120
128 56 120
128 56 120
128 56 120
128 55 120
128 55 120
128 55 120
128 54 120
128 54 120
128 54 120
128 53 120
128 53 120
128 53 120
128 53 120
128 52 120
128 52 120
129 52 120
129 51 120
129 51 120
129 51 120
129 50 120
129 50 120
129 50 120
129 50 120
129 49 120
129 49 120
129 49 120
129 48 120
129 48 120
129 48 120
129 47 120
129 47 120
129 47 120
129 46 120
129 46 120
129 46 120
129 46 120
129 45 120
129 45 120
129 45 120
129 44 120
129 44 120
129 44 120
129 43 120
129 43 120
130 43 120
130 43 120
130 42 120
130 42 120
130 42 120
130 41 120
130 41 120
130 41 120
130 40 120
130 40 120
130 40 120
130 40 120
130 39 120
130 39 120
130 39 120
130 38 120
130 38 120
130 38 120
130 37 120
130 37 120
130 37 120
130 37 120
130 36 120
130 36 120
130 36 120
130 35 120
130 35 120
130 35 120
131 34 120
131 34 120
131 34 120
131 34 120
131 33 120
131 33 120
131 33 120
131 32 120
131 32 120
131 32 120
131 31 120
131 31 120
131 31 120
131 30 120
131 30 120
131 30 120
131 30 120
131 29 120
131 29 120
131 29 120
131 28 120
131 28 120
131 28 120
131 27 120
131 27 120
131 27 120
131 27 120
131 26 120
132 26 120
132 26 120
132 25 120
132 25 120
132 25 120
132 24 120
132 24 120
132 24 120
132 24 120
132 23 120
132 23 120
132 23 120
132 22 120
132 22 120
132 22 120
132 21 120
132 21 120
132 21 120
132 21 120
132 20 120
132 20 120
132 20 120
132 19 120
132 19 120
132 19 120
132 18 120
132 18 120
132 18 120
132 18 120
133 17 120
133 17 120
133 17 120
133 16 120
133 16 120
133 16 120
133 15 120
133 15 120
133 15 120
133 14 120
133 14 120
133 14 120
133 14 120
133 13 120
133 13 120
133 13 120
133 12 120
133 12 120
133 12 120
133 11 120
133 11 120
133 11 120
133 11 120
133 10 120
133 10 120
133 10 120
133 9 120
133 9 120
134 9 120
134 8 120
134 8 120
134 8 120
134 8 120
134 7 120
134 7 120
134 7 120
134 6 120
134 6 120
134 6 120
134 5 120
134 5 120
134 5 120
134 5 120
134 4 120
134 4 120
134 4 120
134 3 120
134 3 120
134 3 120
134 2 120
134 2 120
134 2 120
134 2 120
134 1 120
134 1 120
134 1 120
135 0 120
135 0 120
119 119 119
119 119 119
119 119 119
119 118 119
119 118 119
119 118 119
119 117 119
119 117 119
120 117 119
120 116 119
120 116 119
120 116 119
120 116 119
120 115 119
120 115 119
120 115 119
120 114 119
120 114 119
120 114 119
120 113 119
120 113 119
120 113 119
120 113 119
120 112 119
120 112 119
120 112 119
120 111 119
120 111 119
120 111 119
120 111 119
120 110 119
120 110 119
121 110 119
121 109 119
121 109 119
121 109 119
121 108 119
121 108 119
121 108 119
121 108 119
121 107 119
121 107 119
121 107 119
121 106 119
121 106 119
121 106 119
121 105 119
121 105 119
121 105 119
121 105 119
121 104 119
121 104 119
121 104 119
121 103 119
121 103 119
121 103 119
122 102 119
122 102 119
122 102 119
122 102 119
122 101 119
122 101 119
122 101 119
122 100 119
122 100 119
122 100 119
122 99 119
122 99 119
122 99 119
122 99 119
122 98 119
122 98 119
122 98 119
122 97 119
122 97 119
122 97 119
122 96 119
122 96 119
122 96 119
122 96 119
123 95 119
123 95 119
123 95 119
123 94 119
123 94 119
123 94 119
123 93 119
123 93 119
123 93 119
123 93 119
123 92 119
123 92 119
123 92 119
123 91 119
123 91 119
123 91 119
123 90 119
123 90 119
123 90 119
123 90 119
123 89 119
123 89 119
123 89 119
123 88 119
124 88 119
124 88 119
124 88 119
124 87 119
124 87 119
124 87 119
124 86 119
124 86 119
124 86 119
124 85 119
124 85 119
124 85 119
124 85 119
124 84 119
124 84 119
124 84 119
124 83 119
124 83 119
124 83 119
124 82 119
124 82 119
124 82 119
124 82 119
124 81 119
125 81 119
125 81 119
125 80 119
125 80 119
125 80 119
125 79 119
125 79 119
125 79 119
125 79 119
125 78 119
125 78 119
125 78 119
125 77 119
125 77 119
125 77 119
125 76 119
125 76 119
125 76 119
125 76 119
125 75 119
125 75 119
125 75 119
125 74 119
125 74 119
126 74 119
126 73 119
126 73 119
126 73 119
126 73 119
126 72 119
126 72 119
126 72 119
126 71 119
126 71 119
126 71 119
126 70 119
126 70 119
126 70 119
126 70 119
126 69 119
126 69 119
126 69 119
126 68 119
126 68 119
126 68 119
126 68 119
126 67 119
126 67 119
127 67 119
127 66 119
127 66 119
127 66 119
127 65 119
127 65 119
127 65 119
127 65 119
127 64 119
127 64 119
127 64 119
127 63 119
127 63 119
127 63 119
127 62 119
127 62 119
127 62 119
127 62 119
127 61 119
127 61 119
127 61 119
127 60 119
127 60 119
127 60 119
128 59 119
128 59 119
128 59 119
128 59 119
128 58 119
128 58 119
128 58 119
128 57 119
128 57 119
128 57 119
128 56 119
128 56 119
128 56 119
128 56 119
128 55 119
128 55 119
128 55 119
128 54 119
128 54 119
128 54 119
128 53 119
128 53 119
128 53 119
128 53 119
129 52 119
129 52 119
129 52 119
129 51 119
129 51 119
129 51 119
129 50 119
129 50 119
129 50 119
129 50 119
129 49 119
129 49 119
129 49 119
129 48 119
129 48 119
129 48 119
129 47 119
129 47 119
129 47 119
129 47 119
129 46 119
129 46 119
129 46 119
129 45 119
130 45 119
130 45 119
130 45 119
130 44 119
130 44 119
130 44 119
130 43 119
130 43 119
130 43 119
130 42 119
130 42 119
130 42 119
130 42 119
130 41 119
130 41 119
130 41 119
130 40 119
130 40 119
130 40 119
130 39 119
130 39 119
130 39 119
130 39 119
130 38 119
131 38 119
131 38 119
131 37 119
131 37 119
131 37 119
131 36 119
131 36 119
131 36 119
131 36 119
131 35 119
131 35 119
131 35 119
131 34 119
131 34 119
131 34 119
131 33 119
131 33 119
131 33 119
131 33 119
131 32 119
131 32 119
131 32 119
131 31 119
131 31 119
132 31 119
132 30 119
132 30 119
132 30 119
132 30 119
132 29 119
132 29 119
132 29 119
132 28 119
132 28 119
132 28 119
132 27 119
132 27 119
132 27 119
132 27 119
132 26 119
132 26 119
132 26 119
132 25 119
132 25 119
132 25 119
132 24 119
132 24 119
132 24 119
133 24 119
133 23 119
133 23 119
133 23 119
133 22 119
133 22 119
133 22 119
133 22 119
133 21 119
133 21 119
133 21 119
133 20 119
133 20 119
133 20 119
133 19 119
133 19 119
133 19 119
133 19 119
133 18 119
133 18 119
133 18 119
133 17 119
133 17 119
133 17 119
134 16 119
134 16 119
134 16 119
134 16 119
134 15 119
134 15 119
134 15 119
134 14 119
134 14 119
134 14 119
134 13 119
134 13 119
134 13 119
134 13 119
134 12 119
134 12 119
134 12 119
134 11 119
134 11 119
134 11 119
134 10 119
134 10 119
134 10 119
134 10 119
135 9 119
135 9 119
135 9 119
135 8 119
135 8 119
135 8 119
135 7 119
135 7 119
135 7 119
135 7 119
135 6 119
135 6 119
135 6 119
135 5 119
135 5 119
135 5 119
135 4 119
135 4 119
135 4 119
135 4 119
135 3 119
135 3 119
135 3 119
135 2 119
136 2 119
136 2 119
136 1 119
136 1 119
136 1 119
136 1 119
136 0 119
136 0 119
118 118 118
118 118 118
118 117 118
118 117 118
118 117 118
118 116 118
118 116 118
118 116 118
118 116 118
118 115 118
118 115 118
118 115 118
118 114 118
119 114 118
119 114 118
119 113 118
119 113 118
119 113 118
119 113 118
119 112 118
119 112 118
119 112 118
119 111 118
119 111 118
119 111 118
119 111 118
119 110 118
119 110 118
119 110 118
119 109 118
119 109 118
119 109 118
119 108 118
119 108 118
120 108 118
120 108 118
120 107 118
120 107 118
120 107 118
120 106 118
120 106 118
120 106 118
120 105 118
120 105 118
120 105 118
120 105 118
120 104 118
120 104 118
120 104 118
120 103 118
120 103 118
120 103 118
120 103 118
120 102 118
120 102 118
121 102 118
121 101 118
121 101 118
121 101 118
121 100 118
121 100 118
121 100 118
121 100 118
121 99 118
121 99 118
121 99 118
121 98 118
121 98 118
121 98 118
121 98 118
121 97 118
121 97 118
121 97 118
121 96 118
121 96 118
122 96 118
122 95 118
122 95 118
122 95 118
122 95 118
122 94 118
122 94 118
122 94 118
122 93 118
122 93 118
122 93 118
122 92 118
122 92 118
122 92 118
122 92 118
122 91 118
122 91 118
122 91 118
122 90 118
122 90 118
122 90 118
123 90 118
123 89 118
123 89 118
123 89 118
123 88 118
123 88 118
123 88 118
123 87 118
123 87 118
123 87 118
123 87 118
123 86 118
123 86 118
123 86 118
123 85 118
123 85 118
123 85 118
123 85 118
123 84 118
123 84 118
123 84 118
124 83 118
124 83 118
124 83 118
124 82 118
124 82 118
124 82 118
124 82 118
124 81 118
124 81 118
124 81 118
124 80 118
124 80 118
124 80 118
124 79 118
124 79 118
124 79 118
124 79 118
124 78 118
124 78 118
124 78 118
124 77 118
125 77 118
125 77 118
125 77 118
125 76 118
125 76 118
125 76 118
125 75 118
125 75 118
125 75 118
125 74 118
125 74 118
125 74 118
125 74 118
125 73 118
125 73 118
125 73 118
125 72 118
125 72 118
125 72 118
125 72 118
126 71 118
126 71 118
126 71 118
126 70 118
126 70 118
126 70 118
126 69 118
126 69 118
126 69 118
126 69 118
126 68 118
126 68 118
126 68 118
126 67 118
126 67 118
126 67 118
126 66 118
126 66 118
126 66 118
126 66 118
126 65 118
127 65 118
127 65 118
127 64 118
127 64 118
127 64 118
127 64 118
127 63 118
127 63 118
127 63 118
127 62 118
127 62 118
127 62 118
127 61 118
127 61 118
127 61 118
127 61 118
127 60 118
127 60 118
127 60 118
127 59 118
127 59 118
128 59 118
128 59 118
128 58 118
128 58 118
128 58 118
128 57 118
128 57 118
128 57 118
128 56 118
128 56 118
128 56 118
128 56 118
128 55 118
128 55 118
128 55 118
128 54 118
128 54 118
128 54 118
128 53 118
128 53 118
128 53 118
129 53 118
129 52 118
129 52 118
129 52 118
129 51 118
129 51 118
129 51 118
129 51 118
129 50 118
129 50 118
129 50 118
129 49 118
129 49 118
129 49 118
129 48 118
129 48 118
129 48 118
129 48 118
129 47 118
129 47 118
129 47 118
130 46 118
130 46 118
130 46 118
130 46 118
130 45 118
130 45 118
130 45 118
130 44 118
130 44 118
130 44 118
130 43 118
130 43 118
130 43 118
130 43 118
130 42 118
130 42 118
130 42 118
130 41 118
130 41 118
130 41 118
131 40 118
131 40 118
131 40 118
131 40 118
131 39 118
131 39 118
131 39 118
131 38 118
131 38 118
131 38 118
131 38 118
131 37 118
131 37 118
131 37 118
131 36 118
131 36 118
131 36 118
131 35 118
131 35 118
131 35 118
131 35 118
132 34 118
132 34 118
132 34 118
132 33 118
132 33 118
132 33 118
132 33 118
132 32 118
132 32 118
132 32 118
132 31 118
132 31 118
132 31 118
132 30 118
132 30 118
132 30 118
132 30 118
132 29 118
132 29 118
132 29 118
132 28 118
133 28 118
133 28 118
133 27 118
133 27 118
133 27 118
133 27 118
133 26 118
133 26 118
133 26 118
133 25 118
133 25 118
133 25 118
133 25 118
133 24 118
133 24 118
133 24 118
133 23 118
133 23 118
133 23 118
133 22 118
133 22 118
134 22 118
134 22 118
134 21 118
134 21 118
134 21 118
134 20 118
134 20 118
134 20 118
134 20 118
134 19 118
134 19 118
134 19 118
134 18 118
134 18 118
134 18 118
134 17 118
134 17 118
134 17 118
134 17 118
134 16 118
135 16 118
135 16 118
135 15 118
135 15 118
135 15 118
135 14 118
135 14 118
135 14 118
135 14 118
135 13 118
135 13 118
135 13 118
135 12 118
135 12 118
135 12 118
135 12 118
135 11 118
135 11 118
135 11 118
135 10 118
135 10 118
136 10 118
136 9 118
136 9 118
136 9 118
136 9 118
136 8 118
136 8 118
136 8 118
136 7 118
136 7 118
136 7 118
136 7 118
136 6 118
136 6 118
136 6 118
136 5 118
136 5 118
136 5 118
136 4 118
136 4 118
136 4 118
137 4 118
137 3 118
137 3 118
137 3 118
137 2 118
137 2 118
137 2 118
137 1 118
137 1 118
137 1 118
137 1 118
137 0 118
137 0 118
117 117 117
117 116 117
117 116 117
117 116 117
117 115 117
117 115 117
117 115 117
117 115 117
117 114 117
117 114 117
117 114 117
117 113 117
117 113 117
117 113 117
117 113 117
117 112 117
117 112 117
118 112 117
118 111 117
118 111 117
118 111 117
118 110 117
118 110 117
118 110 117
118 110 117
118 109 117
118 109 117
118 109 117
118 108 117
118 108 117
118 108 117
118 108 117
118 107 117
118 107 117
118 107 117
119 106 117
119 106 117
119 106 117
119 106 117
119 105 117
119 105 117
119 105 117
119 104 117
119 104 117
119 104 117
119 103 117
119 103 117
119 103 117
119 103 117
119 102 117
119 102 117
119 102 117
119 101 117
120 101 117
120 101 117
120 101 117
120 100 117
120 100 117
120 100 117
120 99 117
120 99 117
120 99 117
120 98 117
120 98 117
120 98 117
120 98 117
120 97 117
120 97 117
120 97 117
120 96 117
120 96 117
120 96 117
121 96 117
121 95 117
121 95 117
121 95 117
121 94 117
121 94 117
121 94 117
121 94 117
121 93 117
121 93 117
121 93 117
121 92 117
121 92 117
121 92 117
121 91 117
121 91 117
121 91 117
121 91 117
122 90 117
122 90 117
122 90 117
122 89 117
122 89 117
122 89 117
122 89 117
122 88 117
122 88 117
122 88 117
122 87 117
122 87 117
122 87 117
122 87 117
122 86 117
122 86 117
122 86 117
122 85 117
123 85 117
123 85 117
123 84 117
123 84 117
123 84 117
123 84 117
123 83 117
123 83 117
123 83 117
123 82 117
123 82 117
123 82 117
123 82 117
123 81 117
123 81 117
123 81 117
123 80 117
123 80 117
123 80 117
124 79 117
124 79 117
124 79 117
124 79 117
124 78 117
124 78 117
124 78 117
124 77 117
124 77 117
124 77 117
124 77 117
124 76 117
124 76 117
124 76 117
124 75 117
124 75 117
124 75 117
124 75 117
125 74 117
125 74 117
125 74 117
125 73 117
125 73 117
125 73 117
125 72 117
125 72 117
125 72 117
125 72 117
125 71 117
125 71 117
125 71 117
125 70 117
125 70 117
125 70 117
125 70 117
125 69 117
126 69 117
126 69 117
126 68 117
126 68 117
126 68 117
126 68 117
126 67 117
126 67 117
126 67 117
126 66 117
126 66 117
126 66 117
126 65 117
126 65 117
126 65 117
126 65 117
126 64 117
126 64 117
126 64 117
127 63 117
127 63 117
127 63 117
127 63 117
127 62 117
127 62 117
127 62 117
127 61 117
127 61 117
127 61 117
127 60 117
127 60 117
127 60 117
127 60 117
127 59 117
127 59 117
127 59 117
127 58 117
128 58 117
128 58 117
128 58 117
128 57 117
128 57 117
128 57 117
128 56 117
128 56 117
128 56 117
128 56 117
128 55 117
128 55 117
128 55 117
128 54 117
128 54 117
128 54 117
128 53 117
128 53 117
129 53 117
129 53 117
129 52 117
129 52 117
129 52 117
129 51 117
129 51 117
129 51 117
129 51 117
129 50 117
129 50 117
129 50 117
129 49 117
129 49 117
129 49 117
129 49 117
129 48 117
129 48 117
129 48 117
130 47 117
130 47 117
130 47 117
130 46 117
130 46 117
130 46 117
130 46 117
130 45 117
130 45 117
130 45 117
130 44 117
130 44 117
130 44 117
130 44 117
130 43 117
130 43 117
130 43 117
130 42 117
131 42 117
131 42 117
131 41 117
131 41 117
131 41 117
131 41 117
131 40 117
131 40 117
131 40 117
131 39 117
131 39 117
131 39 117
131 39 117
131 38 117
131 38 117
131 38 117
131 37 117
131 37 117
132 37 117
132 37 117
132 36 117
132 36 117
132 36 117
132 35 117
132 35 117
132 35 117
132 34 117
132 34 117
132 34 117
132 34 117
132 33 117
132 33 117
132 33 117
132 32 117
132 32 117
132 32 117
132 32 117
133 31 117
133 31 117
133 31 117
133 30 117
133 30 117
133 30 117
133 30 117
133 29 117
133 29 117
133 29 117
133 28 117
133 28 117
133 28 117
133 27 117
133 27 117
133 27 117
133 27 117
133 26 117
134 26 117
134 26 117
134 25 117
134 25 117
134 25 117
134 25 117
134 24 117
134 24 117
134 24 117
134 23 117
134 23 117
134 23 117
134 23 117
134 22 117
134 22 117
134 22 117
134 21 117
134 21 117
135 21 117
135 20 117
135 20 117
135 20 117
135 20 117
135 19 117
135 19 117
135 19 117
135 18 117
135 18 117
135 18 117
135 18 117
135 17 117
135 17 117
135 17 117
135 16 117
135 16 117
135 16 117
135 15 117
136 15 117
136 15 117
136 15 117
136 14 117
136 14 117
136 14 117
136 13 117
136 13 117
136 13 117
136 13 117
136 12 117
136 12 117
136 12 117
136 11 117
136 11 117
136 11 117
136 11 117
136 10 117
137 10 117
137 10 117
137 9 117
137 9 117
137 9 117
137 8 117
137 8 117
137 8 117
137 8 117
137 7 117
137 7 117
137 7 117
137 6 117
137 6 117
137 6 117
137 6 117
137 5 117
137 5 117
138 5 117
138 4 117
138 4 117
138 4 117
138 4 117
138 3 117
138 3 117
138 3 117
138 2 117
138 2 117
138 2 117
138 1 117
138 1 117
138 1 117
138 1 117
138 0 117
138 0 117
115 115 115
115 115 115
115 115 115
116 114 115
116 114 115
116 114 115
116 114 115
116 113 115
116 113 115
116 113 115
116 112 115
116 112 115
116 112 115
116 112 115
116 111 115
116 111 115
116 111 115
116 110 115
116 110 115
116 110 115
117 110 115
117 109 115
117 109 115
117 109 115
117 108 115
117 108 115
117 108 115
117 108 115
117 107 115
117 107 115
117 107 115
117 106 115
117 106 115
117 106 115
117 105 115
117 105 115
118 105 115
118 105 115
118 104 115
118 104 115
118 104 115
118 103 115
118 103 115
118 103 115
118 103 115
118 102 115
118 102 115
118 102 115
118 101 115
118 101 115
118 101 115
118 101 115
118 100 115
119 100 115
119 100 115
119 99 115
119 99 115
119 99 115
119 99 115
119 98 115
119 98 115
119 98 115
119 97 115
119 97 115
119 97 115
119 97 115
119 96 115
119 96 115
119 96 115
120 95 115
120 95 115
120 95 115
120 95 115
120 94 115
120 94 115
120 94 115
120 93 115
120 93 115
120 93 115
120 92 115
120 92 115
120 92 115
120 92 115
120 91 115
120 91 115
121 91 115
121 90 115
121 90 115
121 90 115
121 90 115
121 89 115
121 89 115
121 89 115
121 88 115
121 88 115
121 88 115
121 88 115
121 87 115
121 87 115
121 87 115
121 86 115
121 86 115
122 86 115
122 86 115
122 85 115
122 85 115
122 85 115
122 84 115
122 84 115
122 84 115
122 84 115
122 83 115
122 83 115
122 83 115
122 82 115
122 82 115
122 82 115
122 82 115
123 81 115
123 81 115
123 81 115
123 80 115
123 80 115
123 80 115
123 79 115
123 79 115
123 79 115
123 79 115
123 78 115
123 78 115
123 78 115
123 77 115
123 77 115
123 77 115
124 77 115
124 76 115
124 76 115
124 76 115
124 75 115
124 75 115
124 75 115
124 75 115
124 74 115
124 74 115
124 74 115
124 73 115
124 73 115
124 73 115
124 73 115
124 72 115
124 72 115
125 72 115
125 71 115
125 71 115
125 71 115
125 71 115
125 70 115
125 70 115
125 70 115
125 69 115
125 69 115
125 69 115
125 69 115
125 68 115
125 68 115
125 68 115
125 67 115
126 67 115
126 67 115
126 66 115
126 66 115
126 66 115
126 66 115
126 65 115
126 65 115
126 65 115
126 64 115
126 64 115
126 64 115
126 64 115
126 63 115
126 63 115
126 63 115
126 62 115
127 62 115
127 62 115
127 62 115
127 61 115
127 61 115
127 61 115
127 60 115
127 60 115
127 60 115
127 60 115
127 59 115
127 59 115
127 59 115
127 58 115
127 58 115
127 58 115
128 58 115
128 57 115
128 57 115
128 57 115
128 56 115
128 56 115
128 56 115
128 55 115
128 55 115
128 55 115
128 55 115
128 54 115
128 54 115
128 54 115
128 53 115
128 53 115
129 53 115
129 53 115
129 52 115
129 52 115
129 52 115
129 51 115
129 51 115
129 51 115
129 51 115
129 50 115
129 50 115
129 50 115
129 49 115
129 49 115
129 49 115
129 49 115
129 48 115
130 48 115
130 48 115
130 47 115
130 47 115
130 47 115
130 47 115
130 46 115
130 46 115
130 46 115
130 45 115
130 45 115
130 45 115
130 45 115
130 44 115
130 44 115
130 44 115
131 43 115
131 43 115
131 43 115
131 42 115
131 42 115
131 42 115
131 42 115
131 41 115
131 41 115
131 41 115
131 40 115
131 40 115
131 40 115
131 40 115
131 39 115
131 39 115
131 39 115
132 38 115
132 38 115
132 38 115
132 38 115
132 37 115
132 37 115
132 37 115
132 36 115
132 36 115
132 36 115
132 36 115
132 35 115
132 35 115
132 35 115
132 34 115
132 34 115
133 34 115
133 34 115
133 33 115
133 33 115
133 33 115
133 32 115
133 32 115
133 32 115
133 32 115
133 31 115
133 31 115
133 31 115
133 30 115
133 30 115
133 30 115
133 29 115
134 29 115
134 29 115
134 29 115
134 28 115
134 28 115
134 28 115
134 27 115
134 27 115
134 27 115
134 27 115
134 26 115
134 26 115
134 26 115
134 25 115
134 25 115
134 25 115
134 25 115
135 24 115
135 24 115
135 24 115
135 23 115
135 23 115
135 23 115
135 23 115
135 22 115
135 22 115
135 22 115
135 21 115
135 21 115
135 21 115
135 21 115
135 20 115
135 20 115
136 20 115
136 19 115
136 19 115
136 19 115
136 18 115
136 18 115
136 18 115
136 18 115
136 17 115
136 17 115
136 17 115
136 16 115
136 16 115
136 16 115
136 16 115
136 15 115
137 15 115
137 15 115
137 14 115
137 14 115
137 14 115
137 14 115
137 13 115
137 13 115
137 13 115
137 12 115
137 12 115
137 12 115
137 12 115
137 11 115
137 11 115
137 11 115
137 10 115
138 10 115
138 10 115
138 10 115
138 9 115
138 9 115
138 9 115
138 8 115
138 8 115
138 8 115
138 8 115
138 7 115
138 7 115
138 7 115
138 6 115
138 6 115
138 6 115
139 5 115
139 5 115
139 5 115
139 5 115
139 4 115
139 4 115
139 4 115
139 3 115
139 3 115
139 3 115
139 3 115
139 2 115
139 2 115
139 2 115
139 1 115
139 1 115
139 1 115
140 1 115
140 0 115
140 0 115
114 114 114
114 114 114
114 113 114
114 113 114
114 113 114
114 113 114
114 112 114
115 112 114
115 112 114
115 111 114
115 111 114
115 111 114
115 111 114
115 110 114
115 110 114
115 110 114
115 109 114
115 109 114
115 109 114
115 109 114
115 108 114
115 108 114
116 108 114
116 107 114
116 107 114
116 107 114
116 107 114
116 106 114
116 106 114
116 106 114
116 105 114
116 105 114
116 105 114
116 105 114
116 104 114
116 104 114
116 104 114
117 103 114
117 103 114
117 103 114
117 103 114
117 102 114
117 102 114
117 102 114
117 101 114
117 101 114
117 101 114
117 101 114
117 100 114
117 100 114
117 100 114
117 99 114
118 99 114
118 99 114
118 99 114
118 98 114
118 98 114
118 98 114
118 97 114
118 97 114
118 97 114
118 97 114
118 96 114
118 96 114
118 96 114
118 95 114
118 95 114
119 95 114
119 95 114
119 94 114
119 94 114
119 94 114
119 93 114
119 93 114
119 93 114
119 93 114
119 92 114
119 92 114
119 92 114
119 91 114
119 91 114
120 91 114
120 91 114
120 90 114
120 90 114
120 90 114
120 89 114
120 89 114
120 89 114
120 89 114
120 88 114
120 88 114
120 88 114
120 87 114
120 87 114
120 87 114
121 87 114
121 86 114
121 86 114
121 86 114
121 85 114
121 85 114
121 85 114
121 85 114
121 84 114
121 84 114
121 84 114
121 83 114
121 83 114
121 83 114
121 83 114
122 82 114
122 82 114
122 82 114
122 81 114
122 81 114
122 81 114
122 81 114
122 80 114
122 80 114
122 80 114
122 79 114
122 79 114
122 79 114
122 79 114
122 78 114
123 78 114
123 78 114
123 77 114
123 77 114
123 77 114
123 77 114
123 76 114
123 76 114
123 76 114
123 75 114
123 75 114
123 75 114
123 75 114
123 74 114
123 74 114
124 74 114
124 73 114
124 73 114
124 73 114
124 73 114
124 72 114
124 72 114
124 72 114
124 71 114
124 71 114
124 71 114
124 71 114
124 70 114
124 70 114
124 70 114
125 69 114
125 69 114
125 69 114
125 69 114
125 68 114
125 68 114
125 68 114
125 67 114
125 67 114
125 67 114
125 67 114
125 66 114
125 66 114
125 66 114
126 65 114
126 65 114
126 65 114
126 65 114
126 64 114
126 64 114
126 64 114
126 63 114
126 63 114
126 63 114
126 63 114
126 62 114
126 62 114
126 62 114
126 61 114
127 61 114
127 61 114
127 61 114
127 60 114
127 60 114
127 60 114
127 59 114
127 59 114
127 59 114
127 59 114
127 58 114
127 58 114
127 58 114
127 57 114
127 57 114
128 57 114
128 57 114
128 56 114
128 56 114
128 56 114
128 55 114
128 55 114
128 55 114
128 55 114
128 54 114
128 54 114
128 54 114
128 53 114
128 53 114
128 53 114
129 53 114
129 52 114
129 52 114
129 52 114
129 51 114
129 51 114
129 51 114
129 51 114
129 50 114
129 50 114
129 50 114
129 49 114
129 49 114
129 49 114
129 49 114
130 48 114
130 48 114
130 48 114
130 47 114
130 47 114
130 47 114
130 47 114
130 46 114
130 46 114
130 46 114
130 45 114
130 45 114
130 45 114
130 45 114
131 44 114
131 44 114
131 44 114
131 43 114
131 43 114
131 43 114
131 43 114
131 42 114
131 42 114
131 42 114
131 41 114
131 41 114
131 41 114
131 41 114
131 40 114
132 40 114
132 40 114
132 39 114
132 39 114
132 39 114
132 39 114
132 38 114
132 38 114
132 38 114
132 37 114
132 37 114
132 37 114
132 37 114
132 36 114
132 36 114
133 36 114
133 35 114
133 35 114
133 35 114
133 35 114
133 34 114
133 34 114
133 34 114
133 33 114
133 33 114
133 33 114
133 33 114
133 32 114
133 32 114
133 32 114
134 31 114
134 31 114
134 31 114
134 31 114
134 30 114
134 30 114
134 30 114
134 29 114
134 29 114
134 29 114
134 29 114
134 28 114
134 28 114
134 28 114
134 27 114
135 27 114
135 27 114
135 27 114
135 26 114
135 26 114
135 26 114
135 25 114
135 25 114
135 25 114
135 25 114
135 24 114
135 24 114
135 24 114
135 23 114
135 23 114
136 23 114
136 23 114
136 22 114
136 22 114
136 22 114
136 21 114
136 21 114
136 21 114
136 21 114
136 20 114
136 20 114
136 20 114
136 19 114
136 19 114
137 19 114
137 19 114
137 18 114
137 18 114
137 18 114
137 17 114
137 17 114
137 17 114
137 17 114
137 16 114
137 16 114
137 16 114
137 15 114
137 15 114
137 15 114
138 15 114
138 14 114
138 14 114
138 14 114
138 13 114
138 13 114
138 13 114
138 13 114
138 12 114
138 12 114
138 12 114
138 11 114
138 11 114
138 11 114
138 11 114
139 10 114
139 10 114
139 10 114
139 9 114
139 9 114
139 9 114
139 9 114
139 8 114
139 8 114
139 8 114
139 7 114
139 7 114
139 7 114
139 7 114
139 6 114
140 6 114
140 6 114
140 5 114
140 5 114
140 5 114
140 5 114
140 4 114
140 4 114
140 4 114
140 3 114
140 3 114
140 3 114
140 3 114
140 2 114
140 2 114
141 2 114
141 1 114
141 1 114
141 1 114
141 1 114
141 0 114
141 0 114
113 113 113
113 112 113
113 112 113
113 112 113
113 112 113
113 111 113
113 111 113
113 111 113
113 111 113
113 110 113
114 110 113
114 110 113
114 109 113
114 109 113
114 109 113
114 109 113
114 108 113
114 108 113
114 108 113
114 107 113
114 107 113
114 107 113
114 107 113
114 106 113
115 106 113
115 106 113
115 105 113
115 105 113
115 105 113
115 105 113
115 104 113
115 104 113
115 104 113
115 103 113
115 103 113
115 103 113
115 103 113
115 102 113
116 102 113
116 102 113
116 101 113
116 101 113
116 101 113
116 101 113
116 100 113
116 100 113
116 100 113
116 99 113
116 99 113
116 99 113
116 99 113
117 98 113
117 98 113
117 98 113
117 98 113
117 97 113
117 97 113
117 97 113
117 96 113
117 96 113
117 96 113
117 96 113
117 95 113
117 95 113
117 95 113
118 94 113
118 94 113
118 94 113
118 94 113
118 93 113
118 93 113
118 93 113
118 92 113
118 92 113
118 92 113
118 92 113
118 91 113
118 91 113
119 91 113
119 90 113
119 90 113
119 90 113
119 90 113
119 89 113
119 89 113
119 89 113
119 88 113
119 88 113
119 88 113
119 88 113
119 87 113
119 87 113
120 87 113
120 86 113
120 86 113
120 86 113
120 86 113
120 85 113
120 85 113
120 85 113
120 85 113
120 84 113
120 84 113
120 84 113
120 83 113
121 83 113
121 83 113
121 83 113
121 82 113
121 82 113
121 82 113
121 81 113
121 81 113
121 81 113
121 81 113
121 80 113
121 80 113
121 80 113
121 79 113
122 79 113
122 79 113
122 79 113
122 78 113
122 78 113
122 78 113
122 77 113
122 77 113
122 77 113
122 77 113
122 76 113
122 76 113
122 76 113
123 75 113
123 75 113
123 75 113
123 75 113
123 74 113
123 74 113
123 74 113
123 73 113
123 73 113
123 73 113
123 73 113
123 72 113
123 72 113
123 72 113
124 72 113
124 71 113
124 71 113
124 71 113
124 70 113
124 70 113
124 70 113
124 70 113
124 69 113
124 69 113
124 69 113
124 68 113
124 68 113
125 68 113
125 68 113
125 67 113
125 67 113
125 67 113
125 66 113
125 66 113
125 66 113
125 66 113
125 65 113
125 65 113
125 65 113
125 64 113
125 64 113
126 64 113
126 64 113
126 63 113
126 63 113
126 63 113
126 62 113
126 62 113
126 62 113
126 62 113
126 61 113
126 61 113
126 61 113
126 60 113
127 60 113
127 60 113
127 60 113
127 59 113
127 59 113
127 59 113
127 59 113
127 58 113
127 58 113
127 58 113
127 57 113
127 57 113
127 57 113
127 57 113
128 56 113
128 56 113
128 56 113
128 55 113
128 55 113
128 55 113
128 55 113
128 54 113
128 54 113
128 54 113
128 53 113
128 53 113
128 53 113
128 53 113
129 52 113
129 52 113
129 52 113
129 51 113
129 51 113
129 51 113
129 51 113
129 50 113
129 50 113
129 50 113
129 49 113
129 49 113
129 49 113
130 49 113
130 48 113
130 48 113
130 48 113
130 47 113
130 47 113
130 47 113
130 47 113
130 46 113
130 46 113
130 46 113
130 46 113
130 45 113
130 45 113
131 45 113
131 44 113
131 44 113
131 44 113
131 44 113
131 43 113
131 43 113
131 43 113
131 42 113
131 42 113
131 42 113
131 42 113
131 41 113
132 41 113
132 41 113
132 40 113
132 40 113
132 40 113
132 40 113
132 39 113
132 39 113
132 39 113
132 38 113
132 38 113
132 38 113
132 38 113
132 37 113
133 37 113
133 37 113
133 36 113
133 36 113
133 36 113
133 36 113
133 35 113
133 35 113
133 35 113
133 34 113
133 34 113
133 34 113
133 34 113
134 33 113
134 33 113
134 33 113
134 33 113
134 32 113
134 32 113
134 32 113
134 31 113
134 31 113
134 31 113
134 31 113
134 30 113
134 30 113
134 30 113
135 29 113
135 29 113
135 29 113
135 29 113
135 28 113
135 28 113
135 28 113
135 27 113
135 27 113
135 27 113
135 27 113
135 26 113
135 26 113
136 26 113
136 25 113
136 25 113
136 25 113
136 25 113
136 24 113
136 24 113
136 24 113
136 23 113
136 23 113
136 23 113
136 23 113
136 22 113
136 22 113
137 22 113
137 21 113
137 21 113
137 21 113
137 21 113
137 20 113
137 20 113
137 20 113
137 20 113
137 19 113
137 19 113
137 19 113
137 18 113
138 18 113
138 18 113
138 18 113
138 17 113
138 17 113
138 17 113
138 16 113
138 16 113
138 16 113
138 16 113
138 15 113
138 15 113
138 15 113
138 14 113
139 14 113
139 14 113
139 14 113
139 13 113
139 13 113
139 13 113
139 12 113
139 12 113
139 12 113
139 12 113
139 11 113
139 11 113
139 11 113
140 10 113
140 10 113
140 10 113
140 10 113
140 9 113
140 9 113
140 9 113
140 8 113
140 8 113
140 8 113
140 8 113
140 7 113
140 7 113
140 7 113
141 7 113
141 6 113
141 6 113
141 6 113
141 5 113
141 5 113
141 5 113
141 5 113
141 4 113
141 4 113
141 4 113
141 3 113
141 3 113
141 3 113
142 3 113
142 2 113
142 2 113
142 2 113
142 1 113
142 1 113
142 1 113
142 1 113
142 0 113
142 0 113
111 111 111
112 111 111
112 111 111
112 111 111
112 110 111
112 110 111
112 110 111
112 110 111
112 109 111
112 109 111
112 109 111
112 108 111
112 108 111
113 108 111
113 108 111
113 107 111
113 107 111
113 107 111
113 106 111
113 106 111
113 106 111
113 106 111
113 105 111
113 105 111
113 105 111
113 104 111
114 104 111
114 104 111
114 104 111
114 103 111
114 103 111
114 103 111
114 103 111
114 102 111
114 102 111
114 102 111
114 101 111
114 101 111
115 101 111
115 101 111
115 100 111
115 100 111
115 100 111
115 99 111
115 99 111
115 99 111
115 99 111
115 98 111
115 98 111
115 98 111
115 98 111
116 97 111
116 97 111
116 97 111
116 96 111
116 96 111
116 96 111
116 96 111
116 95 111
116 95 111
116 95 111
116 94 111
116 94 111
117 94 111
117 94 111
117 93 111
117 93 111
117 93 111
117 92 111
117 92 111
117 92 111
117 92 111
117 91 111
117 91 111
117 91 111
118 91 111
118 90 111
118 90 111
118 90 111
118 89 111
118 89 111
118 89 111
118 89 111
118 88 111
118 88 111
118 88 111
118 87 111
118 87 111
119 87 111
119 87 111
119 86 111
119 86 111
119 86 111
119 85 111
119 85 111
119 85 111
119 85 111
119 84 111
119 84 111
119 84 111
120 84 111
120 83 111
120 83 111
120 83 111
120 82 111
120 82 111
120 82 111
120 82 111
120 81 111
120 81 111
120 81 111
120 80 111
120 80 111
121 80 111
121 80 111
121 79 111
121 79 111
121 79 111
121 79 111
121 78 111
121 78 111
121 78 111
121 77 111
121 77 111
121 77 111
122 77 111
122 76 111
122 76 111
122 76 111
122 75 111
122 75 111
122 75 111
122 75 111
122 74 111
122 74 111
122 74 111
122 73 111
122 73 111
123 73 111
123 73 111
123 72 111
123 72 111
123 72 111
123 72 111
123 71 111
123 71 111
123 71 111
123 70 111
123 70 111
123 70 111
124 70 111
124 69 111
124 69 111
124 69 111
124 68 111
124 68 111
124 68 111
124 68 111
124 67 111
124 67 111
124 67 111
124 66 111
124 66 111
125 66 111
125 66 111
125 65 111
125 65 111
125 65 111
125 65 111
125 64 111
125 64 111
125 64 111
125 63 111
125 63 111
125 63 111
126 63 111
126 62 111
126 62 111
126 62 111
126 61 111
126 61 111
126 61 111
126 61 111
126 60 111
126 60 111
126 60 111
126 60 111
126 59 111
127 59 111
127 59 111
127 58 111
127 58 111
127 58 111
127 58 111
127 57 111
127 57 111
127 57 111
127 56 111
127 56 111
127 56 111
128 56 111
128 55 111
128 55 111
128 55 111
128 54 111
128 54 111
128 54 111
128 54 111
128 53 111
128 53 111
128 53 111
128 53 111
129 52 111
129 52 111
129 52 111
129 51 111
129 51 111
129 51 111
129 51 111
129 50 111
129 50 111
129 50 111
129 49 111
129 49 111
129 49 111
130 49 111
130 48 111
130 48 111
130 48 111
130 47 111
130 47 111
130 47 111
130 47 111
130 46 111
130 46 111
130 46 111
130 46 111
131 45 111
131 45 111
131 45 111
131 44 111
131 44 111
131 44 111
131 44 111
131 43 111
131 43 111
131 43 111
131 42 111
131 42 111
131 42 111
132 42 111
132 41 111
132 41 111
132 41 111
132 41 111
132 40 111
132 40 111
132 40 111
132 39 111
132 39 111
132 39 111
132 39 111
133 38 111
133 38 111
133 38 111
133 37 111
133 37 111
133 37 111
133 37 111
133 36 111
133 36 111
133 36 111
133 35 111
133 35 111
133 35 111
134 35 111
134 34 111
134 34 111
134 34 111
134 34 111
134 33 111
134 33 111
134 33 111
134 32 111
134 32 111
134 32 111
134 32 111
135 31 111
135 31 111
135 31 111
135 30 111
135 30 111
135 30 111
135 30 111
135 29 111
135 29 111
135 29 111
135 28 111
135 28 111
135 28 111
136 28 111
136 27 111
136 27 111
136 27 111
136 27 111
136 26 111
136 26 111
136 26 111
136 25 111
136 25 111
136 25 111
136 25 111
137 24 111
137 24 111
137 24 111
137 23 111
137 23 111
137 23 111
137 23 111
137 22 111
137 22 111
137 22 111
137 22 111
137 21 111
137 21 111
138 21 111
138 20 111
138 20 111
138 20 111
138 20 111
138 19 111
138 19 111
138 19 111
138 18 111
138 18 111
138 18 111
138 18 111
139 17 111
139 17 111
139 17 111
139 16 111
139 16 111
139 16 111
139 16 111
139 15 111
139 15 111
139 15 111
139 15 111
139 14 111
140 14 111
140 14 111
140 13 111
140 13 111
140 13 111
140 13 111
140 12 111
140 12 111
140 12 111
140 11 111
140 11 111
140 11 111
140 11 111
141 10 111
141 10 111
141 10 111
141 9 111
141 9 111
141 9 111
141 9 111
141 8 111
141 8 111
141 8 111
141 8 111
141 7 111
142 7 111
142 7 111
142 6 111
142 6 111
142 6 111
142 6 111
142 5 111
142 5 111
142 5 111
142 4 111
142 4 111
142 4 111
142 4 111
143 3 111
143 3 111
143 3 111
143 3 111
143 2 111
143 2 111
143 2 111
143 1 111
143 1 111
143 1 111
143 1 111
143 0 111
144 0 111
110 110 110
110 110 110
110 110 110
110 109 110
111 109 110
111 109 110
111 109 110
111 108 110
111 108 110
111 108 110
111 107 110
111 107 110
111 107 110
111 107 110
111 106 110
112 106 110
112 106 110
112 106 110
112 105 110
112 105 110
112 105 110
112 104 110
112 104 110
112 104 110
112 104 110
112 103 110
112 103 110
113 103 110
113 102 110
113 102 110
113 102 110
113 102 110
113 101 110
113 101 110
113 101 110
113 101 110
113 100 110
113 100 110
113 100 110
114 99 110
114 99 110
114 99 110
114 99 110
114 98 110
114 98 110
114 98 110
114 97 110
114 97 110
114 97 110
114 97 110
115 96 110
115 96 110
115 96 110
115 96 110
115 95 110
115 95 110
115 95 110
115 94 110
115 94 110
115 94 110
115 94 110
115 93 110
116 93 110
116 93 110
116 93 110
116 92 110
116 92 110
116 92 110
116 91 110
116 91 110
116 91 110
116 91 110
116 90 110
117 90 110
117 90 110
117 89 110
117 89 110
117 89 110
117 89 110
117 88 110
117 88 110
117 88 110
117 88 110
117 87 110
117 87 110
118 87 110
118 86 110
118 86 110
118 86 110
118 86 110
118 85 110
118 85 110
118 85 110
118 85 110
118 84 110
118 84 110
119 84 110
119 83 110
119 83 110
119 83 110
119 83 110
119 82 110
119 82 110
119 82 110
119 81 110
119 81 110
119 81 110
119 81 110
120 80 110
120 80 110
120 80 110
120 80 110
120 79 110
120 79 110
120 79 110
120 78 110
120 78 110
120 78 110
120 78 110
121 77 110
121 77 110
121 77 110
121 77 110
121 76 110
121 76 110
121 76 110
121 75 110
121 75 110
121 75 110
121 75 110
121 74 110
122 74 110
122 74 110
122 73 110
122 73 110
122 73 110
122 73 110
122 72 110
122 72 110
122 72 110
122 72 110
122 71 110
123 71 110
123 71 110
123 70 110
123 70 110
123 70 110
123 70 110
123 69 110
123 69 110
123 69 110
123 68 110
123 68 110
123 68 110
124 68 110
124 67 110
124 67 110
124 67 110
124 67 110
124 66 110
124 66 110
124 66 110
124 65 110
124 65 110
124 65 110
125 65 110
125 64 110
125 64 110
125 64 110
125 64 110
125 63 110
125 63 110
125 63 110
125 62 110
125 62 110
125 62 110
125 62 110
126 61 110
126 61 110
126 61 110
126 60 110
126 60 110
126 60 110
126 60 110
126 59 110
126 59 110
126 59 110
126 59 110
127 58 110
127 58 110
127 58 110
127 57 110
127 57 110
127 57 110
127 57 110
127 56 110
127 56 110
127 56 110
127 56 110
127 55 110
128 55 110
128 55 110
128 54 110
128 54 110
128 54 110
128 54 110
128 53 110
128 53 110
128 53 110
128 52 110
128 52 110
128 52 110
129 52 110
129 51 110
129 51 110
129 51 110
129 51 110
129 50 110
129 50 110
129 50 110
129 49 110
129 49 110
129 49 110
130 49 110
130 48 110
130 48 110
130 48 110
130 48 110
130 47 110
130 47 110
130 47 110
130 46 110
130 46 110
130 46 110
130 46 110
131 45 110
131 45 110
131 45 110
131 44 110
131 44 110
131 44 110
131 44 110
131 43 110
131 43 110
131 43 110
131 43 110
132 42 110
132 42 110
132 42 110
132 41 110
132 41 110
132 41 110
132 41 110
132 40 110
132 40 110
132 40 110
132 39 110
132 39 110
133 39 110
133 39 110
133 38 110
133 38 110
133 38 110
133 38 110
133 37 110
133 37 110
133 37 110
133 36 110
133 36 110
134 36 110
134 36 110
134 35 110
134 35 110
134 35 110
134 35 110
134 34 110
134 34 110
134 34 110
134 33 110
134 33 110
134 33 110
135 33 110
135 32 110
135 32 110
135 32 110
135 31 110
135 31 110
135 31 110
135 31 110
135 30 110
135 30 110
135 30 110
136 30 110
136 29 110
136 29 110
136 29 110
136 28 110
136 28 110
136 28 110
136 28 110
136 27 110
136 27 110
136 27 110
136 27 110
137 26 110
137 26 110
137 26 110
137 25 110
137 25 110
137 25 110
137 25 110
137 24 110
137 24 110
137 24 110
137 23 110
138 23 110
138 23 110
138 23 110
138 22 110
138 22 110
138 22 110
138 22 110
138 21 110
138 21 110
138 21 110
138 20 110
138 20 110
139 20 110
139 20 110
139 19 110
139 19 110
139 19 110
139 19 110
139 18 110
139 18 110
139 18 110
139 17 110
139 17 110
140 17 110
140 17 110
140 16 110
140 16 110
140 16 110
140 15 110
140 15 110
140 15 110
140 15 110
140 14 110
140 14 110
140 14 110
141 14 110
141 13 110
141 13 110
141 13 110
141 12 110
141 12 110
141 12 110
141 12 110
141 11 110
141 11 110
141 11 110
142 10 110
142 10 110
142 10 110
142 10 110
142 9 110
142 9 110
142 9 110
142 9 110
142 8 110
142 8 110
142 8 110
142 7 110
143 7 110
143 7 110
143 7 110
143 6 110
143 6 110
143 6 110
143 6 110
143 5 110
143 5 110
143 5 110
143 4 110
143 4 110
144 4 110
144 4 110
144 3 110
144 3 110
144 3 110
144 2 110
144 2 110
144 2 110
144 2 110
144 1 110
144 1 110
145 1 110
145 1 110
145 0 110
145 0 110
109 109 109
109 109 109
109 108 109
109 108 109
109 108 109
109 108 109
109 107 109
110 107 109
110 107 109
110 106 109
110 106 109
110 106 109
110 106 109
110 105 109
110 105 109
110 105 109
110 105 109
111 104 109
111 104 109
111 104 109
111 103 109
111 103 109
111 103 109
111 103 109
111 102 109
111 102 109
111 102 109
111 102 109
112 101 109
112 101 109
112 101 109
112 100 109
112 100 109
112 100 109
112 100 109
112 99 109
112 99 109
112 99 109
112 99 109
113 98 109
113 98 109
113 98 109
113 97 109
113 97 109
113 97 109
113 97 109
113 96 109
113 96 109
113 96 109
113 96 109
114 95 109
114 95 109
114 95 109
114 94 109
114 94 109
114 94 109
114 94 109
114 93 109
114 93 109
114 93 109
115 93 109
115 92 109
115 92 109
115 92 109
115 91 109
115 91 109
115 91 109
115 91 109
115 90 109
115 90 109
115 90 109
116 90 109
116 89 109
116 89 109
116 89 109
116 88 109
116 88 109
116 88 109
116 88 109
116 87 109
116 87 109
116 87 109
117 87 109
117 86 109
117 86 109
117 86 109
117 85 109
117 85 109
117 85 109
117 85 109
117 84 109
117 84 109
117 84 109
118 84 109
118 83 109
118 83 109
118 83 109
118 82 109
118 82 109
118 82 109
118 82 109
118 81 109
118 81 109
119 81 109
119 81 109
119 80 109
119 80 109
119 80 109
119 79 109
119 79 109
119 79 109
119 79 109
119 78 109
119 78 109
120 78 109
120 78 109
120 77 109
120 77 109
120 77 109
120 76 109
120 76 109
120 76 109
120 76 109
120 75 109
120 75 109
121 75 109
121 75 109
121 74 109
121 74 109
121 74 109
121 73 109
121 73 109
121 73 109
121 73 109
121 72 109
121 72 109
122 72 109
122 72 109
122 71 109
122 71 109
122 71 109
122 70 109
122 70 109
122 70 109
122 70 109
122 69 109
123 69 109
123 69 109
123 69 109
123 68 109
123 68 109
123 68 109
123 67 109
123 67 109
123 67 109
123 67 109
123 66 109
124 66 109
124 66 109
124 66 109
124 65 109
124 65 109
124 65 109
124 64 109
124 64 109
124 64 109
124 64 109
124 63 109
125 63 109
125 63 109
125 63 109
125 62 109
125 62 109
125 62 109
125 61 109
125 61 109
125 61 109
125 61 109
125 60 109
126 60 109
126 60 109
126 60 109
126 59 109
126 59 109
126 59 109
126 58 109
126 58 109
126 58 109
126 58 109
127 57 109
127 57 109
127 57 109
127 57 109
127 56 109
127 56 109
127 56 109
127 55 109
127 55 109
127 55 109
127 55 109
128 54 109
128 54 109
128 54 109
128 54 109
128 53 109
128 53 109
128 53 109
128 52 109
128 52 109
128 52 109
128 52 109
129 51 109
129 51 109
129 51 109
129 51 109
129 50 109
129 50 109
129 50 109
129 49 109
129 49 109
129 49 109
130 49 109
130 48 109
130 48 109
130 48 109
130 47 109
130 47 109
130 47 109
130 47 109
130 46 109
130 46 109
130 46 109
131 46 109
131 45 109
131 45 109
131 45 109
131 44 109
131 44 109
131 44 109
131 44 109
131 43 109
131 43 109
131 43 109
132 43 109
132 42 109
132 42 109
132 42 109
132 41 109
132 41 109
132 41 109
132 41 109
132 40 109
132 40 109
132 40 109
133 40 109
133 39 109
133 39 109
133 39 109
133 38 109
133 38 109
133 38 109
133 38 109
133 37 109
133 37 109
134 37 109
134 37 109
134 36 109
134 36 109
134 36 109
134 35 109
134 35 109
134 35 109
134 35 109
134 34 109
134 34 109
135 34 109
135 34 109
135 33 109
135 33 109
135 33 109
135 32 109
135 32 109
135 32 109
135 32 109
135 31 109
135 31 109
136 31 109
136 31 109
136 30 109
136 30 109
136 30 109
136 29 109
136 29 109
136 29 109
136 29 109
136 28 109
136 28 109
137 28 109
137 28 109
137 27 109
137 27 109
137 27 109
137 26 109
137 26 109
137 26 109
137 26 109
137 25 109
138 25 109
138 25 109
138 25 109
138 24 109
138 24 109
138 24 109
138 23 109
138 23 109
138 23 109
138 23 109
138 22 109
139 22 109
139 22 109
139 22 109
139 21 109
139 21 109
139 21 109
139 20 109
139 20 109
139 20 109
139 20 109
139 19 109
140 19 109
140 19 109
140 19 109
140 18 109
140 18 109
140 18 109
140 17 109
140 17 109
140 17 109
140 17 109
140 16 109
141 16 109
141 16 109
141 16 109
141 15 109
141 15 109
141 15 109
141 14 109
141 14 109
141 14 109
141 14 109
142 13 109
142 13 109
142 13 109
142 13 109
142 12 109
142 12 109
142 12 109
142 11 109
142 11 109
142 11 109
142 11 109
143 10 109
143 10 109
143 10 109
143 10 109
143 9 109
143 9 109
143 9 109
143 8 109
143 8 109
143 8 109
143 8 109
144 7 109
144 7 109
144 7 109
144 7 109
144 6 109
144 6 109
144 6 109
144 5 109
144 5 109
144 5 109
144 5 109
145 4 109
145 4 109
145 4 109
145 4 109
145 3 109
145 3 109
145 3 109
145 2 109
145 2 109
145 2 109
146 2 109
146 1 109
146 1 109
146 1 109
146 1 109
146 0 109
146 0 109
108 108 108
108 107 108
108 107 108
108 107 108
108 107 108
108 106 108
108 106 108
108 106 108
108 105 108
109 105 108
109 105 108
109 105 108
109 104 108
109 104 108
109 104 108
109 104 108
109 103 108
109 103 108
109 103 108
110 103 108
110 102 108
110 102 108
110 102 108
110 101 108
110 101 108
110 101 108
110 101 108
110 100 108
110 100 108
111 100 108
111 100 108
111 99 108
111 99 108
111 99 108
111 98 108
111 98 108
111 98 108
111 98 108
111 97 108
112 97 108
112 97 108
112 97 108
112 96 108
112 96 108
112 96 108
112 95 108
112 95 108
112 95 108
112 95 108
113 94 108
113 94 108
113 94 108
113 94 108
113 93 108
113 93 108
113 93 108
113 93 108
113 92 108
113 92 108
114 92 108
114 91 108
114 91 108
114 91 108
114 91 108
114 90 108
114 90 108
114 90 108
114 90 108
114 89 108
115 89 108
115 89 108
115 88 108
115 88 108
115 88 108
115 88 108
115 87 108
115 87 108
115 87 108
115 87 108
116 86 108
116 86 108
116 86 108
116 86 108
116 85 108
116 85 108
116 85 108
116 84 108
116 84 108
116 84 108
116 84 108
117 83 108
117 83 108
117 83 108
117 83 108
117 82 108
117 82 108
117 82 108
117 81 108
117 81 108
117 81 108
118 81 108
118 80 108
118 80 108
118 80 108
118 80 108
118 79 108
118 79 108
118 79 108
118 79 108
118 78 108
119 78 108
119 78 108
119 77 108
119 77 108
119 77 108
119 77 108
119 76 108
119 76 108
119 76 108
119 76 108
120 75 108
120 75 108
120 75 108
120 74 108
120 74 108
120 74 108
120 74 108
120 73 108
120 73 108
120 73 108
121 73 108
121 72 108
121 72 108
121 72 108
121 71 108
121 71 108
121 71 108
121 71 108
121 70 108
121 70 108
122 70 108
122 70 108
122 69 108
122 69 108
122 69 108
122 69 108
122 68 108
122 68 108
122 68 108
122 67 108
123 67 108
123 67 108
123 67 108
123 66 108
123 66 108
123 66 108
123 66 108
123 65 108
123 65 108
123 65 108
124 64 108
124 64 108
124 64 108
124 64 108
124 63 108
124 63 108
124 63 108
124 63 108
124 62 108
124 62 108
125 62 108
125 62 108
125 61 108
125 61 108
125 61 108
125 60 108
125 60 108
125 60 108
125 60 108
125 59 108
126 59 108
126 59 108
126 59 108
126 58 108
126 58 108
126 58 108
126 57 108
126 57 108
126 57 108
126 57 108
127 56 108
127 56 108
127 56 108
127 56 108
127 55 108
127 55 108
127 55 108
127 54 108
127 54 108
127 54 108
128 54 108
128 53 108
128 53 108
128 53 108
128 53 108
128 52 108
128 52 108
128 52 108
128 52 108
128 51 108
129 51 108
129 51 108
129 50 108
129 50 108
129 50 108
129 50 108
129 49 108
129 49 108
129 49 108
129 49 108
130 48 108
130 48 108
130 48 108
130 47 108
130 47 108
130 47 108
130 47 108
130 46 108
130 46 108
130 46 108
131 46 108
131 45 108
131 45 108
131 45 108
131 45 108
131 44 108
131 44 108
131 44 108
131 43 108
131 43 108
132 43 108
132 43 108
132 42 108
132 42 108
132 42 108
132 42 108
132 41 108
132 41 108
132 41 108
132 40 108
133 40 108
133 40 108
133 40 108
133 39 108
133 39 108
133 39 108
133 39 108
133 38 108
133 38 108
133 38 108
134 37 108
134 37 108
134 37 108
134 37 108
134 36 108
134 36 108
134 36 108
134 36 108
134 35 108
134 35 108
135 35 108
135 35 108
135 34 108
135 34 108
135 34 108
135 33 108
135 33 108
135 33 108
135 33 108
135 32 108
136 32 108
136 32 108
136 32 108
136 31 108
136 31 108
136 31 108
136 30 108
136 30 108
136 30 108
136 30 108
137 29 108
137 29 108
137 29 108
137 29 108
137 28 108
137 28 108
137 28 108
137 28 108
137 27 108
137 27 108
138 27 108
138 26 108
138 26 108
138 26 108
138 26 108
138 25 108
138 25 108
138 25 108
138 25 108
138 24 108
139 24 108
139 24 108
139 23 108
139 23 108
139 23 108
139 23 108
139 22 108
139 22 108
139 22 108
139 22 108
139 21 108
140 21 108
140 21 108
140 21 108
140 20 108
140 20 108
140 20 108
140 19 108
140 19 108
140 19 108
140 19 108
141 18 108
141 18 108
141 18 108
141 18 108
141 17 108
141 17 108
141 17 108
141 16 108
141 16 108
141 16 108
142 16 108
142 15 108
142 15 108
142 15 108
142 15 108
142 14 108
142 14 108
142 14 108
142 13 108
142 13 108
143 13 108
143 13 108
143 12 108
143 12 108
143 12 108
143 12 108
143 11 108
143 11 108
143 11 108
143 11 108
144 10 108
144 10 108
144 10 108
144 9 108
144 9 108
144 9 108
144 9 108
144 8 108
144 8 108
144 8 108
145 8 108
145 7 108
145 7 108
145 7 108
145 6 108
145 6 108
145 6 108
145 6 108
145 5 108
145 5 108
146 5 108
146 5 108
146 4 108
146 4 108
146 4 108
146 4 108
146 3 108
146 3 108
146 3 108
146 2 108
147 2 108
147 2 108
147 2 108
147 1 108
147 1 108
147 1 108
147 1 108
147 0 108
147 0 108
106 106 106
106 106 106
107 106 106
107 106 106
107 105 106
107 105 106
107 105 106
107 104 106
107 104 106
107 104 106
107 104 106
108 103 106
108 103 106
108 103 106
108 103 106
108 102 106
108 102 106
108 102 106
108 102 106
108 101 106
108 101 106
109 101 106
109 100 106
109 100 106
109 100 106
109 100 106
109 99 106
109 99 106
109 99 106
109 99 106
110 98 106
110 98 106
110 98 106
110 98 106
110 97 106
110 97 106
110 97 106
110 96 106
110 96 106
110 96 106
111 96 106
111 95 106
111 95 106
111 95 106
111 95 106
111 94 106
111 94 106
111 94 106
111 94 106
112 93 106
112 93 106
112 93 106
112 92 106
112 92 106
112 92 106
112 92 106
112 91 106
112 91 106
113 91 106
113 91 106
113 90 106
113 90 106
113 90 106
113 90 106
113 89 106
113 89 106
113 89 106
113 88 106
114 88 106
114 88 106
114 88 106
114 87 106
114 87 106
114 87 106
114 87 106
114 86 106
114 86 106
115 86 106
115 86 106
115 85 106
115 85 106
115 85 106
115 84 106
115 84 106
115 84 106
115 84 106
115 83 106
116 83 106
116 83 106
116 83 106
116 82 106
116 82 106
116 82 106
116 82 106
116 81 106
116 81 106
117 81 106
117 81 106
117 80 106
117 80 106
117 80 106
117 79 106
117 79 106
117 79 106
117 79 106
117 78 106
118 78 106
118 78 106
118 78 106
118 77 106
118 77 106
118 77 106
118 77 106
118 76 106
118 76 106
119 76 106
119 75 106
119 75 106
119 75 106
119 75 106
119 74 106
119 74 106
119 74 106
119 74 106
119 73 106
120 73 106
120 73 106
120 73 106
120 72 106
120 72 106
120 72 106
120 71 106
120 71 106
120 71 106
121 71 106
121 70 106
121 70 106
121 70 106
121 70 106
121 69 106
121 69 106
121 69 106
121 69 106
122 68 106
122 68 106
122 68 106
122 67 106
122 67 106
122 67 106
122 67 106
122 66 106
122 66 106
122 66 106
123 66 106
123 65 106
123 65 106
123 65 106
123 65 106
123 64 106
123 64 106
123 64 106
123 63 106
124 63 106
124 63 106
124 63 106
124 62 106
124 62 106
124 62 106
124 62 106
124 61 106
124 61 106
124 61 106
125 61 106
125 60 106
125 60 106
125 60 106
125 59 106
125 59 106
125 59 106
125 59 106
125 58 106
126 58 106
126 58 106
126 58 106
126 57 106
126 57 106
126 57 106
126 57 106
126 56 106
126 56 106
126 56 106
127 55 106
127 55 106
127 55 106
127 55 106
127 54 106
127 54 106
127 54 106
127 54 106
127 53 106
128 53 106
128 53 106
128 53 106
128 52 106
128 52 106
128 52 106
128 51 106
128 51 106
128 51 106
129 51 106
129 50 106
129 50 106
129 50 106
129 50 106
129 49 106
129 49 106
129 49 106
129 49 106
129 48 106
130 48 106
130 48 106
130 47 106
130 47 106
130 47 106
130 47 106
130 46 106
130 46 106
130 46 106
131 46 106
131 45 106
131 45 106
131 45 106
131 45 106
131 44 106
131 44 106
131 44 106
131 43 106
131 43 106
132 43 106
132 43 106
132 42 106
132 42 106
132 42 106
132 42 106
132 41 106
132 41 106
132 41 106
133 41 106
133 40 106
133 40 106
133 40 106
133 39 106
133 39 106
133 39 106
133 39 106
133 38 106
133 38 106
134 38 106
134 38 106
134 37 106
134 37 106
134 37 106
134 37 106
134 36 106
134 36 106
134 36 106
135 35 106
135 35 106
135 35 106
135 35 106
135 34 106
135 34 106
135 34 106
135 34 106
135 33 106
136 33 106
136 33 106
136 33 106
136 32 106
136 32 106
136 32 106
136 31 106
136 31 106
136 31 106
136 31 106
137 30 106
137 30 106
137 30 106
137 30 106
137 29 106
137 29 106
137 29 106
137 29 106
137 28 106
138 28 106
138 28 106
138 27 106
138 27 106
138 27 106
138 27 106
138 26 106
138 26 106
138 26 106
138 26 106
139 25 106
139 25 106
139 25 106
139 25 106
139 24 106
139 24 106
139 24 106
139 23 106
139 23 106
140 23 106
140 23 106
140 22 106
140 22 106
140 22 106
140 22 106
140 21 106
140 21 106
140 21 106
140 21 106
141 20 106
141 20 106
141 20 106
141 19 106
141 19 106
141 19 106
141 19 106
141 18 106
141 18 106
142 18 106
142 18 106
142 17 106
142 17 106
142 17 106
142 17 106
142 16 106
142 16 106
142 16 106
142 15 106
143 15 106
143 15 106
143 15 106
143 14 106
143 14 106
143 14 106
143 14 106
143 13 106
143 13 106
144 13 106
144 13 106
144 12 106
144 12 106
144 12 106
144 11 106
144 11 106
144 11 106
144 11 106
145 10 106
145 10 106
145 10 106
145 10 106
145 9 106
145 9 106
145 9 106
145 9 106
145 8 106
145 8 106
146 8 106
146 7 106
146 7 106
146 7 106
146 7 106
146 6 106
146 6 106
146 6 106
146 6 106
147 5 106
147 5 106
147 5 106
147 5 106
147 4 106
147 4 106
147 4 106
147 3 106
147 3 106
147 3 106
148 3 106
148 2 106
148 2 106
148 2 106
148 2 106
148 1 106
148 1 106
148 1 106
148 1 106
149 0 106
149 0 106
105 105 105
105 105 105
105 105 105
105 104 105
106 104 105
106 104 105
106 103 105
106 103 105
106 103 105
106 103 105
106 102 105
106 102 105
106 102 105
107 102 105
107 101 105
107 101 105
107 101 105
107 101 105
107 100 105
107 100 105
107 100 105
107 100 105
108 99 105
108 99 105
108 99 105
108 98 105
108 98 105
108 98 105
108 98 105
108 97 105
108 97 105
109 97 105
109 97 105
109 96 105
109 96 105
109 96 105
109 96 105
109 95 105
109 95 105
109 95 105
110 95 105
110 94 105
110 94 105
110 94 105
110 93 105
110 93 105
110 93 105
110 93 105
110 92 105
111 92 105
111 92 105
111 92 105
111 91 105
111 91 105
111 91 105
111 91 105
111 90 105
111 90 105
112 90 105
112 90 105
112 89 105
112 89 105
112 89 105
112 88 105
112 88 105
112 88 105
112 88 105
113 87 105
113 87 105
113 87 105
113 87 105
113 86 105
113 86 105
113 86 105
113 86 105
114 85 105
114 85 105
114 85 105
114 85 105
114 84 105
114 84 105
114 84 105
114 83 105
114 83 105
115 83 105
115 83 105
115 82 105
115 82 105
115 82 105
115 82 105
115 81 105
115 81 105
115 81 105
116 81 105
116 80 105
116 80 105
116 80 105
116 80 105
116 79 105
116 79 105
116 79 105
116 78 105
117 78 105
117 78 105
117 78 105
117 77 105
117 77 105
117 77 105
117 77 105
117 76 105
117 76 105
118 76 105
118 76 105
118 75 105
118 75 105
118 75 105
118 75 105
118 74 105
118 74 105
118 74 105
119 73 105
119 73 105
119 73 105
119 73 105
119 72 105
119 72 105
119 72 105
119 72 105
119 71 105
120 71 105
120 71 105
120 71 105
120 70 105
120 70 105
120 70 105
120 70 105
120 69 105
120 69 105
121 69 105
121 68 105
121 68 105
121 68 105
121 68 105
121 67 105
121 67 105
121 67 105
121 67 105
122 66 105
122 66 105
122 66 105
122 66 105
122 65 105
122 65 105
122 65 105
122 65 105
122 64 105
123 64 105
123 64 105
123 63 105
123 63 105
123 63 105
123 63 105
123 62 105
123 62 105
124 62 105
124 62 105
124 61 105
124 61 105
124 61 105
124 61 105
124 60 105
124 60 105
124 60 105
125 60 105
125 59 105
125 59 105
125 59 105
125 58 105
125 58 105
125 58 105
125 58 105
125 57 105
126 57 105
126 57 105
126 57 105
126 56 105
126 56 105
126 56 105
126 56 105
126 55 105
126 55 105
127 55 105
127 55 105
127 54 105
127 54 105
127 54 105
127 53 105
127 53 105
127 53 105
127 53 105
128 52 105
128 52 105
128 52 105
128 52 105
128 51 105
128 51 105
128 51 105
128 51 105
128 50 105
129 50 105
129 50 105
129 50 105
129 49 105
129 49 105
129 49 105
129 48 105
129 48 105
129 48 105
130 48 105
130 47 105
130 47 105
130 47 105
130 47 105
130 46 105
130 46 105
130 46 105
130 46 105
131 45 105
131 45 105
131 45 105
131 45 105
131 44 105
131 44 105
131 44 105
131 43 105
131 43 105
132 43 105
132 43 105
132 42 105
132 42 105
132 42 105
132 42 105
132 41 105
132 41 105
133 41 105
133 41 105
133 40 105
133 40 105
133 40 105
133 40 105
133 39 105
133 39 105
133 39 105
134 38 105
134 38 105
134 38 105
134 38 105
134 37 105
134 37 105
134 37 105
134 37 105
134 36 105
135 36 105
135 36 105
135 36 105
135 35 105
135 35 105
135 35 105
135 34 105
135 34 105
135 34 105
136 34 105
136 33 105
136 33 105
136 33 105
136 33 105
136 32 105
136 32 105
136 32 105
136 32 105
137 31 105
137 31 105
137 31 105
137 31 105
137 30 105
137 30 105
137 30 105
137 29 105
137 29 105
138 29 105
138 29 105
138 28 105
138 28 105
138 28 105
138 28 105
138 27 105
138 27 105
138 27 105
139 27 105
139 26 105
139 26 105
139 26 105
139 26 105
139 25 105
139 25 105
139 25 105
139 24 105
140 24 105
140 24 105
140 24 105
140 23 105
140 23 105
140 23 105
140 23 105
140 22 105
140 22 105
141 22 105
141 22 105
141 21 105
141 21 105
141 21 105
141 21 105
141 20 105
141 20 105
141 20 105
142 19 105
142 19 105
142 19 105
142 19 105
142 18 105
142 18 105
142 18 105
142 18 105
143 17 105
143 17 105
143 17 105
143 17 105
143 16 105
143 16 105
143 16 105
143 16 105
143 15 105
144 15 105
144 15 105
144 14 105
144 14 105
144 14 105
144 14 105
144 13 105
144 13 105
144 13 105
145 13 105
145 12 105
145 12 105
145 12 105
145 12 105
145 11 105
145 11 105
145 11 105
145 11 105
146 10 105
146 10 105
146 10 105
146 9 105
146 9 105
146 9 105
146 9 105
146 8 105
146 8 105
147 8 105
147 8 105
147 7 105
147 7 105
147 7 105
147 7 105
147 6 105
147 6 105
147 6 105
148 6 105
148 5 105
148 5 105
148 5 105
148 4 105
148 4 105
148 4 105
148 4 105
148 3 105
149 3 105
149 3 105
149 3 105
149 2 105
149 2 105
149 2 105
149 2 105
149 1 105
149 1 105
150 1 105
150 1 105
150 0 105
150 0 105
104 104 104
104 104 104
104 103 104
104 103 104
104 103 104
104 102 104
105 102 104
105 102 104
105 102 104
105 101 104
105 101 104
105 101 104
105 101 104
105 100 104
105 100 104
106 100 104
106 100 104
106 99 104
106 99 104
106 99 104
106 99 104
106 98 104
106 98 104
107 98 104
107 98 104
107 97 104
107 97 104
107 97 104
107 97 104
107 96 104
107 96 104
107 96 104
108 95 104
108 95 104
108 95 104
108 95 104
108 94 104
108 94 104
108 94 104
108 94 104
109 93 104
109 93 104
109 93 104
109 93 104
109 92 104
109 92 104
109 92 104
109 92 104
109 91 104
110 91 104
110 91 104
110 91 104
110 90 104
110 90 104
110 90 104
110 89 104
110 89 104
111 89 104
111 89 104
111 88 104
111 88 104
111 88 104
111 88 104
111 87 104
111 87 104
112 87 104
112 87 104
112 86 104
112 86 104
112 86 104
112 86 104
112 85 104
112 85 104
112 85 104
113 85 104
113 84 104
113 84 104
113 84 104
113 84 104
113 83 104
113 83 104
113 83 104
114 82 104
114 82 104
114 82 104
114 82 104
114 81 104
114 81 104
114 81 104
114 81 104
114 80 104
115 80 104
115 80 104
115 80 104
115 79 104
115 79 104
115 79 104
115 79 104
115 78 104
116 78 104
116 78 104
116 78 104
116 77 104
116 77 104
116 77 104
116 76 104
116 76 104
117 76 104
117 76 104
117 75 104
117 75 104
117 75 104
117 75 104
117 74 104
117 74 104
117 74 104
118 74 104
118 73 104
118 73 104
118 73 104
118 73 104
118 72 104
118 72 104
118 72 104
119 72 104
119 71 104
119 71 104
119 71 104
119 70 104
119 70 104
119 70 104
119 70 104
119 69 104
120 69 104
120 69 104
120 69 104
120 68 104
120 68 104
120 68 104
120 68 104
120 67 104
121 67 104
121 67 104
121 67 104
121 66 104
121 66 104
121 66 104
121 66 104
121 65 104
121 65 104
122 65 104
122 65 104
122 64 104
122 64 104
122 64 104
122 63 104
122 63 104
122 63 104
123 63 104
123 62 104
123 62 104
123 62 104
123 62 104
123 61 104
123 61 104
123 61 104
124 61 104
124 60 104
124 60 104
124 60 104
124 60 104
124 59 104
124 59 104
124 59 104
124 59 104
125 58 104
125 58 104
125 58 104
125 57 104
125 57 104
125 57 104
125 57 104
125 56 104
126 56 104
126 56 104
126 56 104
126 55 104
126 55 104
126 55 104
126 55 104
126 54 104
126 54 104
127 54 104
127 54 104
127 53 104
127 53 104
127 53 104
127 53 104
127 52 104
127 52 104
128 52 104
128 52 104
128 51 104
128 51 104
128 51 104
128 50 104
128 50 104
128 50 104
129 50 104
129 49 104
129 49 104
129 49 104
129 49 104
129 48 104
129 48 104
129 48 104
129 48 104
130 47 104
130 47 104
130 47 104
130 47 104
130 46 104
130 46 104
130 46 104
130 46 104
131 45 104
131 45 104
131 45 104
131 44 104
131 44 104
131 44 104
131 44 104
131 43 104
131 43 104
132 43 104
132 43 104
132 42 104
132 42 104
132 42 104
132 42 104
132 41 104
132 41 104
133 41 104
133 41 104
133 40 104
133 40 104
133 40 104
133 40 104
133 39 104
133 39 104
134 39 104
134 39 104
134 38 104
134 38 104
134 38 104
134 37 104
134 37 104
134 37 104
134 37 104
135 36 104
135 36 104
135 36 104
135 36 104
135 35 104
135 35 104
135 35 104
135 35 104
136 34 104
136 34 104
136 34 104
136 34 104
136 33 104
136 33 104
136 33 104
136 33 104
136 32 104
137 32 104
137 32 104
137 31 104
137 31 104
137 31 104
137 31 104
137 30 104
137 30 104
138 30 104
138 30 104
138 29 104
138 29 104
138 29 104
138 29 104
138 28 104
138 28 104
138 28 104
139 28 104
139 27 104
139 27 104
139 27 104
139 27 104
139 26 104
139 26 104
139 26 104
140 25 104
140 25 104
140 25 104
140 25 104
140 24 104
140 24 104
140 24 104
140 24 104
141 23 104
141 23 104
141 23 104
141 23 104
141 22 104
141 22 104
141 22 104
141 22 104
141 21 104
142 21 104
142 21 104
142 21 104
142 20 104
142 20 104
142 20 104
142 20 104
142 19 104
143 19 104
143 19 104
143 18 104
143 18 104
143 18 104
143 18 104
143 17 104
143 17 104
143 17 104
144 17 104
144 16 104
144 16 104
144 16 104
144 16 104
144 15 104
144 15 104
144 15 104
145 15 104
145 14 104
145 14 104
145 14 104
145 14 104
145 13 104
145 13 104
145 13 104
146 12 104
146 12 104
146 12 104
146 12 104
146 11 104
146 11 104
146 11 104
146 11 104
146 10 104
147 10 104
147 10 104
147 10 104
147 9 104
147 9 104
147 9 104
147 9 104
147 8 104
148 8 104
148 8 104
148 8 104
148 7 104
148 7 104
148 7 104
148 7 104
148 6 104
148 6 104
149 6 104
149 5 104
149 5 104
149 5 104
149 5 104
149 4 104
149 4 104
149 4 104
150 4 104
150 3 104
150 3 104
150 3 104
150 3 104
150 2 104
150 2 104
150 2 104
150 2 104
151 1 104
151 1 104
151 1 104
151 1 104
151 0 104
151 0 104
103 103 103
103 102 103
103 102 103
103 102 103
103 101 103
103 101 103
103 101 103
103 101 103
104 100 103
104 100 103
104 100 103
104 100 103
104 99 103
104 99 103
104 99 103
104 99 103
105 98 103
105 98 103
105 98 103
105 98 103
105 97 103
105 97 103
105 97 103
105 97 103
106 96 103
106 96 103
106 96 103
106 96 103
106 95 103
106 95 103
106 95 103
106 95 103
107 94 103
107 94 103
107 94 103
107 94 103
107 93 103
107 93 103
107 93 103
107 92 103
108 92 103
108 92 103
108 92 103
108 91 103
108 91 103
108 91 103
108 91 103
108 90 103
109 90 103
109 90 103
109 90 103
109 89 103
109 89 103
109 89 103
109 89 103
109 88 103
110 88 103
110 88 103
110 88 103
110 87 103
110 87 103
110 87 103
110 87 103
110 86 103
111 86 103
111 86 103
111 86 103
111 85 103
111 85 103
111 85 103
111 85 103
111 84 103
112 84 103
112 84 103
112 84 103
112 83 103
112 83 103
112 83 103
112 82 103
112 82 103
113 82 103
113 82 103
113 81 103
113 81 103
113 81 103
113 81 103
113 80 103
113 80 103
114 80 103
114 80 103
114 79 103
114 79 103
114 79 103
114 79 103
114 78 103
114 78 103
115 78 103
115 78 103
115 77 103
115 77 103
115 77 103
115 77 103
115 76 103
115 76 103
116 76 103
116 76 103
116 75 103
116 75 103
116 75 103
116 75 103
116 74 103
116 74 103
117 74 103
117 73 103
117 73 103
117 73 103
117 73 103
117 72 103
117 72 103
117 72 103
118 72 103
118 71 103
118 71 103
118 71 103
118 71 103
118 70 103
118 70 103
118 70 103
119 70 103
119 69 103
119 69 103
119 69 103
119 69 103
119 68 103
119 68 103
119 68 103
120 68 103
120 67 103
120 67 103
120 67 103
120 67 103
120 66 103
120 66 103
120 66 103
121 66 103
121 65 103
121 65 103
121 65 103
121 64 103
121 64 103
121 64 103
121 64 103
122 63 103
122 63 103
122 63 103
122 63 103
122 62 103
122 62 103
122 62 103
122 62 103
123 61 103
123 61 103
123 61 103
123 61 103
123 60 103
123 60 103
123 60 103
123 60 103
124 59 103
124 59 103
124 59 103
124 59 103
124 58 103
124 58 103
124 58 103
124 58 103
125 57 103
125 57 103
125 57 103
125 57 103
125 56 103
125 56 103
125 56 103
125 55 103
126 55 103
126 55 103
126 55 103
126 54 103
126 54 103
126 54 103
126 54 103
126 53 103
127 53 103
127 53 103
127 53 103
127 52 103
127 52 103
127 52 103
127 52 103
127 51 103
128 51 103
128 51 103
128 51 103
128 50 103
128 50 103
128 50 103
128 50 103
128 49 103
129 49 103
129 49 103
129 49 103
129 48 103
129 48 103
129 48 103
129 48 103
129 47 103
130 47 103
130 47 103
130 47 103
130 46 103
130 46 103
130 46 103
130 45 103
130 45 103
131 45 103
131 45 103
131 44 103
131 44 103
131 44 103
131 44 103
131 43 103
131 43 103
132 43 103
132 43 103
132 42 103
132 42 103
132 42 103
132 42 103
132 41 103
132 41 103
133 41 103
133 41 103
133 40 103
133 40 103
133 40 103
133 40 103
133 39 103
133 39 103
134 39 103
134 39 103
134 38 103
134 38 103
134 38 103
134 38 103
134 37 103
134 37 103
135 37 103
135 36 103
135 36 103
135 36 103
135 36 103
135 35 103
135 35 103
135 35 103
136 35 103
136 34 103
136 34 103
136 34 103
136 34 103
136 33 103
136 33 103
136 33 103
137 33 103
137 32 103
137 32 103
137 32 103
137 32 103
137 31 103
137 31 103
137 31 103
138 31 103
138 30 103
138 30 103
138 30 103
138 30 103
138 29 103
138 29 103
138 29 103
139 29 103
139 28 103
139 28 103
139 28 103
139 27 103
139 27 103
139 27 103
139 27 103
140 26 103
140 26 103
140 26 103
140 26 103
140 25 103
140 25 103
140 25 103
140 25 103
141 24 103
141 24 103
141 24 103
141 24 103
141 23 103
141 23 103
141 23 103
141 23 103
142 22 103
142 22 103
142 22 103
142 22 103
142 21 103
142 21 103
142 21 103
142 21 103
143 20 103
143 20 103
143 20 103
143 20 103
143 19 103
143 19 103
143 19 103
143 18 103
144 18 103
144 18 103
144 18 103
144 17 103
144 17 103
144 17 103
144 17 103
144 16 103
145 16 103
145 16 103
145 16 103
145 15 103
145 15 103
145 15 103
145 15 103
145 14 103
146 14 103
146 14 103
146 14 103
146 13 103
146 13 103
146 13 103
146 13 103
146 12 103
147 12 103
147 12 103
147 12 103
147 11 103
147 11 103
147 11 103
147 11 103
147 10 103
148 10 103
148 10 103
148 10 103
148 9 103
148 9 103
148 9 103
148 8 103
148 8 103
149 8 103
149 8 103
149 7 103
149 7 103
149 7 103
149 7 103
149 6 103
149 6 103
150 6 103
150 6 103
150 5 103
150 5 103
150 5 103
150 5 103
150 4 103
150 4 103
151 4 103
151 4 103
151 3 103
151 3 103
151 3 103
151 3 103
151 2 103
151 2 103
152 2 103
152 2 103
152 1 103
152 1 103
152 1 103
152 1 103
152 0 103
152 0 103
101 101 101
101 101 101
101 101 101
102 100 101
102 100 101
102 100 101
102 100 101
102 99 101
102 99 101
102 99 101
103 99 101
103 98 101
103 98 101
103 98 101
103 98 101
103 97 101
103 97 101
103 97 101
104 97 101
104 96 101
104 96 101
104 96 101
104 96 101
104 95 101
104 95 101
105 95 101
105 95 101
105 94 101
105 94 101
105 94 101
105 94 101
105 93 101
105 93 101
106 93 101
106 93 101
106 92 101
106 92 101
106 92 101
106 92 101
106 91 101
106 91 101
107 91 101
107 91 101
107 90 101
107 90 101
107 90 101
107 90 101
107 89 101
108 89 101
108 89 101
108 89 101
108 88 101
108 88 101
108 88 101
108 88 101
108 87 101
109 87 101
109 87 101
109 87 101
109 86 101
109 86 101
109 86 101
109 86 101
110 85 101
110 85 101
110 85 101
110 84 101
110 84 101
110 84 101
110 84 101
110 83 101
111 83 101
111 83 101
111 83 101
111 82 101
111 82 101
111 82 101
111 82 101
112 81 101
112 81 101
112 81 101
112 81 101
112 80 101
112 80 101
112 80 101
112 80 101
113 79 101
113 79 101
113 79 101
113 79 101
113 78 101
113 78 101
113 78 101
113 78 101
114 77 101
114 77 101
114 77 101
114 77 101
114 76 101
114 76 101
114 76 101
115 76 101
115 75 101
115 75 101
115 75 101
115 75 101
115 74 101
115 74 101
115 74 101
116 74 101
116 73 101
116 73 101
116 73 101
116 73 101
116 72 101
116 72 101
117 72 101
117 72 101
117 71 101
117 71 101
117 71 101
117 71 101
117 70 101
117 70 101
118 70 101
118 70 101
118 69 101
118 69 101
118 69 101
118 69 101
118 68 101
118 68 101
119 68 101
119 67 101
119 67 101
119 67 101
119 67 101
119 66 101
119 66 101
120 66 101
120 66 101
120 65 101
120 65 101
120 65 101
120 65 101
120 64 101
120 64 101
121 64 101
121 64 101
121 63 101
121 63 101
121 63 101
121 63 101
121 62 101
122 62 101
122 62 101
122 62 101
122 61 101
122 61 101
122 61 101
122 61 101
122 60 101
123 60 101
123 60 101
123 60 101
123 59 101
123 59 101
123 59 101
123 59 101
123 58 101
124 58 101
124 58 101
124 58 101
124 57 101
124 57 101
124 57 101
124 57 101
125 56 101
125 56 101
125 56 101
125 56 101
125 55 101
125 55 101
125 55 101
125 55 101
126 54 101
126 54 101
126 54 101
126 54 101
126 53 101
126 53 101
126 53 101
127 53 101
127 52 101
127 52 101
127 52 101
127 52 101
127 51 101
127 51 101
127 51 101
128 50 101
128 50 101
128 50 101
128 50 101
128 49 101
128 49 101
128 49 101
128 49 101
129 48 101
129 48 101
129 48 101
129 48 101
129 47 101
129 47 101
129 47 101
130 47 101
130 46 101
130 46 101
130 46 101
130 46 101
130 45 101
130 45 101
130 45 101
131 45 101
131 44 101
131 44 101
131 44 101
131 44 101
131 43 101
131 43 101
132 43 101
132 43 101
132 42 101
132 42 101
132 42 101
132 42 101
132 41 101
132 41 101
133 41 101
133 41 101
133 40 101
133 40 101
133 40 101
133 40 101
133 39 101
133 39 101
134 39 101
134 39 101
134 38 101
134 38 101
134 38 101
134 38 101
134 37 101
135 37 101
135 37 101
135 37 101
135 36 101
135 36 101
135 36 101
135 36 101
135 35 101
136 35 101
136 35 101
136 35 101
136 34 101
136 34 101
136 34 101
136 33 101
137 33 101
137 33 101
137 33 101
137 32 101
137 32 101
137 32 101
137 32 101
137 31 101
138 31 101
138 31 101
138 31 101
138 30 101
138 30 101
138 30 101
138 30 101
138 29 101
139 29 101
139 29 101
139 29 101
139 28 101
139 28 101
139 28 101
139 28 101
140 27 101
140 27 101
140 27 101
140 27 101
140 26 101
140 26 101
140 26 101
140 26 101
141 25 101
141 25 101
141 25 101
141 25 101
141 24 101
141 24 101
141 24 101
142 24 101
142 23 101
142 23 101
142 23 101
142 23 101
142 22 101
142 22 101
142 22 101
143 22 101
143 21 101
143 21 101
143 21 101
143 21 101
143 20 101
143 20 101
143 20 101
144 20 101
144 19 101
144 19 101
144 19 101
144 19 101
144 18 101
144 18 101
145 18 101
145 18 101
145 17 101
145 17 101
145 17 101
145 16 101
145 16 101
145 16 101
146 16 101
146 15 101
146 15 101
146 15 101
146 15 101
146 14 101
146 14 101
147 14 101
147 14 101
147 13 101
147 13 101
147 13 101
147 13 101
147 12 101
147 12 101
148 12 101
148 12 101
148 11 101
148 11 101
148 11 101
148 11 101
148 10 101
149 10 101
149 10 101
149 10 101
149 9 101
149 9 101
149 9 101
149 9 101
149 8 101
150 8 101
150 8 101
150 8 101
150 7 101
150 7 101
150 7 101
150 7 101
150 6 101
151 6 101
151 6 101
151 6 101
151 5 101
151 5 101
151 5 101
151 5 101
152 4 101
152 4 101
152 4 101
152 4 101
152 3 101
152 3 101
152 3 101
152 3 101
153 2 101
153 2 101
153 2 101
153 2 101
153 1 101
153 1 101
153 1 101
154 1 101
154 0 101
154 0 101
100 100 100
100 100 100
100 99 100
100 99 100
101 99 100
101 99 100
101 98 100
101 98 100
101 98 100
101 98 100
101 97 100
101 97 100
102 97 100
102 97 100
102 96 100
102 96 100
102 96 100
102 96 100
102 95 100
103 95 100
103 95 100
103 95 100
103 94 100
103 94 100
103 94 100
103 94 100
104 93 100
104 93 100
104 93 100
104 93 100
104 92 100
104 92 100
104 92 100
105 92 100
105 91 100
105 91 100
105 91 100
105 91 100
105 90 100
105 90 100
105 90 100
106 90 100
106 89 100
106 89 100
106 89 100
106 89 100
106 88 100
106 88 100
107 88 100
107 88 100
107 87 100
107 87 100
107 87 100
107 87 100
107 86 100
108 86 100
108 86 100
108 86 100
108 85 100
108 85 100
108 85 100
108 85 100
109 84 100
109 84 100
109 84 100
109 84 100
109 83 100
109 83 100
109 83 100
109 83 100
110 82 100
110 82 100
110 82 100
110 82 100
110 81 100
110 81 100
110 81 100
111 81 100
111 80 100
111 80 100
111 80 100
111 80 100
111 79 100
111 79 100
112 79 100
112 79 100
112 78 100
112 78 100
112 78 100
112 78 100
112 77 100
113 77 100
113 77 100
113 77 100
113 76 100
113 76 100
113 76 100
113 76 100
113 75 100
114 75 100
114 75 100
114 75 100
114 74 100
114 74 100
114 74 100
114 74 100
115 73 100
115 73 100
115 73 100
115 73 100
115 72 100
115 72 100
115 72 100
116 72 100
116 71 100
116 71 100
116 71 100
116 71 100
116 70 100
116 70 100
117 70 100
117 70 100
117 69 100
117 69 100
117 69 100
117 69 100
117 68 100
117 68 100
118 68 100
118 68 100
118 67 100
118 67 100
118 67 100
118 67 100
118 66 100
119 66 100
119 66 100
119 66 100
119 65 100
119 65 100
119 65 100
119 65 100
120 64 100
120 64 100
120 64 100
120 64 100
120 63 100
120 63 100
120 63 100
121 63 100
121 62 100
121 62 100
121 62 100
121 62 100
121 61 100
121 61 100
121 61 100
122 61 100
122 60 100
122 60 100
122 60 100
122 60 100
122 59 100
122 59 100
123 59 100
123 59 100
123 58 100
123 58 100
123 58 100
123 58 100
123 57 100
124 57 100
124 57 100
124 57 100
124 56 100
124 56 100
124 56 100
124 56 100
125 55 100
125 55 100
125 55 100
125 55 100
125 54 100
125 54 100
125 54 100
125 54 100
126 53 100
126 53 100
126 53 100
126 53 100
126 52 100
126 52 100
126 52 100
127 52 100
127 51 100
127 51 100
127 51 100
127 51 100
127 50 100
127 50 100
128 50 100
128 50 100
128 49 100
128 49 100
128 49 100
128 49 100
128 48 100
129 48 100
129 48 100
129 48 100
129 47 100
129 47 100
129 47 100
129 47 100
130 46 100
130 46 100
130 46 100
130 46 100
130 45 100
130 45 100
130 45 100
130 45 100
131 44 100
131 44 100
131 44 100
131 44 100
131 43 100
131 43 100
131 43 100
132 43 100
132 42 100
132 42 100
132 42 100
132 42 100
132 41 100
132 41 100
133 41 100
133 41 100
133 40 100
133 40 100
133 40 100
133 40 100
133 39 100
134 39 100
134 39 100
134 39 100
134 38 100
134 38 100
134 38 100
134 38 100
134 37 100
135 37 100
135 37 100
135 37 100
135 36 100
135 36 100
135 36 100
135 36 100
136 35 100
136 35 100
136 35 100
136 35 100
136 34 100
136 34 100
136 34 100
137 34 100
137 33 100
137 33 100
137 33 100
137 33 100
137 32 100
137 32 100
138 32 100
138 32 100
138 31 100
138 31 100
138 31 100
138 31 100
138 30 100
138 30 100
139 30 100
139 30 100
139 29 100
139 29 100
139 29 100
139 29 100
139 28 100
140 28 100
140 28 100
140 28 100
140 27 100
140 27 100
140 27 100
140 27 100
141 26 100
141 26 100
141 26 100
141 26 100
141 25 100
141 25 100
141 25 100
142 25 100
142 24 100
142 24 100
142 24 100
142 24 100
142 23 100
142 23 100
142 23 100
143 23 100
143 22 100
143 22 100
143 22 100
143 22 100
143 21 100
143 21 100
144 21 100
144 21 100
144 20 100
144 20 100
144 20 100
144 20 100
144 19 100
145 19 100
145 19 100
145 19 100
145 18 100
145 18 100
145 18 100
145 18 100
146 17 100
146 17 100
146 17 100
146 17 100
146 16 100
146 16 100
146 16 100
146 16 100
147 15 100
147 15 100
147 15 100
147 15 100
147 14 100
147 14 100
147 14 100
148 14 100
148 13 100
148 13 100
148 13 100
148 13 100
148 12 100
148 12 100
149 12 100
149 12 100
149 11 100
149 11 100
149 11 100
149 11 100
149 10 100
150 10 100
150 10 100
150 10 100
150 9 100
150 9 100
150 9 100
150 9 100
150 8 100
151 8 100
151 8 100
151 8 100
151 7 100
151 7 100
151 7 100
151 7 100
152 6 100
152 6 100
152 6 100
152 6 100
152 5 100
152 5 100
152 5 100
153 5 100
153 4 100
153 4 100
153 4 100
153 4 100
153 3 100
153 3 100
154 3 100
154 3 100
154 2 100
154 2 100
154 2 100
154 2 100
154 1 100
154 1 100
155 1 100
155 1 100
155 0 100
155 0 100
99 99 99
99 98 99
99 98 99
99 98 99
99 98 99
99 97 99
100 97 99
100 97 99
100 97 99
100 96 99
100 96 99
100 96 99
100 96 99
101 95 99
101 95 99
101 95 99
101 95 99
101 94 99
101 94 99
101 94 99
102 94 99
102 93 99
102 93 99
102 93 99
102 93 99
102 92 99
102 92 99
103 92 99
103 92 99
103 91 99
103 91 99
103 91 99
103 91 99
103 91 99
104 90 99
104 90 99
104 90 99
104 90 99
104 89 99
104 89 99
104 89 99
105 89 99
105 88 99
105 88 99
105 88 99
105 88 99
105 87 99
105 87 99
106 87 99
106 87 99
106 86 99
106 86 99
106 86 99
106 86 99
106 85 99
107 85 99
107 85 99
107 85 99
107 84 99
107 84 99
107 84 99
107 84 99
108 83 99
108 83 99
108 83 99
108 83 99
108 82 99
108 82 99
108 82 99
109 82 99
109 81 99
109 81 99
109 81 99
109 81 99
109 80 99
110 80 99
110 80 99
110 80 99
110 79 99
110 79 99
110 79 99
110 79 99
111 78 99
111 78 99
111 78 99
111 78 99
111 77 99
111 77 99
111 77 99
112 77 99
112 76 99
112 76 99
112 76 99
112 76 99
112 75 99
112 75 99
113 75 99
113 75 99
113 74 99
113 74 99
113 74 99
113 74 99
113 73 99
114 73 99
114 73 99
114 73 99
114 72 99
114 72 99
114 72 99
114 72 99
115 71 99
115 71 99
115 71 99
115 71 99
115 70 99
115 70 99
115 70 99
116 70 99
116 69 99
116 69 99
116 69 99
116 69 99
116 68 99
116 68 99
117 68 99
117 68 99
117 68 99
117 67 99
117 67 99
117 67 99
117 67 99
118 66 99
118 66 99
118 66 99
118 66 99
118 65 99
118 65 99
118 65 99
119 65 99
119 64 99
119 64 99
119 64 99
119 64 99
119 63 99
119 63 99
120 63 99
120 63 99
120 62 99
120 62 99
120 62 99
120 62 99
120 61 99
121 61 99
121 61 99
121 61 99
121 60 99
121 60 99
121 60 99
122 60 99
122 59 99
122 59 99
122 59 99
122 59 99
122 58 99
122 58 99
123 58 99
123 58 99
123 57 99
123 57 99
123 57 99
123 57 99
123 56 99
124 56 99
124 56 99
124 56 99
124 55 99
124 55 99
124 55 99
124 55 99
125 54 99
125 54 99
125 54 99
125 54 99
125 53 99
125 53 99
125 53 99
126 53 99
126 52 99
126 52 99
126 52 99
126 52 99
126 51 99
126 51 99
127 51 99
127 51 99
127 50 99
127 50 99
127 50 99
127 50 99
127 49 99
128 49 99
128 49 99
128 49 99
128 48 99
128 48 99
128 48 99
128 48 99
129 47 99
129 47 99
129 47 99
129 47 99
129 46 99
129 46 99
129 46 99
130 46 99
130 46 99
130 45 99
130 45 99
130 45 99
130 45 99
130 44 99
131 44 99
131 44 99
131 44 99
131 43 99
131 43 99
131 43 99
131 43 99
132 42 99
132 42 99
132 42 99
132 42 99
132 41 99
132 41 99
132 41 99
133 41 99
133 40 99
133 40 99
133 40 99
133 40 99
133 39 99
133 39 99
134 39 99
134 39 99
134 38 99
134 38 99
134 38 99
134 38 99
135 37 99
135 37 99
135 37 99
135 37 99
135 36 99
135 36 99
135 36 99
136 36 99
136 35 99
136 35 99
136 35 99
136 35 99
136 34 99
136 34 99
137 34 99
137 34 99
137 33 99
137 33 99
137 33 99
137 33 99
137 32 99
138 32 99
138 32 99
138 32 99
138 31 99
138 31 99
138 31 99
138 31 99
139 30 99
139 30 99
139 30 99
139 30 99
139 29 99
139 29 99
139 29 99
140 29 99
140 28 99
140 28 99
140 28 99
140 28 99
140 27 99
140 27 99
141 27 99
141 27 99
141 26 99
141 26 99
141 26 99
141 26 99
141 25 99
142 25 99
142 25 99
142 25 99
142 24 99
142 24 99
142 24 99
142 24 99
143 23 99
143 23 99
143 23 99
143 23 99
143 23 99
143 22 99
143 22 99
144 22 99
144 22 99
144 21 99
144 21 99
144 21 99
144 21 99
144 20 99
145 20 99
145 20 99
145 20 99
145 19 99
145 19 99
145 19 99
145 19 99
146 18 99
146 18 99
146 18 99
146 18 99
146 17 99
146 17 99
147 17 99
147 17 99
147 16 99
147 16 99
147 16 99
147 16 99
147 15 99
148 15 99
148 15 99
148 15 99
148 14 99
148 14 99
148 14 99
148 14 99
149 13 99
149 13 99
149 13 99
149 13 99
149 12 99
149 12 99
149 12 99
150 12 99
150 11 99
150 11 99
150 11 99
150 11 99
150 10 99
150 10 99
151 10 99
151 10 99
151 9 99
151 9 99
151 9 99
151 9 99
151 8 99
152 8 99
152 8 99
152 8 99
152 7 99
152 7 99
152 7 99
152 7 99
153 6 99
153 6 99
153 6 99
153 6 99
153 5 99
153 5 99
153 5 99
154 5 99
154 4 99
154 4 99
154 4 99
154 4 99
154 3 99
154 3 99
155 3 99
155 3 99
155 2 99
155 2 99
155 2 99
155 2 99
155 1 99
156 1 99
156 1 99
156 1 99
156 0 99
156 0 99
156 0 99
97 97 97
98 97 97
98 97 97
98 97 97
98 96 97
98 96 97
98 96 97
98 96 97
99 95 97
99 95 97
99 95 97
99 95 97
99 94 97
99 94 97
100 94 97
100 94 97
100 93 97
100 93 97
100 93 97
100 93 97
100 93 97
101 92 97
101 92 97
101 92 97
101 92 97
101 91 97
101 91 97
101 91 97
102 91 97
102 90 97
102 90 97
102 90 97
102 90 97
102 89 97
103 89 97
103 89 97
103 89 97
103 88 97
103 88 97
103 88 97
103 88 97
104 87 97
104 87 97
104 87 97
104 87 97
104 86 97
104 86 97
104 86 97
105 86 97
105 85 97
105 85 97
105 85 97
105 85 97
105 84 97
106 84 97
106 84 97
106 84 97
106 83 97
106 83 97
106 83 97
106 83 97
107 82 97
107 82 97
107 82 97
107 82 97
107 82 97
107 81 97
108 81 97
108 81 97
108 81 97
108 80 97
108 80 97
108 80 97
108 80 97
109 79 97
109 79 97
109 79 97
109 79 97
109 78 97
109 78 97
109 78 97
110 78 97
110 77 97
110 77 97
110 77 97
110 77 97
110 76 97
111 76 97
111 76 97
111 76 97
111 75 97
111 75 97
111 75 97
111 75 97
112 74 97
112 74 97
112 74 97
112 74 97
112 73 97
112 73 97
112 73 97
113 73 97
113 72 97
113 72 97
113 72 97
113 72 97
113 72 97
114 71 97
114 71 97
114 71 97
114 71 97
114 70 97
114 70 97
114 70 97
115 70 97
115 69 97
115 69 97
115 69 97
115 69 97
115 68 97
116 68 97
116 68 97
116 68 97
116 67 97
116 67 97
116 67 97
116 67 97
117 66 97
117 66 97
117 66 97
117 66 97
117 65 97
117 65 97
117 65 97
118 65 97
118 64 97
118 64 97
118 64 97
118 64 97
118 63 97
119 63 97
119 63 97
119 63 97
119 62 97
119 62 97
119 62 97
119 62 97
120 62 97
120 61 97
120 61 97
120 61 97
120 61 97
120 60 97
120 60 97
121 60 97
121 60 97
121 59 97
121 59 97
121 59 97
121 59 97
122 58 97
122 58 97
122 58 97
122 58 97
122 57 97
122 57 97
122 57 97
123 57 97
123 56 97
123 56 97
123 56 97
123 56 97
123 55 97
124 55 97
124 55 97
124 55 97
124 54 97
124 54 97
124 54 97
124 54 97
125 53 97
125 53 97
125 53 97
125 53 97
125 52 97
125 52 97
125 52 97
126 52 97
126 52 97
126 51 97
126 51 97
126 51 97
126 51 97
127 50 97
127 50 97
127 50 97
127 50 97
127 49 97
127 49 97
127 49 97
128 49 97
128 48 97
128 48 97
128 48 97
128 48 97
128 47 97
128 47 97
129 47 97
129 47 97
129 46 97
129 46 97
129 46 97
129 46 97
130 45 97
130 45 97
130 45 97
130 45 97
130 44 97
130 44 97
130 44 97
131 44 97
131 43 97
131 43 97
131 43 97
131 43 97
131 42 97
131 42 97
132 42 97
132 42 97
132 41 97
132 41 97
132 41 97
132 41 97
133 41 97
133 40 97
133 40 97
133 40 97
133 40 97
133 39 97
133 39 97
134 39 97
134 39 97
134 38 97
134 38 97
134 38 97
134 38 97
135 37 97
135 37 97
135 37 97
135 37 97
135 36 97
135 36 97
135 36 97
136 36 97
136 35 97
136 35 97
136 35 97
136 35 97
136 34 97
136 34 97
137 34 97
137 34 97
137 33 97
137 33 97
137 33 97
137 33 97
138 32 97
138 32 97
138 32 97
138 32 97
138 31 97
138 31 97
138 31 97
139 31 97
139 31 97
139 30 97
139 30 97
139 30 97
139 30 97
139 29 97
140 29 97
140 29 97
140 29 97
140 28 97
140 28 97
140 28 97
141 28 97
141 27 97
141 27 97
141 27 97
141 27 97
141 26 97
141 26 97
142 26 97
142 26 97
142 25 97
142 25 97
142 25 97
142 25 97
143 24 97
143 24 97
143 24 97
143 24 97
143 23 97
143 23 97
143 23 97
144 23 97
144 22 97
144 22 97
144 22 97
144 22 97
144 21 97
144 21 97
145 21 97
145 21 97
145 21 97
145 20 97
145 20 97
145 20 97
146 20 97
146 19 97
146 19 97
146 19 97
146 19 97
146 18 97
146 18 97
147 18 97
147 18 97
147 17 97
147 17 97
147 17 97
147 17 97
147 16 97
148 16 97
148 16 97
148 16 97
148 15 97
148 15 97
148 15 97
149 15 97
149 14 97
149 14 97
149 14 97
149 14 97
149 13 97
149 13 97
150 13 97
150 13 97
150 12 97
150 12 97
150 12 97
150 12 97
151 11 97
151 11 97
151 11 97
151 11 97
151 10 97
151 10 97
151 10 97
152 10 97
152 10 97
152 9 97
152 9 97
152 9 97
152 9 97
152 8 97
153 8 97
153 8 97
153 8 97
153 7 97
153 7 97
153 7 97
154 7 97
154 6 97
154 6 97
154 6 97
154 6 97
154 5 97
154 5 97
155 5 97
155 5 97
155 4 97
155 4 97
155 4 97
155 4 97
155 3 97
156 3 97
156 3 97
156 3 97
156 2 97
156 2 97
156 2 97
157 2 97
157 1 97
157 1 97
157 1 97
157 1 97
157 0 97
157 0 97
158 0 97
96 96 96
96 96 96
96 96 96
97 95 96
97 95 96
97 95 96
97 95 96
97 94 96
97 94 96
98 94 96
98 94 96
98 93 96
98 93 96
98 93 96
98 93 96
98 92 96
99 92 96
99 92 96
99 92 96
99 92 96
99 91 96
99 91 96
100 91 96
100 91 96
100 90 96
100 90 96
100 90 96
100 90 96
101 89 96
101 89 96
101 89 96
101 89 96
101 88 96
101 88 96
101 88 96
102 88 96
102 87 96
102 87 96
102 87 96
102 87 96
102 86 96
103 86 96
103 86 96
103 86 96
103 86 96
103 85 96
103 85 96
104 85 96
104 85 96
104 84 96
104 84 96
104 84 96
104 84 96
104 83 96
105 83 96
105 83 96
105 83 96
105 82 96
105 82 96
105 82 96
106 82 96
106 81 96
106 81 96
106 81 96
106 81 96
106 80 96
106 80 96
107 80 96
107 80 96
107 79 96
107 79 96
107 79 96
107 79 96
108 79 96
108 78 96
108 78 96
108 78 96
108 78 96
108 77 96
109 77 96
109 77 96
109 77 96
109 76 96
109 76 96
109 76 96
109 76 96
110 75 96
110 75 96
110 75 96
110 75 96
110 74 96
110 74 96
111 74 96
111 74 96
111 73 96
111 73 96
111 73 96
111 73 96
112 73 96
112 72 96
112 72 96
112 72 96
112 72 96
112 71 96
112 71 96
113 71 96
113 71 96
113 70 96
113 70 96
113 70 96
113 70 96
114 69 96
114 69 96
114 69 96
114 69 96
114 68 96
114 68 96
115 68 96
115 68 96
115 67 96
115 67 96
115 67 96
115 67 96
115 66 96
116 66 96
116 66 96
116 66 96
116 66 96
116 65 96
116 65 96
117 65 96
117 65 96
117 64 96
117 64 96
117 64 96
117 64 96
118 63 96
118 63 96
118 63 96
118 63 96
118 62 96
118 62 96
118 62 96
119 62 96
119 61 96
119 61 96
119 61 96
119 61 96
119 60 96
120 60 96
120 60 96
120 60 96
120 59 96
120 59 96
120 59 96
120 59 96
121 59 96
121 58 96
121 58 96
121 58 96
121 58 96
121 57 96
122 57 96
122 57 96
122 57 96
122 56 96
122 56 96
122 56 96
123 56 96
123 55 96
123 55 96
123 55 96
123 55 96
123 54 96
123 54 96
124 54 96
124 54 96
124 53 96
124 53 96
124 53 96
124 53 96
125 53 96
125 52 96
125 52 96
125 52 96
125 52 96
125 51 96
126 51 96
126 51 96
126 51 96
126 50 96
126 50 96
126 50 96
126 50 96
127 49 96
127 49 96
127 49 96
127 49 96
127 48 96
127 48 96
128 48 96
128 48 96
128 47 96
128 47 96
128 47 96
128 47 96
129 46 96
129 46 96
129 46 96
129 46 96
129 46 96
129 45 96
129 45 96
130 45 96
130 45 96
130 44 96
130 44 96
130 44 96
130 44 96
131 43 96
131 43 96
131 43 96
131 43 96
131 42 96
131 42 96
132 42 96
132 42 96
132 41 96
132 41 96
132 41 96
132 41 96
132 40 96
133 40 96
133 40 96
133 40 96
133 40 96
133 39 96
133 39 96
134 39 96
134 39 96
134 38 96
134 38 96
134 38 96
134 38 96
135 37 96
135 37 96
135 37 96
135 37 96
135 36 96
135 36 96
135 36 96
136 36 96
136 35 96
136 35 96
136 35 96
136 35 96
136 34 96
137 34 96
137 34 96
137 34 96
137 33 96
137 33 96
137 33 96
137 33 96
138 33 96
138 32 96
138 32 96
138 32 96
138 32 96
138 31 96
139 31 96
139 31 96
139 31 96
139 30 96
139 30 96
139 30 96
140 30 96
140 29 96
140 29 96
140 29 96
140 29 96
140 28 96
140 28 96
141 28 96
141 28 96
141 27 96
141 27 96
141 27 96
141 27 96
142 26 96
142 26 96
142 26 96
142 26 96
142 26 96
142 25 96
143 25 96
143 25 96
143 25 96
143 24 96
143 24 96
143 24 96
143 24 96
144 23 96
144 23 96
144 23 96
144 23 96
144 22 96
144 22 96
145 22 96
145 22 96
145 21 96
145 21 96
145 21 96
145 21 96
146 20 96
146 20 96
146 20 96
146 20 96
146 20 96
146 19 96
146 19 96
147 19 96
147 19 96
147 18 96
147 18 96
147 18 96
147 18 96
148 17 96
148 17 96
148 17 96
148 17 96
148 16 96
148 16 96
149 16 96
149 16 96
149 15 96
149 15 96
149 15 96
149 15 96
149 14 96
150 14 96
150 14 96
150 14 96
150 13 96
150 13 96
150 13 96
151 13 96
151 13 96
151 12 96
151 12 96
151 12 96
151 12 96
151 11 96
152 11 96
152 11 96
152 11 96
152 10 96
152 10 96
152 10 96
153 10 96
153 9 96
153 9 96
153 9 96
153 9 96
153 8 96
154 8 96
154 8 96
154 8 96
154 7 96
154 7 96
154 7 96
154 7 96
155 7 96
155 6 96
155 6 96
155 6 96
155 6 96
155 5 96
156 5 96
156 5 96
156 5 96
156 4 96
156 4 96
156 4 96
157 4 96
157 3 96
157 3 96
157 3 96
157 3 96
157 2 96
157 2 96
158 2 96
158 2 96
158 1 96
158 1 96
158 1 96
158 1 96
159 0 96
159 0 96
159 0 96
95 95 95
95 95 95
95 94 95
95 94 95
95 94 95
96 94 95
96 93 95
96 93 95
96 93 95
96 93 95
96 92 95
97 92 95
97 92 95
97 92 95
97 91 95
97 91 95
97 91 95
98 91 95
98 91 95
98 90 95
98 90 95
98 90 95
98 90 95
99 89 95
99 89 95
99 89 95
99 89 95
99 88 95
99 88 95
100 88 95
100 88 95
100 87 95
100 87 95
100 87 95
100 87 95
101 87 95
101 86 95
101 86 95
101 86 95
101 86 95
101 85 95
102 85 95
102 85 95
102 85 95
102 84 95
102 84 95
102 84 95
103 84 95
103 83 95
103 83 95
103 83 95
103 83 95
103 82 95
104 82 95
104 82 95
104 82 95
104 82 95
104 81 95
104 81 95
104 81 95
105 81 95
105 80 95
105 80 95
105 80 95
105 80 95
105 79 95
106 79 95
106 79 95
106 79 95
106 78 95
106 78 95
106 78 95
107 78 95
107 77 95
107 77 95
107 77 95
107 77 95
107 77 95
108 76 95
108 76 95
108 76 95
108 76 95
108 75 95
108 75 95
109 75 95
109 75 95
109 74 95
109 74 95
109 74 95
109 74 95
110 73 95
110 73 95
110 73 95
110 73 95
110 72 95
110 72 95
111 72 95
111 72 95
111 72 95
111 71 95
111 71 95
111 71 95
112 71 95
112 70 95
112 70 95
112 70 95
112 70 95
112 69 95
113 69 95
113 69 95
113 69 95
113 68 95
113 68 95
113 68 95
113 68 95
114 67 95
114 67 95
114 67 95
114 67 95
114 67 95
114 66 95
115 66 95
115 66 95
115 66 95
115 65 95
115 65 95
115 65 95
116 65 95
116 64 95
116 64 95
116 64 95
116 64 95
116 63 95
117 63 95
117 63 95
117 63 95
117 63 95
117 62 95
117 62 95
118 62 95
118 62 95
118 61 95
118 61 95
118 61 95
118 61 95
119 60 95
119 60 95
119 60 95
119 60 95
119 59 95
119 59 95
120 59 95
120 59 95
120 58 95
120 58 95
120 58 95
120 58 95
121 58 95
121 57 95
121 57 95
121 57 95
121 57 95
121 56 95
122 56 95
122 56 95
122 56 95
122 55 95
122 55 95
122 55 95
123 55 95
123 54 95
123 54 95
123 54 95
123 54 95
123 53 95
123 53 95
124 53 95
124 53 95
124 53 95
124 52 95
124 52 95
124 52 95
125 52 95
125 51 95
125 51 95
125 51 95
125 51 95
125 50 95
126 50 95
126 50 95
126 50 95
126 49 95
126 49 95
126 49 95
127 49 95
127 48 95
127 48 95
127 48 95
127 48 95
127 48 95
128 47 95
128 47 95
128 47 95
128 47 95
128 46 95
128 46 95
129 46 95
129 46 95
129 45 95
129 45 95
129 45 95
129 45 95
130 44 95
130 44 95
130 44 95
130 44 95
130 43 95
130 43 95
131 43 95
131 43 95
131 43 95
131 42 95
131 42 95
131 42 95
132 42 95
132 41 95
132 41 95
132 41 95
132 41 95
132 40 95
132 40 95
133 40 95
133 40 95
133 39 95
133 39 95
133 39 95
133 39 95
134 39 95
134 38 95
134 38 95
134 38 95
134 38 95
134 37 95
135 37 95
135 37 95
135 37 95
135 36 95
135 36 95
135 36 95
136 36 95
136 35 95
136 35 95
136 35 95
136 35 95
136 34 95
137 34 95
137 34 95
137 34 95
137 34 95
137 33 95
137 33 95
138 33 95
138 33 95
138 32 95
138 32 95
138 32 95
138 32 95
139 31 95
139 31 95
139 31 95
139 31 95
139 30 95
139 30 95
140 30 95
140 30 95
140 29 95
140 29 95
140 29 95
140 29 95
141 29 95
141 28 95
141 28 95
141 28 95
141 28 95
141 27 95
142 27 95
142 27 95
142 27 95
142 26 95
142 26 95
142 26 95
142 26 95
143 25 95
143 25 95
143 25 95
143 25 95
143 24 95
143 24 95
144 24 95
144 24 95
144 24 95
144 23 95
144 23 95
144 23 95
145 23 95
145 22 95
145 22 95
145 22 95
145 22 95
145 21 95
146 21 95
146 21 95
146 21 95
146 20 95
146 20 95
146 20 95
147 20 95
147 19 95
147 19 95
147 19 95
147 19 95
147 19 95
148 18 95
148 18 95
148 18 95
148 18 95
148 17 95
148 17 95
149 17 95
149 17 95
149 16 95
149 16 95
149 16 95
149 16 95
150 15 95
150 15 95
150 15 95
150 15 95
150 14 95
150 14 95
151 14 95
151 14 95
151 14 95
151 13 95
151 13 95
151 13 95
151 13 95
152 12 95
152 12 95
152 12 95
152 12 95
152 11 95
152 11 95
153 11 95
153 11 95
153 10 95
153 10 95
153 10 95
153 10 95
154 10 95
154 9 95
154 9 95
154 9 95
154 9 95
154 8 95
155 8 95
155 8 95
155 8 95
155 7 95
155 7 95
155 7 95
156 7 95
156 6 95
156 6 95
156 6 95
156 6 95
156 5 95
157 5 95
157 5 95
157 5 95
157 5 95
157 4 95
157 4 95
158 4 95
158 4 95
158 3 95
158 3 95
158 3 95
158 3 95
159 2 95
159 2 95
159 2 95
159 2 95
159 1 95
159 1 95
160 1 95
160 1 95
160 0 95
160 0 95
160 0 95
94 94 94
94 93 94
94 93 94
94 93 94
94 93 94
94 92 94
95 92 94
95 92 94
95 92 94
95 91 94
95 91 94
95 91 94
96 91 94
96 90 94
96 90 94
96 90 94
96 90 94
96 90 94
97 89 94
97 89 94
97 89 94
97 89 94
97 88 94
97 88 94
98 88 94
98 88 94
98 87 94
98 87 94
98 87 94
98 87 94
99 87 94
99 86 94
99 86 94
99 86 94
99 86 94
100 85 94
100 85 94
100 85 94
100 85 94
100 84 94
100 84 94
101 84 94
101 84 94
101 83 94
101 83 94
101 83 94
101 83 94
102 83 94
102 82 94
102 82 94
102 82 94
102 82 94
102 81 94
103 81 94
103 81 94
103 81 94
103 80 94
103 80 94
103 80 94
104 80 94
104 79 94
104 79 94
104 79 94
104 79 94
104 79 94
105 78 94
105 78 94
105 78 94
105 78 94
105 77 94
105 77 94
106 77 94
106 77 94
106 76 94
106 76 94
106 76 94
106 76 94
107 75 94
107 75 94
107 75 94
107 75 94
107 75 94
108 74 94
108 74 94
108 74 94
108 74 94
108 73 94
108 73 94
109 73 94
109 73 94
109 72 94
109 72 94
109 72 94
109 72 94
110 72 94
110 71 94
110 71 94
110 71 94
110 71 94
110 70 94
111 70 94
111 70 94
111 70 94
111 69 94
111 69 94
111 69 94
112 69 94
112 68 94
112 68 94
112 68 94
112 68 94
112 68 94
113 67 94
113 67 94
113 67 94
113 67 94
113 66 94
113 66 94
114 66 94
114 66 94
114 65 94
114 65 94
114 65 94
114 65 94
115 64 94
115 64 94
115 64 94
115 64 94
115 64 94
116 63 94
116 63 94
116 63 94
116 63 94
116 62 94
116 62 94
117 62 94
117 62 94
117 61 94
117 61 94
117 61 94
117 61 94
118 60 94
118 60 94
118 60 94
118 60 94
118 60 94
118 59 94
119 59 94
119 59 94
119 59 94
119 58 94
119 58 94
119 58 94
120 58 94
120 57 94
120 57 94
120 57 94
120 57 94
120 57 94
121 56 94
121 56 94
121 56 94
121 56 94
121 55 94
121 55 94
122 55 94
122 55 94
122 54 94
122 54 94
122 54 94
122 54 94
123 53 94
123 53 94
123 53 94
123 53 94
123 53 94
124 52 94
124 52 94
124 52 94
124 52 94
124 51 94
124 51 94
125 51 94
125 51 94
125 50 94
125 50 94
125 50 94
125 50 94
126 49 94
126 49 94
126 49 94
126 49 94
126 49 94
126 48 94
127 48 94
127 48 94
127 48 94
127 47 94
127 47 94
127 47 94
128 47 94
128 46 94
128 46 94
128 46 94
128 46 94
128 45 94
129 45 94
129 45 94
129 45 94
129 45 94
129 44 94
129 44 94
130 44 94
130 44 94
130 43 94
130 43 94
130 43 94
130 43 94
131 42 94
131 42 94
131 42 94
131 42 94
131 41 94
131 41 94
132 41 94
132 41 94
132 41 94
132 40 94
132 40 94
133 40 94
133 40 94
133 39 94
133 39 94
133 39 94
133 39 94
134 38 94
134 38 94
134 38 94
134 38 94
134 38 94
134 37 94
135 37 94
135 37 94
135 37 94
135 36 94
135 36 94
135 36 94
136 36 94
136 35 94
136 35 94
136 35 94
136 35 94
136 34 94
137 34 94
137 34 94
137 34 94
137 34 94
137 33 94
137 33 94
138 33 94
138 33 94
138 32 94
138 32 94
138 32 94
138 32 94
139 31 94
139 31 94
139 31 94
139 31 94
139 30 94
139 30 94
140 30 94
140 30 94
140 30 94
140 29 94
140 29 94
141 29 94
141 29 94
141 28 94
141 28 94
141 28 94
141 28 94
142 27 94
142 27 94
142 27 94
142 27 94
142 26 94
142 26 94
143 26 94
143 26 94
143 26 94
143 25 94
143 25 94
143 25 94
144 25 94
144 24 94
144 24 94
144 24 94
144 24 94
144 23 94
145 23 94
145 23 94
145 23 94
145 23 94
145 22 94
145 22 94
146 22 94
146 22 94
146 21 94
146 21 94
146 21 94
146 21 94
147 20 94
147 20 94
147 20 94
147 20 94
147 19 94
147 19 94
148 19 94
148 19 94
148 19 94
148 18 94
148 18 94
149 18 94
149 18 94
149 17 94
149 17 94
149 17 94
149 17 94
150 16 94
150 16 94
150 16 94
150 16 94
150 15 94
150 15 94
151 15 94
151 15 94
151 15 94
151 14 94
151 14 94
151 14 94
152 14 94
152 13 94
152 13 94
152 13 94
152 13 94
152 12 94
153 12 94
153 12 94
153 12 94
153 11 94
153 11 94
153 11 94
154 11 94
154 11 94
154 10 94
154 10 94
154 10 94
154 10 94
155 9 94
155 9 94
155 9 94
155 9 94
155 8 94
155 8 94
156 8 94
156 8 94
156 8 94
156 7 94
156 7 94
157 7 94
157 7 94
157 6 94
157 6 94
157 6 94
157 6 94
158 5 94
158 5 94
158 5 94
158 5 94
158 4 94
158 4 94
159 4 94
159 4 94
159 4 94
159 3 94
159 3 94
159 3 94
160 3 94
160 2 94
160 2 94
160 2 94
160 2 94
160 1 94
161 1 94
161 1 94
161 1 94
161 0 94
161 0 94
161 0 94
92 92 92
92 92 92
93 92 92
93 92 92
93 91 92
93 91 92
93 91 92
93 91 92
94 90 92
94 90 92
94 90 92
94 90 92
94 89 92
95 89 92
95 89 92
95 89 92
95 89 92
95 88 92
95 88 92
96 88 92
96 88 92
96 87 92
96 87 92
96 87 92
97 87 92
97 86 92
97 86 92
97 86 92
97 86 92
97 86 92
98 85 92
98 85 92
98 85 92
98 85 92
98 84 92
98 84 92
99 84 92
99 84 92
99 83 92
99 83 92
99 83 92
100 83 92
100 83 92
100 82 92
100 82 92
100 82 92
100 82 92
101 81 92
101 81 92
101 81 92
101 81 92
101 80 92
101 80 92
102 80 92
102 80 92
102 80 92
102 79 92
102 79 92
103 79 92
103 79 92
103 78 92
103 78 92
103 78 92
103 78 92
104 77 92
104 77 92
104 77 92
104 77 92
104 77 92
104 76 92
105 76 92
105 76 92
105 76 92
105 75 92
105 75 92
106 75 92
106 75 92
106 74 92
106 74 92
106 74 92
106 74 92
107 74 92
107 73 92
107 73 92
107 73 92
107 73 92
107 72 92
108 72 92
108 72 92
108 72 92
108 71 92
108 71 92
109 71 92
109 71 92
109 71 92
109 70 92
109 70 92
109 70 92
110 70 92
110 69 92
110 69 92
110 69 92
110 69 92
110 68 92
111 68 92
111 68 92
111 68 92
111 68 92
111 67 92
112 67 92
112 67 92
112 67 92
112 66 92
112 66 92
112 66 92
113 66 92
113 65 92
113 65 92
113 65 92
113 65 92
113 65 92
114 64 92
114 64 92
114 64 92
114 64 92
114 63 92
115 63 92
115 63 92
115 63 92
115 62 92
115 62 92
115 62 92
116 62 92
116 62 92
116 61 92
116 61 92
116 61 92
116 61 92
117 60 92
117 60 92
117 60 92
117 60 92
117 59 92
118 59 92
118 59 92
118 59 92
118 59 92
118 58 92
118 58 92
119 58 92
119 58 92
119 57 92
119 57 92
119 57 92
119 57 92
120 56 92
120 56 92
120 56 92
120 56 92
120 55 92
121 55 92
121 55 92
121 55 92
121 55 92
121 54 92
121 54 92
122 54 92
122 54 92
122 53 92
122 53 92
122 53 92
122 53 92
123 52 92
123 52 92
123 52 92
123 52 92
123 52 92
124 51 92
124 51 92
124 51 92
124 51 92
124 50 92
124 50 92
125 50 92
125 50 92
125 49 92
125 49 92
125 49 92
125 49 92
126 49 92
126 48 92
126 48 92
126 48 92
126 48 92
127 47 92
127 47 92
127 47 92
127 47 92
127 46 92
127 46 92
128 46 92
128 46 92
128 46 92
128 45 92
128 45 92
128 45 92
129 45 92
129 44 92
129 44 92
129 44 92
129 44 92
130 43 92
130 43 92
130 43 92
130 43 92
130 43 92
130 42 92
131 42 92
131 42 92
131 42 92
131 41 92
131 41 92
131 41 92
132 41 92
132 40 92
132 40 92
132 40 92
132 40 92
133 40 92
133 39 92
133 39 92
133 39 92
133 39 92
133 38 92
134 38 92
134 38 92
134 38 92
134 37 92
134 37 92
134 37 92
135 37 92
135 37 92
135 36 92
135 36 92
135 36 92
136 36 92
136 35 92
136 35 92
136 35 92
136 35 92
136 34 92
137 34 92
137 34 92
137 34 92
137 34 92
137 33 92
137 33 92
138 33 92
138 33 92
138 32 92
138 32 92
138 32 92
139 32 92
139 31 92
139 31 92
139 31 92
139 31 92
139 31 92
140 30 92
140 30 92
140 30 92
140 30 92
140 29 92
140 29 92
141 29 92
141 29 92
141 28 92
141 28 92
141 28 92
142 28 92
142 28 92
142 27 92
142 27 92
142 27 92
142 27 92
143 26 92
143 26 92
143 26 92
143 26 92
143 25 92
143 25 92
144 25 92
144 25 92
144 25 92
144 24 92
144 24 92
145 24 92
145 24 92
145 23 92
145 23 92
145 23 92
145 23 92
146 22 92
146 22 92
146 22 92
146 22 92
146 22 92
146 21 92
147 21 92
147 21 92
147 21 92
147 20 92
147 20 92
148 20 92
148 20 92
148 19 92
148 19 92
148 19 92
148 19 92
149 18 92
149 18 92
149 18 92
149 18 92
149 18 92
149 17 92
150 17 92
150 17 92
150 17 92
150 16 92
150 16 92
151 16 92
151 16 92
151 15 92
151 15 92
151 15 92
151 15 92
152 15 92
152 14 92
152 14 92
152 14 92
152 14 92
152 13 92
153 13 92
153 13 92
153 13 92
153 12 92
153 12 92
154 12 92
154 12 92
154 12 92
154 11 92
154 11 92
154 11 92
155 11 92
155 10 92
155 10 92
155 10 92
155 10 92
155 9 92
156 9 92
156 9 92
156 9 92
156 9 92
156 8 92
157 8 92
157 8 92
157 8 92
157 7 92
157 7 92
157 7 92
158 7 92
158 6 92
158 6 92
158 6 92
158 6 92
158 6 92
159 5 92
159 5 92
159 5 92
159 5 92
159 4 92
160 4 92
160 4 92
160 4 92
160 3 92
160 3 92
160 3 92
161 3 92
161 3 92
161 2 92
161 2 92
161 2 92
162 2 92
162 1 92
162 1 92
162 1 92
162 1 92
162 0 92
163 0 92
163 0 92
91 91 91
91 91 91
91 91 91
92 90 91
92 90 91
92 90 91
92 90 91
92 89 91
92 89 91
93 89 91
93 89 91
93 88 91
93 88 91
93 88 91
94 88 91
94 88 91
94 87 91
94 87 91
94 87 91
94 87 91
95 86 91
95 86 91
95 86 91
95 86 91
95 86 91
96 85 91
96 85 91
96 85 91
96 85 91
96 84 91
96 84 91
97 84 91
97 84 91
97 83 91
97 83 91
97 83 91
98 83 91
98 83 91
98 82 91
98 82 91
98 82 91
98 82 91
99 81 91
99 81 91
99 81 91
99 81 91
99 80 91
100 80 91
100 80 91
100 80 91
100 80 91
100 79 91
100 79 91
101 79 91
101 79 91
101 78 91
101 78 91
101 78 91
102 78 91
102 78 91
102 77 91
102 77 91
102 77 91
103 77 91
103 76 91
103 76 91
103 76 91
103 76 91
103 75 91
104 75 91
104 75 91
104 75 91
104 75 91
104 74 91
105 74 91
105 74 91
105 74 91
105 73 91
105 73 91
105 73 91
106 73 91
106 73 91
106 72 91
106 72 91
106 72 91
107 72 91
107 71 91
107 71 91
107 71 91
107 71 91
107 70 91
108 70 91
108 70 91
108 70 91
108 70 91
108 69 91
109 69 91
109 69 91
109 69 91
109 68 91
109 68 91
109 68 91
110 68 91
110 67 91
110 67 91
110 67 91
110 67 91
111 67 91
111 66 91
111 66 91
111 66 91
111 66 91
111 65 91
112 65 91
112 65 91
112 65 91
112 65 91
112 64 91
113 64 91
113 64 91
113 64 91
113 63 91
113 63 91
113 63 91
114 63 91
114 62 91
114 62 91
114 62 91
114 62 91
115 62 91
115 61 91
115 61 91
115 61 91
115 61 91
116 60 91
116 60 91
116 60 91
116 60 91
116 60 91
116 59 91
117 59 91
117 59 91
117 59 91
117 58 91
117 58 91
118 58 91
118 58 91
118 57 91
118 57 91
118 57 91
118 57 91
119 57 91
119 56 91
119 56 91
119 56 91
119 56 91
120 55 91
120 55 91
120 55 91
120 55 91
120 54 91
120 54 91
121 54 91
121 54 91
121 54 91
121 53 91
121 53 91
122 53 91
122 53 91
122 52 91
122 52 91
122 52 91
122 52 91
123 52 91
123 51 91
123 51 91
123 51 91
123 51 91
124 50 91
124 50 91
124 50 91
124 50 91
124 49 91
124 49 91
125 49 91
125 49 91
125 49 91
125 48 91
125 48 91
126 48 91
126 48 91
126 47 91
126 47 91
126 47 91
126 47 91
127 47 91
127 46 91
127 46 91
127 46 91
127 46 91
128 45 91
128 45 91
128 45 91
128 45 91
128 44 91
129 44 91
129 44 91
129 44 91
129 44 91
129 43 91
129 43 91
130 43 91
130 43 91
130 42 91
130 42 91
130 42 91
131 42 91
131 41 91
131 41 91
131 41 91
131 41 91
131 41 91
132 40 91
132 40 91
132 40 91
132 40 91
132 39 91
133 39 91
133 39 91
133 39 91
133 39 91
133 38 91
133 38 91
134 38 91
134 38 91
134 37 91
134 37 91
134 37 91
135 37 91
135 36 91
135 36 91
135 36 91
135 36 91
135 36 91
136 35 91
136 35 91
136 35 91
136 35 91
136 34 91
137 34 91
137 34 91
137 34 91
137 34 91
137 33 91
137 33 91
138 33 91
138 33 91
138 32 91
138 32 91
138 32 91
139 32 91
139 31 91
139 31 91
139 31 91
139 31 91
139 31 91
140 30 91
140 30 91
140 30 91
140 30 91
140 29 91
141 29 91
141 29 91
141 29 91
141 29 91
141 28 91
142 28 91
142 28 91
142 28 91
142 27 91
142 27 91
142 27 91
143 27 91
143 26 91
143 26 91
143 26 91
143 26 91
144 26 91
144 25 91
144 25 91
144 25 91
144 25 91
144 24 91
145 24 91
145 24 91
145 24 91
145 23 91
145 23 91
146 23 91
146 23 91
146 23 91
146 22 91
146 22 91
146 22 91
147 22 91
147 21 91
147 21 91
147 21 91
147 21 91
148 21 91
148 20 91
148 20 91
148 20 91
148 20 91
148 19 91
149 19 91
149 19 91
149 19 91
149 18 91
149 18 91
150 18 91
150 18 91
150 18 91
150 17 91
150 17 91
150 17 91
151 17 91
151 16 91
151 16 91
151 16 91
151 16 91
152 16 91
152 15 91
152 15 91
152 15 91
152 15 91
152 14 91
153 14 91
153 14 91
153 14 91
153 13 91
153 13 91
154 13 91
154 13 91
154 13 91
154 12 91
154 12 91
155 12 91
155 12 91
155 11 91
155 11 91
155 11 91
155 11 91
156 10 91
156 10 91
156 10 91
156 10 91
156 10 91
157 9 91
157 9 91
157 9 91
157 9 91
157 8 91
157 8 91
158 8 91
158 8 91
158 8 91
158 7 91
158 7 91
159 7 91
159 7 91
159 6 91
159 6 91
159 6 91
159 6 91
160 5 91
160 5 91
160 5 91
160 5 91
160 5 91
161 4 91
161 4 91
161 4 91
161 4 91
161 3 91
161 3 91
162 3 91
162 3 91
162 3 91
162 2 91
162 2 91
163 2 91
163 2 91
163 1 91
163 1 91
163 1 91
163 1 91
164 0 91
164 0 91
164 0 91
90 90 90
90 89 90
90 89 90
90 89 90
90 89 90
91 89 90
91 88 90
91 88 90
91 88 90
91 88 90
92 87 90
92 87 90
92 87 90
92 87 90
92 87 90
93 86 90
93 86 90
93 86 90
93 86 90
93 85 90
93 85 90
94 85 90
94 85 90
94 85 90
94 84 90
94 84 90
95 84 90
95 84 90
95 83 90
95 83 90
95 83 90
96 83 90
96 83 90
96 82 90
96 82 90
96 82 90
97 82 90
97 81 90
97 81 90
97 81 90
97 81 90
97 80 90
98 80 90
98 80 90
98 80 90
98 80 90
98 79 90
99 79 90
99 79 90
99 79 90
99 78 90
99 78 90
100 78 90
100 78 90
100 78 90
100 77 90
100 77 90
100 77 90
101 77 90
101 76 90
101 76 90
101 76 90
101 76 90
102 76 90
102 75 90
102 75 90
102 75 90
102 75 90
103 74 90
103 74 90
103 74 90
103 74 90
103 74 90
104 73 90
104 73 90
104 73 90
104 73 90
104 72 90
104 72 90
105 72 90
105 72 90
105 71 90
105 71 90
105 71 90
106 71 90
106 71 90
106 70 90
106 70 90
106 70 90
107 70 90
107 69 90
107 69 90
107 69 90
107 69 90
108 69 90
108 68 90
108 68 90
108 68 90
108 68 90
108 67 90
109 67 90
109 67 90
109 67 90
109 67 90
109 66 90
110 66 90
110 66 90
110 66 90
110 65 90
110 65 90
111 65 90
111 65 90
111 65 90
111 64 90
111 64 90
111 64 90
112 64 90
112 63 90
112 63 90
112 63 90
112 63 90
113 62 90
113 62 90
113 62 90
113 62 90
113 62 90
114 61 90
114 61 90
114 61 90
114 61 90
114 60 90
115 60 90
115 60 90
115 60 90
115 60 90
115 59 90
115 59 90
116 59 90
116 59 90
116 58 90
116 58 90
116 58 90
117 58 90
117 58 90
117 57 90
117 57 90
117 57 90
118 57 90
118 56 90
118 56 90
118 56 90
118 56 90
118 56 90
119 55 90
119 55 90
119 55 90
119 55 90
119 54 90
120 54 90
120 54 90
120 54 90
120 54 90
120 53 90
121 53 90
121 53 90
121 53 90
121 52 90
121 52 90
122 52 90
122 52 90
122 51 90
122 51 90
122 51 90
122 51 90
123 51 90
123 50 90
123 50 90
123 50 90
123 50 90
124 49 90
124 49 90
124 49 90
124 49 90
124 49 90
125 48 90
125 48 90
125 48 90
125 48 90
125 47 90
126 47 90
126 47 90
126 47 90
126 47 90
126 46 90
126 46 90
127 46 90
127 46 90
127 45 90
127 45 90
127 45 90
128 45 90
128 45 90
128 44 90
128 44 90
128 44 90
129 44 90
129 43 90
129 43 90
129 43 90
129 43 90
129 42 90
130 42 90
130 42 90
130 42 90
130 42 90
130 41 90
131 41 90
131 41 90
131 41 90
131 40 90
131 40 90
132 40 90
132 40 90
132 40 90
132 39 90
132 39 90
133 39 90
133 39 90
133 38 90
133 38 90
133 38 90
133 38 90
134 38 90
134 37 90
134 37 90
134 37 90
134 37 90
135 36 90
135 36 90
135 36 90
135 36 90
135 36 90
136 35 90
136 35 90
136 35 90
136 35 90
136 34 90
137 34 90
137 34 90
137 34 90
137 33 90
137 33 90
137 33 90
138 33 90
138 33 90
138 32 90
138 32 90
138 32 90
139 32 90
139 31 90
139 31 90
139 31 90
139 31 90
140 31 90
140 30 90
140 30 90
140 30 90
140 30 90
140 29 90
141 29 90
141 29 90
141 29 90
141 29 90
141 28 90
142 28 90
142 28 90
142 28 90
142 27 90
142 27 90
143 27 90
143 27 90
143 27 90
143 26 90
143 26 90
144 26 90
144 26 90
144 25 90
144 25 90
144 25 90
144 25 90
145 25 90
145 24 90
145 24 90
145 24 90
145 24 90
146 23 90
146 23 90
146 23 90
146 23 90
146 22 90
147 22 90
147 22 90
147 22 90
147 22 90
147 21 90
147 21 90
148 21 90
148 21 90
148 20 90
148 20 90
148 20 90
149 20 90
149 20 90
149 19 90
149 19 90
149 19 90
150 19 90
150 18 90
150 18 90
150 18 90
150 18 90
151 18 90
151 17 90
151 17 90
151 17 90
151 17 90
151 16 90
152 16 90
152 16 90
152 16 90
152 16 90
152 15 90
153 15 90
153 15 90
153 15 90
153 14 90
153 14 90
154 14 90
154 14 90
154 13 90
154 13 90
154 13 90
155 13 90
155 13 90
155 12 90
155 12 90
155 12 90
155 12 90
156 11 90
156 11 90
156 11 90
156 11 90
156 11 90
157 10 90
157 10 90
157 10 90
157 10 90
157 9 90
158 9 90
158 9 90
158 9 90
158 9 90
158 8 90
158 8 90
159 8 90
159 8 90
159 7 90
159 7 90
159 7 90
160 7 90
160 7 90
160 6 90
160 6 90
160 6 90
161 6 90
161 5 90
161 5 90
161 5 90
161 5 90
162 4 90
162 4 90
162 4 90
162 4 90
162 4 90
162 3 90
163 3 90
163 3 90
163 3 90
163 2 90
163 2 90
164 2 90
164 2 90
164 2 90
164 1 90
164 1 90
165 1 90
165 1 90
165 0 90
165 0 90
165 0 90
88 88 88
89 88 88
89 88 88
89 88 88
89 88 88
89 87 88
90 87 88
90 87 88
90 87 88
90 86 88
90 86 88
91 86 88
91 86 88
91 86 88
91 85 88
91 85 88
92 85 88
92 85 88
92 84 88
92 84 88
92 84 88
93 84 88
93 84 88
93 83 88
93 83 88
93 83 88
94 83 88
94 82 88
94 82 88
94 82 88
94 82 88
94 82 88
95 81 88
95 81 88
95 81 88
95 81 88
95 80 88
96 80 88
96 80 88
96 80 88
96 80 88
96 79 88
97 79 88
97 79 88
97 79 88
97 78 88
97 78 88
98 78 88
98 78 88
98 78 88
98 77 88
98 77 88
99 77 88
99 77 88
99 76 88
99 76 88
99 76 88
100 76 88
100 76 88
100 75 88
100 75 88
100 75 88
101 75 88
101 74 88
101 74 88
101 74 88
101 74 88
102 74 88
102 73 88
102 73 88
102 73 88
102 73 88
103 72 88
103 72 88
103 72 88
103 72 88
103 72 88
104 71 88
104 71 88
104 71 88
104 71 88
104 70 88
104 70 88
105 70 88
105 70 88
105 70 88
105 69 88
105 69 88
106 69 88
106 69 88
106 68 88
106 68 88
106 68 88
107 68 88
107 68 88
107 67 88
107 67 88
107 67 88
108 67 88
108 66 88
108 66 88
108 66 88
108 66 88
109 66 88
109 65 88
109 65 88
109 65 88
109 65 88
110 64 88
110 64 88
110 64 88
110 64 88
110 64 88
111 63 88
111 63 88
111 63 88
111 63 88
111 62 88
112 62 88
112 62 88
112 62 88
112 62 88
112 61 88
113 61 88
113 61 88
113 61 88
113 60 88
113 60 88
113 60 88
114 60 88
114 60 88
114 59 88
114 59 88
114 59 88
115 59 88
115 59 88
115 58 88
115 58 88
115 58 88
116 58 88
116 57 88
116 57 88
116 57 88
116 57 88
117 57 88
117 56 88
117 56 88
117 56 88
117 56 88
118 55 88
118 55 88
118 55 88
118 55 88
118 55 88
119 54 88
119 54 88
119 54 88
119 54 88
119 53 88
120 53 88
120 53 88
120 53 88
120 53 88
120 52 88
121 52 88
121 52 88
121 52 88
121 51 88
121 51 88
122 51 88
122 51 88
122 51 88
122 50 88
122 50 88
123 50 88
123 50 88
123 49 88
123 49 88
123 49 88
123 49 88
124 49 88
124 48 88
124 48 88
124 48 88
124 48 88
125 47 88
125 47 88
125 47 88
125 47 88
125 47 88
126 46 88
126 46 88
126 46 88
126 46 88
126 45 88
127 45 88
127 45 88
127 45 88
127 45 88
127 44 88
128 44 88
128 44 88
128 44 88
128 43 88
128 43 88
129 43 88
129 43 88
129 43 88
129 42 88
129 42 88
130 42 88
130 42 88
130 41 88
130 41 88
130 41 88
131 41 88
131 41 88
131 40 88
131 40 88
131 40 88
132 40 88
132 39 88
132 39 88
132 39 88
132 39 88
132 39 88
133 38 88
133 38 88
133 38 88
133 38 88
133 37 88
134 37 88
134 37 88
134 37 88
134 37 88
134 36 88
135 36 88
135 36 88
135 36 88
135 35 88
135 35 88
136 35 88
136 35 88
136 35 88
136 34 88
136 34 88
137 34 88
137 34 88
137 33 88
137 33 88
137 33 88
138 33 88
138 33 88
138 32 88
138 32 88
138 32 88
139 32 88
139 31 88
139 31 88
139 31 88
139 31 88
140 31 88
140 30 88
140 30 88
140 30 88
140 30 88
141 29 88
141 29 88
141 29 88
141 29 88
141 29 88
142 28 88
142 28 88
142 28 88
142 28 88
142 27 88
142 27 88
143 27 88
143 27 88
143 27 88
143 26 88
143 26 88
144 26 88
144 26 88
144 25 88
144 25 88
144 25 88
145 25 88
145 25 88
145 24 88
145 24 88
145 24 88
146 24 88
146 23 88
146 23 88
146 23 88
146 23 88
147 23 88
147 22 88
147 22 88
147 22 88
147 22 88
148 21 88
148 21 88
148 21 88
148 21 88
148 21 88
149 20 88
149 20 88
149 20 88
149 20 88
149 20 88
150 19 88
150 19 88
150 19 88
150 19 88
150 18 88
151 18 88
151 18 88
151 18 88
151 18 88
151 17 88
151 17 88
152 17 88
152 17 88
152 16 88
152 16 88
152 16 88
153 16 88
153 16 88
153 15 88
153 15 88
153 15 88
154 15 88
154 14 88
154 14 88
154 14 88
154 14 88
155 14 88
155 13 88
155 13 88
155 13 88
155 13 88
156 12 88
156 12 88
156 12 88
156 12 88
156 12 88
157 11 88
157 11 88
157 11 88
157 11 88
157 10 88
158 10 88
158 10 88
158 10 88
158 10 88
158 9 88
159 9 88
159 9 88
159 9 88
159 8 88
159 8 88
160 8 88
160 8 88
160 8 88
160 7 88
160 7 88
161 7 88
161 7 88
161 6 88
161 6 88
161 6 88
161 6 88
162 6 88
162 5 88
162 5 88
162 5 88
162 5 88
163 4 88
163 4 88
163 4 88
163 4 88
163 4 88
164 3 88
164 3 88
164 3 88
164 3 88
164 2 88
165 2 88
165 2 88
165 2 88
165 2 88
165 1 88
166 1 88
166 1 88
166 1 88
166 0 88
166 0 88
167 0 88
87 87 87
87 87 87
88 87 87
88 86 87
88 86 87
88 86 87
88 86 87
89 86 87
89 85 87
89 85 87
89 85 87
89 85 87
90 85 87
90 84 87
90 84 87
90 84 87
90 84 87
91 83 87
91 83 87
91 83 87
91 83 87
91 83 87
92 82 87
92 82 87
92 82 87
92 82 87
92 81 87
93 81 87
93 81 87
93 81 87
93 81 87
93 80 87
94 80 87
94 80 87
94 80 87
94 79 87
94 79 87
95 79 87
95 79 87
95 79 87
95 78 87
95 78 87
96 78 87
96 78 87
96 78 87
96 77 87
96 77 87
97 77 87
97 77 87
97 76 87
97 76 87
97 76 87
98 76 87
98 76 87
98 75 87
98 75 87
98 75 87
99 75 87
99 74 87
99 74 87
99 74 87
99 74 87
100 74 87
100 73 87
100 73 87
100 73 87
100 73 87
101 73 87
101 72 87
101 72 87
101 72 87
102 72 87
102 71 87
102 71 87
102 71 87
102 71 87
103 71 87
103 70 87
103 70 87
103 70 87
103 70 87
104 69 87
104 69 87
104 69 87
104 69 87
104 69 87
105 68 87
105 68 87
105 68 87
105 68 87
105 67 87
106 67 87
106 67 87
106 67 87
106 67 87
106 66 87
107 66 87
107 66 87
107 66 87
107 66 87
107 65 87
108 65 87
108 65 87
108 65 87
108 64 87
108 64 87
109 64 87
109 64 87
109 64 87
109 63 87
109 63 87
110 63 87
110 63 87
110 62 87
110 62 87
110 62 87
111 62 87
111 62 87
111 61 87
111 61 87
111 61 87
112 61 87
112 60 87
112 60 87
112 60 87
112 60 87
113 60 87
113 59 87
113 59 87
113 59 87
113 59 87
114 59 87
114 58 87
114 58 87
114 58 87
114 58 87
115 57 87
115 57 87
115 57 87
115 57 87
115 57 87
116 56 87
116 56 87
116 56 87
116 56 87
116 55 87
117 55 87
117 55 87
117 55 87
117 55 87
117 54 87
118 54 87
118 54 87
118 54 87
118 54 87
118 53 87
119 53 87
119 53 87
119 53 87
119 52 87
120 52 87
120 52 87
120 52 87
120 52 87
120 51 87
121 51 87
121 51 87
121 51 87
121 50 87
121 50 87
122 50 87
122 50 87
122 50 87
122 49 87
122 49 87
123 49 87
123 49 87
123 48 87
123 48 87
123 48 87
124 48 87
124 48 87
124 47 87
124 47 87
124 47 87
125 47 87
125 47 87
125 46 87
125 46 87
125 46 87
126 46 87
126 45 87
126 45 87
126 45 87
126 45 87
127 45 87
127 44 87
127 44 87
127 44 87
127 44 87
128 43 87
128 43 87
128 43 87
128 43 87
128 43 87
129 42 87
129 42 87
129 42 87
129 42 87
129 41 87
130 41 87
130 41 87
130 41 87
130 41 87
130 40 87
131 40 87
131 40 87
131 40 87
131 40 87
131 39 87
132 39 87
132 39 87
132 39 87
132 38 87
132 38 87
133 38 87
133 38 87
133 38 87
133 37 87
133 37 87
134 37 87
134 37 87
134 36 87
134 36 87
134 36 87
135 36 87
135 36 87
135 35 87
135 35 87
135 35 87
136 35 87
136 35 87
136 34 87
136 34 87
137 34 87
137 34 87
137 33 87
137 33 87
137 33 87
138 33 87
138 33 87
138 32 87
138 32 87
138 32 87
139 32 87
139 31 87
139 31 87
139 31 87
139 31 87
140 31 87
140 30 87
140 30 87
140 30 87
140 30 87
141 29 87
141 29 87
141 29 87
141 29 87
141 29 87
142 28 87
142 28 87
142 28 87
142 28 87
142 28 87
143 27 87
143 27 87
143 27 87
143 27 87
143 26 87
144 26 87
144 26 87
144 26 87
144 26 87
144 25 87
145 25 87
145 25 87
145 25 87
145 24 87
145 24 87
146 24 87
146 24 87
146 24 87
146 23 87
146 23 87
147 23 87
147 23 87
147 22 87
147 22 87
147 22 87
148 22 87
148 22 87
148 21 87
148 21 87
148 21 87
149 21 87
149 21 87
149 20 87
149 20 87
149 20 87
150 20 87
150 19 87
150 19 87
150 19 87
150 19 87
151 19 87
151 18 87
151 18 87
151 18 87
151 18 87
152 17 87
152 17 87
152 17 87
152 17 87
152 17 87
153 16 87
153 16 87
153 16 87
153 16 87
153 16 87
154 15 87
154 15 87
154 15 87
154 15 87
155 14 87
155 14 87
155 14 87
155 14 87
155 14 87
156 13 87
156 13 87
156 13 87
156 13 87
156 12 87
157 12 87
157 12 87
157 12 87
157 12 87
157 11 87
158 11 87
158 11 87
158 11 87
158 10 87
158 10 87
159 10 87
159 10 87
159 10 87
159 9 87
159 9 87
160 9 87
160 9 87
160 9 87
160 8 87
160 8 87
161 8 87
161 8 87
161 7 87
161 7 87
161 7 87
162 7 87
162 7 87
162 6 87
162 6 87
162 6 87
163 6 87
163 5 87
163 5 87
163 5 87
163 5 87
164 5 87
164 4 87
164 4 87
164 4 87
164 4 87
165 3 87
165 3 87
165 3 87
165 3 87
165 3 87
166 2 87
166 2 87
166 2 87
166 2 87
166 2 87
167 1 87
167 1 87
167 1 87
167 1 87
167 0 87
168 0 87
168 0 87
86 86 86
86 86 86
86 85 86
86 85 86
87 85 86
87 85 86
87 85 86
87 84 86
88 84 86
88 84 86
88 84 86
88 83 86
88 83 86
89 83 86
89 83 86
89 83 86
89 82 86
89 82 86
90 82 86
90 82 86
90 82 86
90 81 86
90 81 86
91 81 86
91 81 86
91 80 86
91 80 86
91 80 86
92 80 86
92 80 86
92 79 86
92 79 86
93 79 86
93 79 86
93 79 86
93 78 86
93 78 86
94 78 86
94 78 86
94 77 86
94 77 86
94 77 86
95 77 86
95 77 86
95 76 86
95 76 86
95 76 86
96 76 86
96 76 86
96 75 86
96 75 86
97 75 86
97 75 86
97 74 86
97 74 86
97 74 86
98 74 86
98 74 86
98 73 86
98 73 86
98 73 86
99 73 86
99 73 86
99 72 86
99 72 86
99 72 86
100 72 86
100 71 86
100 71 86
100 71 86
100 71 86
101 71 86
101 70 86
101 70 86
101 70 86
102 70 86
102 70 86
102 69 86
102 69 86
102 69 86
103 69 86
103 68 86
103 68 86
103 68 86
103 68 86
104 68 86
104 67 86
104 67 86
104 67 86
104 67 86
105 66 86
105 66 86
105 66 86
105 66 86
105 66 86
106 65 86
106 65 86
106 65 86
106 65 86
107 65 86
107 64 86
107 64 86
107 64 86
107 64 86
108 63 86
108 63 86
108 63 86
108 63 86
108 63 86
109 62 86
109 62 86
109 62 86
109 62 86
109 62 86
110 61 86
110 61 86
110 61 86
110 61 86
110 60 86
111 60 86
111 60 86
111 60 86
111 60 86
112 59 86
112 59 86
112 59 86
112 59 86
112 59 86
113 58 86
113 58 86
113 58 86
113 58 86
113 57 86
114 57 86
114 57 86
114 57 86
114 57 86
114 56 86
115 56 86
115 56 86
115 56 86
115 56 86
115 55 86
116 55 86
116 55 86
116 55 86
116 54 86
117 54 86
117 54 86
117 54 86
117 54 86
117 53 86
118 53 86
118 53 86
118 53 86
118 53 86
118 52 86
119 52 86
119 52 86
119 52 86
119 51 86
119 51 86
120 51 86
120 51 86
120 51 86
120 50 86
121 50 86
121 50 86
121 50 86
121 49 86
121 49 86
122 49 86
122 49 86
122 49 86
122 48 86
122 48 86
123 48 86
123 48 86
123 48 86
123 47 86
123 47 86
124 47 86
124 47 86
124 46 86
124 46 86
124 46 86
125 46 86
125 46 86
125 45 86
125 45 86
126 45 86
126 45 86
126 45 86
126 44 86
126 44 86
127 44 86
127 44 86
127 43 86
127 43 86
127 43 86
128 43 86
128 43 86
128 42 86
128 42 86
128 42 86
129 42 86
129 42 86
129 41 86
129 41 86
129 41 86
130 41 86
130 40 86
130 40 86
130 40 86
131 40 86
131 40 86
131 39 86
131 39 86
131 39 86
132 39 86
132 39 86
132 38 86
132 38 86
132 38 86
133 38 86
133 37 86
133 37 86
133 37 86
133 37 86
134 37 86
134 36 86
134 36 86
134 36 86
134 36 86
135 36 86
135 35 86
135 35 86
135 35 86
136 35 86
136 34 86
136 34 86
136 34 86
136 34 86
137 34 86
137 33 86
137 33 86
137 33 86
137 33 86
138 32 86
138 32 86
138 32 86
138 32 86
138 32 86
139 31 86
139 31 86
139 31 86
139 31 86
140 31 86
140 30 86
140 30 86
140 30 86
140 30 86
141 29 86
141 29 86
141 29 86
141 29 86
141 29 86
142 28 86
142 28 86
142 28 86
142 28 86
142 28 86
143 27 86
143 27 86
143 27 86
143 27 86
143 26 86
144 26 86
144 26 86
144 26 86
144 26 86
145 25 86
145 25 86
145 25 86
145 25 86
145 25 86
146 24 86
146 24 86
146 24 86
146 24 86
146 23 86
147 23 86
147 23 86
147 23 86
147 23 86
147 22 86
148 22 86
148 22 86
148 22 86
148 22 86
148 21 86
149 21 86
149 21 86
149 21 86
149 20 86
150 20 86
150 20 86
150 20 86
150 20 86
150 19 86
151 19 86
151 19 86
151 19 86
151 19 86
151 18 86
152 18 86
152 18 86
152 18 86
152 17 86
152 17 86
153 17 86
153 17 86
153 17 86
153 16 86
153 16 86
154 16 86
154 16 86
154 15 86
154 15 86
155 15 86
155 15 86
155 15 86
155 14 86
155 14 86
156 14 86
156 14 86
156 14 86
156 13 86
156 13 86
157 13 86
157 13 86
157 12 86
157 12 86
157 12 86
158 12 86
158 12 86
158 11 86
158 11 86
158 11 86
159 11 86
159 11 86
159 10 86
159 10 86
160 10 86
160 10 86
160 9 86
160 9 86
160 9 86
161 9 86
161 9 86
161 8 86
161 8 86
161 8 86
162 8 86
162 8 86
162 7 86
162 7 86
162 7 86
163 7 86
163 6 86
163 6 86
163 6 86
164 6 86
164 6 86
164 5 86
164 5 86
164 5 86
165 5 86
165 5 86
165 4 86
165 4 86
165 4 86
166 4 86
166 3 86
166 3 86
166 3 86
166 3 86
167 3 86
167 2 86
167 2 86
167 2 86
167 2 86
168 2 86
168 1 86
168 1 86
168 1 86
169 1 86
169 0 86
169 0 86
169 0 86
85 85 85
85 84 85
85 84 85
85 84 85
85 84 85
86 84 85
86 83 85
86 83 85
86 83 85
87 83 85
87 82 85
87 82 85
87 82 85
87 82 85
88 82 85
88 81 85
88 81 85
88 81 85
88 81 85
89 81 85
89 80 85
89 80 85
89 80 85
90 80 85
90 79 85
90 79 85
90 79 85
90 79 85
91 79 85
91 78 85
91 78 85
91 78 85
91 78 85
92 78 85
92 77 85
92 77 85
92 77 85
93 77 85
93 77 85
93 76 85
93 76 85
93 76 85
94 76 85
94 75 85
94 75 85
94 75 85
94 75 85
95 75 85
95 74 85
95 74 85
95 74 85
96 74 85
96 74 85
96 73 85
96 73 85
96 73 85
97 73 85
97 72 85
97 72 85
97 72 85
97 72 85
98 72 85
98 71 85
98 71 85
98 71 85
99 71 85
99 71 85
99 70 85
99 70 85
99 70 85
100 70 85
100 70 85
100 69 85
100 69 85
100 69 85
101 69 85
101 68 85
101 68 85
101 68 85
102 68 85
102 68 85
102 67 85
102 67 85
102 67 85
103 67 85
103 67 85
103 66 85
103 66 85
104 66 85
104 66 85
104 65 85
104 65 85
104 65 85
105 65 85
105 65 85
105 64 85
105 64 85
105 64 85
106 64 85
106 64 85
106 63 85
106 63 85
107 63 85
107 63 85
107 63 85
107 62 85
107 62 85
108 62 85
108 62 85
108 61 85
108 61 85
108 61 85
109 61 85
109 61 85
109 60 85
109 60 85
110 60 85
110 60 85
110 60 85
110 59 85
110 59 85
111 59 85
111 59 85
111 59 85
111 58 85
111 58 85
112 58 85
112 58 85
112 57 85
112 57 85
113 57 85
113 57 85
113 57 85
113 56 85
113 56 85
114 56 85
114 56 85
114 56 85
114 55 85
114 55 85
115 55 85
115 55 85
115 54 85
115 54 85
116 54 85
116 54 85
116 54 85
116 53 85
116 53 85
117 53 85
117 53 85
117 53 85
117 52 85
117 52 85
118 52 85
118 52 85
118 52 85
118 51 85
119 51 85
119 51 85
119 51 85
119 50 85
119 50 85
120 50 85
120 50 85
120 50 85
120 49 85
121 49 85
121 49 85
121 49 85
121 49 85
121 48 85
122 48 85
122 48 85
122 48 85
122 47 85
122 47 85
123 47 85
123 47 85
123 47 85
123 46 85
124 46 85
124 46 85
124 46 85
124 46 85
124 45 85
125 45 85
125 45 85
125 45 85
125 45 85
125 44 85
126 44 85
126 44 85
126 44 85
126 43 85
127 43 85
127 43 85
127 43 85
127 43 85
127 42 85
128 42 85
128 42 85
128 42 85
128 42 85
128 41 85
129 41 85
129 41 85
129 41 85
129 40 85
130 40 85
130 40 85
130 40 85
130 40 85
130 39 85
131 39 85
131 39 85
131 39 85
131 39 85
131 38 85
132 38 85
132 38 85
132 38 85
132 38 85
133 37 85
133 37 85
133 37 85
133 37 85
133 36 85
134 36 85
134 36 85
134 36 85
134 36 85
134 35 85
135 35 85
135 35 85
135 35 85
135 35 85
136 34 85
136 34 85
136 34 85
136 34 85
136 33 85
137 33 85
137 33 85
137 33 85
137 33 85
138 32 85
138 32 85
138 32 85
138 32 85
138 32 85
139 31 85
139 31 85
139 31 85
139 31 85
139 31 85
140 30 85
140 30 85
140 30 85
140 30 85
141 29 85
141 29 85
141 29 85
141 29 85
141 29 85
142 28 85
142 28 85
142 28 85
142 28 85
142 28 85
143 27 85
143 27 85
143 27 85
143 27 85
144 26 85
144 26 85
144 26 85
144 26 85
144 26 85
145 25 85
145 25 85
145 25 85
145 25 85
145 25 85
146 24 85
146 24 85
146 24 85
146 24 85
147 24 85
147 23 85
147 23 85
147 23 85
147 23 85
148 22 85
148 22 85
148 22 85
148 22 85
148 22 85
149 21 85
149 21 85
149 21 85
149 21 85
150 21 85
150 20 85
150 20 85
150 20 85
150 20 85
151 20 85
151 19 85
151 19 85
151 19 85
151 19 85
152 18 85
152 18 85
152 18 85
152 18 85
153 18 85
153 17 85
153 17 85
153 17 85
153 17 85
154 17 85
154 16 85
154 16 85
154 16 85
155 16 85
155 15 85
155 15 85
155 15 85
155 15 85
156 15 85
156 14 85
156 14 85
156 14 85
156 14 85
157 14 85
157 13 85
157 13 85
157 13 85
158 13 85
158 13 85
158 12 85
158 12 85
158 12 85
159 12 85
159 11 85
159 11 85
159 11 85
159 11 85
160 11 85
160 10 85
160 10 85
160 10 85
161 10 85
161 10 85
161 9 85
161 9 85
161 9 85
162 9 85
162 8 85
162 8 85
162 8 85
162 8 85
163 8 85
163 7 85
163 7 85
163 7 85
164 7 85
164 7 85
164 6 85
164 6 85
164 6 85
165 6 85
165 6 85
165 5 85
165 5 85
165 5 85
166 5 85
166 4 85
166 4 85
166 4 85
167 4 85
167 4 85
167 3 85
167 3 85
167 3 85
168 3 85
168 3 85
168 2 85
168 2 85
168 2 85
169 2 85
169 1 85
169 1 85
169 1 85
170 1 85
170 1 85
170 0 85
170 0 85
170 0 85
83 83 83
84 83 83
84 83 83
84 83 83
84 82 83
84 82 83
85 82 83
85 82 83
85 82 83
85 81 83
86 81 83
86 81 83
86 81 83
86 81 83
86 80 83
87 80 83
87 80 83
87 80 83
87 80 83
88 79 83
88 79 83
88 79 83
88 79 83
88 78 83
89 78 83
89 78 83
89 78 83
89 78 83
89 77 83
90 77 83
90 77 83
90 77 83
90 77 83
91 76 83
91 76 83
91 76 83
91 76 83
91 76 83
92 75 83
92 75 83
92 75 83
92 75 83
93 75 83
93 74 83
93 74 83
93 74 83
93 74 83
94 73 83
94 73 83
94 73 83
94 73 83
95 73 83
95 72 83
95 72 83
95 72 83
95 72 83
96 72 83
96 71 83
96 71 83
96 71 83
97 71 83
97 71 83
97 70 83
97 70 83
97 70 83
98 70 83
98 70 83
98 69 83
98 69 83
99 69 83
99 69 83
99 68 83
99 68 83
99 68 83
100 68 83
100 68 83
100 67 83
100 67 83
101 67 83
101 67 83
101 67 83
101 66 83
101 66 83
102 66 83
102 66 83
102 66 83
102 65 83
103 65 83
103 65 83
103 65 83
103 65 83
103 64 83
104 64 83
104 64 83
104 64 83
104 63 83
105 63 83
105 63 83
105 63 83
105 63 83
105 62 83
106 62 83
106 62 83
106 62 83
106 62 83
107 61 83
107 61 83
107 61 83
107 61 83
107 61 83
108 60 83
108 60 83
108 60 83
108 60 83
109 59 83
109 59 83
109 59 83
109 59 83
109 59 83
110 58 83
110 58 83
110 58 83
110 58 83
111 58 83
111 57 83
111 57 83
111 57 83
111 57 83
112 57 83
112 56 83
112 56 83
112 56 83
113 56 83
113 56 83
113 55 83
113 55 83
113 55 83
114 55 83
114 54 83
114 54 83
114 54 83
115 54 83
115 54 83
115 53 83
115 53 83
115 53 83
116 53 83
116 53 83
116 52 83
116 52 83
117 52 83
117 52 83
117 52 83
117 51 83
117 51 83
118 51 83
118 51 83
118 51 83
118 50 83
119 50 83
119 50 83
119 50 83
119 49 83
119 49 83
120 49 83
120 49 83
120 49 83
120 48 83
121 48 83
121 48 83
121 48 83
121 48 83
121 47 83
122 47 83
122 47 83
122 47 83
122 47 83
123 46 83
123 46 83
123 46 83
123 46 83
123 46 83
124 45 83
124 45 83
124 45 83
124 45 83
125 44 83
125 44 83
125 44 83
125 44 83
125 44 83
126 43 83
126 43 83
126 43 83
126 43 83
127 43 83
127 42 83
127 42 83
127 42 83
127 42 83
128 42 83
128 41 83
128 41 83
128 41 83
128 41 83
129 40 83
129 40 83
129 40 83
129 40 83
130 40 83
130 39 83
130 39 83
130 39 83
130 39 83
131 39 83
131 38 83
131 38 83
131 38 83
132 38 83
132 38 83
132 37 83
132 37 83
132 37 83
133 37 83
133 37 83
133 36 83
133 36 83
134 36 83
134 36 83
134 35 83
134 35 83
134 35 83
135 35 83
135 35 83
135 34 83
135 34 83
136 34 83
136 34 83
136 34 83
136 33 83
136 33 83
137 33 83
137 33 83
137 33 83
137 32 83
138 32 83
138 32 83
138 32 83
138 32 83
138 31 83
139 31 83
139 31 83
139 31 83
139 30 83
140 30 83
140 30 83
140 30 83
140 30 83
140 29 83
141 29 83
141 29 83
141 29 83
141 29 83
142 28 83
142 28 83
142 28 83
142 28 83
142 28 83
143 27 83
143 27 83
143 27 83
143 27 83
144 27 83
144 26 83
144 26 83
144 26 83
144 26 83
145 25 83
145 25 83
145 25 83
145 25 83
146 25 83
146 24 83
146 24 83
146 24 83
146 24 83
147 24 83
147 23 83
147 23 83
147 23 83
148 23 83
148 23 83
148 22 83
148 22 83
148 22 83
149 22 83
149 22 83
149 21 83
149 21 83
150 21 83
150 21 83
150 20 83
150 20 83
150 20 83
151 20 83
151 20 83
151 19 83
151 19 83
152 19 83
152 19 83
152 19 83
152 18 83
152 18 83
153 18 83
153 18 83
153 18 83
153 17 83
154 17 83
154 17 83
154 17 83
154 16 83
154 16 83
155 16 83
155 16 83
155 16 83
155 15 83
156 15 83
156 15 83
156 15 83
156 15 83
156 14 83
157 14 83
157 14 83
157 14 83
157 14 83
158 13 83
158 13 83
158 13 83
158 13 83
158 13 83
159 12 83
159 12 83
159 12 83
159 12 83
160 11 83
160 11 83
160 11 83
160 11 83
160 11 83
161 10 83
161 10 83
161 10 83
161 10 83
162 10 83
162 9 83
162 9 83
162 9 83
162 9 83
163 9 83
163 8 83
163 8 83
163 8 83
164 8 83
164 8 83
164 7 83
164 7 83
164 7 83
165 7 83
165 6 83
165 6 83
165 6 83
166 6 83
166 6 83
166 5 83
166 5 83
166 5 83
167 5 83
167 5 83
167 4 83
167 4 83
167 4 83
168 4 83
168 4 83
168 3 83
168 3 83
169 3 83
169 3 83
169 3 83
169 2 83
169 2 83
170 2 83
170 2 83
170 1 83
170 1 83
171 1 83
171 1 83
171 1 83
171 0 83
171 0 83
172 0 83
82 82 82
82 82 82
82 82 82
83 81 82
83 81 82
83 81 82
83 81 82
84 81 82
84 80 82
84 80 82
84 80 82
85 80 82
85 80 82
85 79 82
85 79 82
85 79 82
86 79 82
86 79 82
86 78 82
86 78 82
87 78 82
87 78 82
87 77 82
87 77 82
87 77 82
88 77 82
88 77 82
88 76 82
88 76 82
89 76 82
89 76 82
89 76 82
89 75 82
90 75 82
90 75 82
90 75 82
90 75 82
90 74 82
91 74 82
91 74 82
91 74 82
91 74 82
92 73 82
92 73 82
92 73 82
92 73 82
92 73 82
93 72 82
93 72 82
93 72 82
93 72 82
94 72 82
94 71 82
94 71 82
94 71 82
95 71 82
95 70 82
95 70 82
95 70 82
95 70 82
96 70 82
96 69 82
96 69 82
96 69 82
97 69 82
97 69 82
97 68 82
97 68 82
98 68 82
98 68 82
98 68 82
98 67 82
98 67 82
99 67 82
99 67 82
99 67 82
99 66 82
100 66 82
100 66 82
100 66 82
100 66 82
100 65 82
101 65 82
101 65 82
101 65 82
101 65 82
102 64 82
102 64 82
102 64 82
102 64 82
103 64 82
103 63 82
103 63 82
103 63 82
103 63 82
104 62 82
104 62 82
104 62 82
104 62 82
105 62 82
105 61 82
105 61 82
105 61 82
105 61 82
106 61 82
106 60 82
106 60 82
106 60 82
107 60 82
107 60 82
107 59 82
107 59 82
108 59 82
108 59 82
108 59 82
108 58 82
108 58 82
109 58 82
109 58 82
109 58 82
109 57 82
110 57 82
110 57 82
110 57 82
110 57 82
111 56 82
111 56 82
111 56 82
111 56 82
111 55 82
112 55 82
112 55 82
112 55 82
112 55 82
113 54 82
113 54 82
113 54 82
113 54 82
113 54 82
114 53 82
114 53 82
114 53 82
114 53 82
115 53 82
115 52 82
115 52 82
115 52 82
116 52 82
116 52 82
116 51 82
116 51 82
116 51 82
117 51 82
117 51 82
117 50 82
117 50 82
118 50 82
118 50 82
118 50 82
118 49 82
118 49 82
119 49 82
119 49 82
119 49 82
119 48 82
120 48 82
120 48 82
120 48 82
120 47 82
121 47 82
121 47 82
121 47 82
121 47 82
121 46 82
122 46 82
122 46 82
122 46 82
122 46 82
123 45 82
123 45 82
123 45 82
123 45 82
124 45 82
124 44 82
124 44 82
124 44 82
124 44 82
125 44 82
125 43 82
125 43 82
125 43 82
126 43 82
126 43 82
126 42 82
126 42 82
126 42 82
127 42 82
127 42 82
127 41 82
127 41 82
128 41 82
128 41 82
128 40 82
128 40 82
129 40 82
129 40 82
129 40 82
129 39 82
129 39 82
130 39 82
130 39 82
130 39 82
130 38 82
131 38 82
131 38 82
131 38 82
131 38 82
131 37 82
132 37 82
132 37 82
132 37 82
132 37 82
133 36 82
133 36 82
133 36 82
133 36 82
134 36 82
134 35 82
134 35 82
134 35 82
134 35 82
135 35 82
135 34 82
135 34 82
135 34 82
136 34 82
136 34 82
136 33 82
136 33 82
137 33 82
137 33 82
137 32 82
137 32 82
137 32 82
138 32 82
138 32 82
138 31 82
138 31 82
139 31 82
139 31 82
139 31 82
139 30 82
139 30 82
140 30 82
140 30 82
140 30 82
140 29 82
141 29 82
141 29 82
141 29 82
141 29 82
142 28 82
142 28 82
142 28 82
142 28 82
142 28 82
143 27 82
143 27 82
143 27 82
143 27 82
144 27 82
144 26 82
144 26 82
144 26 82
144 26 82
145 25 82
145 25 82
145 25 82
145 25 82
146 25 82
146 24 82
146 24 82
146 24 82
147 24 82
147 24 82
147 23 82
147 23 82
147 23 82
148 23 82
148 23 82
148 22 82
148 22 82
149 22 82
149 22 82
149 22 82
149 21 82
150 21 82
150 21 82
150 21 82
150 21 82
150 20 82
151 20 82
151 20 82
151 20 82
151 20 82
152 19 82
152 19 82
152 19 82
152 19 82
152 18 82
153 18 82
153 18 82
153 18 82
153 18 82
154 17 82
154 17 82
154 17 82
154 17 82
155 17 82
155 16 82
155 16 82
155 16 82
155 16 82
156 16 82
156 15 82
156 15 82
156 15 82
157 15 82
157 15 82
157 14 82
157 14 82
157 14 82
158 14 82
158 14 82
158 13 82
158 13 82
159 13 82
159 13 82
159 13 82
159 12 82
160 12 82
160 12 82
160 12 82
160 12 82
160 11 82
161 11 82
161 11 82
161 11 82
161 10 82
162 10 82
162 10 82
162 10 82
162 10 82
163 9 82
163 9 82
163 9 82
163 9 82
163 9 82
164 8 82
164 8 82
164 8 82
164 8 82
165 8 82
165 7 82
165 7 82
165 7 82
165 7 82
166 7 82
166 6 82
166 6 82
166 6 82
167 6 82
167 6 82
167 5 82
167 5 82
168 5 82
168 5 82
168 5 82
168 4 82
168 4 82
169 4 82
169 4 82
169 3 82
169 3 82
170 3 82
170 3 82
170 3 82
170 2 82
170 2 82
171 2 82
171 2 82
171 2 82
171 1 82
172 1 82
172 1 82
172 1 82
172 1 82
173 0 82
173 0 82
173 0 82
81 81 81
81 81 81
81 80 81
81 80 81
82 80 81
82 80 81
82 80 81
82 79 81
83 79 81
83 79 81
83 79 81
83 79 81
84 78 81
84 78 81
84 78 81
84 78 81
84 77 81
85 77 81
85 77 81
85 77 81
85 77 81
86 76 81
86 76 81
86 76 81
86 76 81
87 76 81
87 75 81
87 75 81
87 75 81
88 75 81
88 75 81
88 74 81
88 74 81
88 74 81
89 74 81
89 74 81
89 73 81
89 73 81
90 73 81
90 73 81
90 73 81
90 72 81
91 72 81
91 72 81
91 72 81
91 72 81
92 71 81
92 71 81
92 71 81
92 71 81
92 71 81
93 70 81
93 70 81
93 70 81
93 70 81
94 70 81
94 69 81
94 69 81
94 69 81
95 69 81
95 69 81
95 68 81
95 68 81
95 68 81
96 68 81
96 68 81
96 67 81
96 67 81
97 67 81
97 67 81
97 67 81
97 66 81
98 66 81
98 66 81
98 66 81
98 66 81
99 65 81
99 65 81
99 65 81
99 65 81
99 65 81
100 64 81
100 64 81
100 64 81
100 64 81
101 64 81
101 63 81
101 63 81
101 63 81
102 63 81
102 63 81
102 62 81
102 62 81
103 62 81
103 62 81
103 62 81
103 61 81
103 61 81
104 61 81
104 61 81
104 60 81
104 60 81
105 60 81
105 60 81
105 60 81
105 59 81
106 59 81
106 59 81
106 59 81
106 59 81
107 58 81
107 58 81
107 58 81
107 58 81
107 58 81
108 57 81
108 57 81
108 57 81
108 57 81
109 57 81
109 56 81
109 56 81
109 56 81
110 56 81
110 56 81
110 55 81
110 55 81
111 55 81
111 55 81
111 55 81
111 54 81
111 54 81
112 54 81
112 54 81
112 54 81
112 53 81
113 53 81
113 53 81
113 53 81
113 53 81
114 52 81
114 52 81
114 52 81
114 52 81
114 52 81
115 51 81
115 51 81
115 51 81
115 51 81
116 51 81
116 50 81
116 50 81
116 50 81
117 50 81
117 50 81
117 49 81
117 49 81
118 49 81
118 49 81
118 49 81
118 48 81
118 48 81
119 48 81
119 48 81
119 48 81
119 47 81
120 47 81
120 47 81
120 47 81
120 47 81
121 46 81
121 46 81
121 46 81
121 46 81
122 46 81
122 45 81
122 45 81
122 45 81
122 45 81
123 45 81
123 44 81
123 44 81
123 44 81
124 44 81
124 44 81
124 43 81
124 43 81
125 43 81
125 43 81
125 42 81
125 42 81
126 42 81
126 42 81
126 42 81
126 41 81
126 41 81
127 41 81
127 41 81
127 41 81
127 40 81
128 40 81
128 40 81
128 40 81
128 40 81
129 39 81
129 39 81
129 39 81
129 39 81
129 39 81
130 38 81
130 38 81
130 38 81
130 38 81
131 38 81
131 37 81
131 37 81
131 37 81
132 37 81
132 37 81
132 36 81
132 36 81
133 36 81
133 36 81
133 36 81
133 35 81
133 35 81
134 35 81
134 35 81
134 35 81
134 34 81
135 34 81
135 34 81
135 34 81
135 34 81
136 33 81
136 33 81
136 33 81
136 33 81
137 33 81
137 32 81
137 32 81
137 32 81
137 32 81
138 32 81
138 31 81
138 31 81
138 31 81
139 31 81
139 31 81
139 30 81
139 30 81
140 30 81
140 30 81
140 30 81
140 29 81
141 29 81
141 29 81
141 29 81
141 29 81
141 28 81
142 28 81
142 28 81
142 28 81
142 28 81
143 27 81
143 27 81
143 27 81
143 27 81
144 27 81
144 26 81
144 26 81
144 26 81
144 26 81
145 25 81
145 25 81
145 25 81
145 25 81
146 25 81
146 24 81
146 24 81
146 24 81
147 24 81
147 24 81
147 23 81
147 23 81
148 23 81
148 23 81
148 23 81
148 22 81
148 22 81
149 22 81
149 22 81
149 22 81
149 21 81
150 21 81
150 21 81
150 21 81
150 21 81
151 20 81
151 20 81
151 20 81
151 20 81
152 20 81
152 19 81
152 19 81
152 19 81
152 19 81
153 19 81
153 18 81
153 18 81
153 18 81
154 18 81
154 18 81
154 17 81
154 17 81
155 17 81
155 17 81
155 17 81
155 16 81
156 16 81
156 16 81
156 16 81
156 16 81
156 15 81
157 15 81
157 15 81
157 15 81
157 15 81
158 14 81
158 14 81
158 14 81
158 14 81
159 14 81
159 13 81
159 13 81
159 13 81
160 13 81
160 13 81
160 12 81
160 12 81
160 12 81
161 12 81
161 12 81
161 11 81
161 11 81
162 11 81
162 11 81
162 11 81
162 10 81
163 10 81
163 10 81
163 10 81
163 10 81
163 9 81
164 9 81
164 9 81
164 9 81
164 8 81
165 8 81
165 8 81
165 8 81
165 8 81
166 7 81
166 7 81
166 7 81
166 7 81
167 7 81
167 6 81
167 6 81
167 6 81
167 6 81
168 6 81
168 5 81
168 5 81
168 5 81
169 5 81
169 5 81
169 4 81
169 4 81
170 4 81
170 4 81
170 4 81
170 3 81
171 3 81
171 3 81
171 3 81
171 3 81
171 2 81
172 2 81
172 2 81
172 2 81
172 2 81
173 1 81
173 1 81
173 1 81
173 1 81
174 1 81
174 0 81
174 0 81
174 0 81
79 79 79
80 79 79
80 79 79
80 79 79
80 79 79
81 78 79
81 78 79
81 78 79
81 78 79
82 78 79
82 77 79
82 77 79
82 77 79
83 77 79
83 77 79
83 76 79
83 76 79
84 76 79
84 76 79
84 76 79
84 75 79
85 75 79
85 75 79
85 75 79
85 75 79
85 74 79
86 74 79
86 74 79
86 74 79
86 74 79
87 73 79
87 73 79
87 73 79
87 73 79
88 73 79
88 72 79
88 72 79
88 72 79
89 72 79
89 72 79
89 71 79
89 71 79
90 71 79
90 71 79
90 71 79
90 70 79
91 70 79
91 70 79
91 70 79
91 70 79
91 69 79
92 69 79
92 69 79
92 69 79
92 69 79
93 68 79
93 68 79
93 68 79
93 68 79
94 68 79
94 68 79
94 67 79
94 67 79
95 67 79
95 67 79
95 67 79
95 66 79
96 66 79
96 66 79
96 66 79
96 66 79
97 65 79
97 65 79
97 65 79
97 65 79
98 65 79
98 64 79
98 64 79
98 64 79
98 64 79
99 64 79
99 63 79
99 63 79
99 63 79
100 63 79
100 63 79
100 62 79
100 62 79
101 62 79
101 62 79
101 62 79
101 61 79
102 61 79
102 61 79
102 61 79
102 61 79
103 60 79
103 60 79
103 60 79
103 60 79
104 60 79
104 59 79
104 59 79
104 59 79
104 59 79
105 59 79
105 58 79
105 58 79
105 58 79
106 58 79
106 58 79
106 57 79
106 57 79
107 57 79
107 57 79
107 57 79
107 56 79
108 56 79
108 56 79
108 56 79
108 56 79
109 55 79
109 55 79
109 55 79
109 55 79
110 55 79
110 54 79
110 54 79
110 54 79
111 54 79
111 54 79
111 53 79
111 53 79
111 53 79
112 53 79
112 53 79
112 52 79
112 52 79
113 52 79
113 52 79
113 52 79
113 51 79
114 51 79
114 51 79
114 51 79
114 51 79
115 50 79
115 50 79
115 50 79
115 50 79
116 50 79
116 49 79
116 49 79
116 49 79
117 49 79
117 49 79
117 48 79
117 48 79
118 48 79
118 48 79
118 48 79
118 47 79
118 47 79
119 47 79
119 47 79
119 47 79
119 46 79
120 46 79
120 46 79
120 46 79
120 46 79
121 45 79
121 45 79
121 45 79
121 45 79
122 45 79
122 44 79
122 44 79
122 44 79
123 44 79
123 44 79
123 43 79
123 43 79
124 43 79
124 43 79
124 43 79
124 42 79
124 42 79
125 42 79
125 42 79
125 42 79
125 41 79
126 41 79
126 41 79
126 41 79
126 41 79
127 40 79
127 40 79
127 40 79
127 40 79
128 40 79
128 39 79
128 39 79
128 39 79
129 39 79
129 39 79
129 38 79
129 38 79
130 38 79
130 38 79
130 38 79
130 37 79
131 37 79
131 37 79
131 37 79
131 37 79
131 36 79
132 36 79
132 36 79
132 36 79
132 36 79
133 35 79
133 35 79
133 35 79
133 35 79
134 35 79
134 34 79
134 34 79
134 34 79
135 34 79
135 34 79
135 33 79
135 33 79
136 33 79
136 33 79
136 33 79
136 32 79
137 32 79
137 32 79
137 32 79
137 32 79
137 31 79
138 31 79
138 31 79
138 31 79
138 31 79
139 30 79
139 30 79
139 30 79
139 30 79
140 30 79
140 29 79
140 29 79
140 29 79
141 29 79
141 29 79
141 28 79
141 28 79
142 28 79
142 28 79
142 28 79
142 27 79
143 27 79
143 27 79
143 27 79
143 27 79
144 26 79
144 26 79
144 26 79
144 26 79
144 26 79
145 25 79
145 25 79
145 25 79
145 25 79
146 25 79
146 24 79
146 24 79
146 24 79
147 24 79
147 24 79
147 23 79
147 23 79
148 23 79
148 23 79
148 23 79
148 23 79
149 22 79
149 22 79
149 22 79
149 22 79
150 22 79
150 21 79
150 21 79
150 21 79
151 21 79
151 21 79
151 20 79
151 20 79
151 20 79
152 20 79
152 20 79
152 19 79
152 19 79
153 19 79
153 19 79
153 19 79
153 18 79
154 18 79
154 18 79
154 18 79
154 18 79
155 17 79
155 17 79
155 17 79
155 17 79
156 17 79
156 16 79
156 16 79
156 16 79
157 16 79
157 16 79
157 15 79
157 15 79
157 15 79
158 15 79
158 15 79
158 14 79
158 14 79
159 14 79
159 14 79
159 14 79
159 13 79
160 13 79
160 13 79
160 13 79
160 13 79
161 12 79
161 12 79
161 12 79
161 12 79
162 12 79
162 11 79
162 11 79
162 11 79
163 11 79
163 11 79
163 10 79
163 10 79
164 10 79
164 10 79
164 10 79
164 9 79
164 9 79
165 9 79
165 9 79
165 9 79
165 8 79
166 8 79
166 8 79
166 8 79
166 8 79
167 7 79
167 7 79
167 7 79
167 7 79
168 7 79
168 6 79
168 6 79
168 6 79
169 6 79
169 6 79
169 5 79
169 5 79
170 5 79
170 5 79
170 5 79
170 4 79
170 4 79
171 4 79
171 4 79
171 4 79
171 3 79
172 3 79
172 3 79
172 3 79
172 3 79
173 2 79
173 2 79
173 2 79
173 2 79
174 2 79
174 1 79
174 1 79
174 1 79
175 1 79
175 1 79
175 0 79
175 0 79
176 0 79
78 78 78
78 78 78
79 78 78
79 78 78
79 77 78
79 77 78
80 77 78
80 77 78
80 77 78
80 76 78
81 76 78
81 76 78
81 76 78
81 76 78
82 75 78
82 75 78
82 75 78
82 75 78
83 75 78
83 74 78
83 74 78
83 74 78
84 74 78
84 74 78
84 73 78
84 73 78
85 73 78
85 73 78
85 73 78
85 72 78
86 72 78
86 72 78
86 72 78
86 72 78
87 72 78
87 71 78
87 71 78
87 71 78
88 71 78
88 71 78
88 70 78
88 70 78
89 70 78
89 70 78
89 70 78
89 69 78
90 69 78
90 69 78
90 69 78
90 69 78
91 68 78
91 68 78
91 68 78
91 68 78
92 68 78
92 67 78
92 67 78
92 67 78
93 67 78
93 67 78
93 66 78
93 66 78
93 66 78
94 66 78
94 66 78
94 65 78
94 65 78
95 65 78
95 65 78
95 65 78
95 64 78
96 64 78
96 64 78
96 64 78
96 64 78
97 63 78
97 63 78
97 63 78
97 63 78
98 63 78
98 62 78
98 62 78
98 62 78
99 62 78
99 62 78
99 62 78
99 61 78
100 61 78
100 61 78
100 61 78
100 61 78
101 60 78
101 60 78
101 60 78
101 60 78
102 60 78
102 59 78
102 59 78
102 59 78
103 59 78
103 59 78
103 58 78
103 58 78
104 58 78
104 58 78
104 58 78
104 57 78
105 57 78
105 57 78
105 57 78
105 57 78
106 56 78
106 56 78
106 56 78
106 56 78
107 56 78
107 55 78
107 55 78
107 55 78
108 55 78
108 55 78
108 54 78
108 54 78
109 54 78
109 54 78
109 54 78
109 53 78
110 53 78
110 53 78
110 53 78
110 53 78
111 53 78
111 52 78
111 52 78
111 52 78
112 52 78
112 52 78
112 51 78
112 51 78
113 51 78
113 51 78
113 51 78
113 50 78
114 50 78
114 50 78
114 50 78
114 50 78
115 49 78
115 49 78
115 49 78
115 49 78
116 49 78
116 48 78
116 48 78
116 48 78
116 48 78
117 48 78
117 47 78
117 47 78
117 47 78
118 47 78
118 47 78
118 46 78
118 46 78
119 46 78
119 46 78
119 46 78
119 45 78
120 45 78
120 45 78
120 45 78
120 45 78
121 44 78
121 44 78
121 44 78
121 44 78
122 44 78
122 43 78
122 43 78
122 43 78
123 43 78
123 43 78
123 43 78
123 42 78
124 42 78
124 42 78
124 42 78
124 42 78
125 41 78
125 41 78
125 41 78
125 41 78
126 41 78
126 40 78
126 40 78
126 40 78
127 40 78
127 40 78
127 39 78
127 39 78
128 39 78
128 39 78
128 39 78
128 38 78
129 38 78
129 38 78
129 38 78
129 38 78
130 37 78
130 37 78
130 37 78
130 37 78
131 37 78
131 36 78
131 36 78
131 36 78
132 36 78
132 36 78
132 35 78
132 35 78
133 35 78
133 35 78
133 35 78
133 34 78
134 34 78
134 34 78
134 34 78
134 34 78
135 33 78
135 33 78
135 33 78
135 33 78
136 33 78
136 33 78
136 32 78
136 32 78
137 32 78
137 32 78
137 32 78
137 31 78
138 31 78
138 31 78
138 31 78
138 31 78
139 30 78
139 30 78
139 30 78
139 30 78
139 30 78
140 29 78
140 29 78
140 29 78
140 29 78
141 29 78
141 28 78
141 28 78
141 28 78
142 28 78
142 28 78
142 27 78
142 27 78
143 27 78
143 27 78
143 27 78
143 26 78
144 26 78
144 26 78
144 26 78
144 26 78
145 25 78
145 25 78
145 25 78
145 25 78
146 25 78
146 24 78
146 24 78
146 24 78
147 24 78
147 24 78
147 24 78
147 23 78
148 23 78
148 23 78
148 23 78
148 23 78
149 22 78
149 22 78
149 22 78
149 22 78
150 22 78
150 21 78
150 21 78
150 21 78
151 21 78
151 21 78
151 20 78
151 20 78
152 20 78
152 20 78
152 20 78
152 19 78
153 19 78
153 19 78
153 19 78
153 19 78
154 18 78
154 18 78
154 18 78
154 18 78
155 18 78
155 17 78
155 17 78
155 17 78
156 17 78
156 17 78
156 16 78
156 16 78
157 16 78
157 16 78
157 16 78
157 15 78
158 15 78
158 15 78
158 15 78
158 15 78
159 14 78
159 14 78
159 14 78
159 14 78
160 14 78
160 14 78
160 13 78
160 13 78
161 13 78
161 13 78
161 13 78
161 12 78
162 12 78
162 12 78
162 12 78
162 12 78
162 11 78
163 11 78
163 11 78
163 11 78
163 11 78
164 10 78
164 10 78
164 10 78
164 10 78
165 10 78
165 9 78
165 9 78
165 9 78
166 9 78
166 9 78
166 8 78
166 8 78
167 8 78
167 8 78
167 8 78
167 7 78
168 7 78
168 7 78
168 7 78
168 7 78
169 6 78
169 6 78
169 6 78
169 6 78
170 6 78
170 5 78
170 5 78
170 5 78
171 5 78
171 5 78
171 5 78
171 4 78
172 4 78
172 4 78
172 4 78
172 4 78
173 3 78
173 3 78
173 3 78
173 3 78
174 3 78
174 2 78
174 2 78
174 2 78
175 2 78
175 2 78
175 1 78
175 1 78
176 1 78
176 1 78
176 1 78
176 0 78
177 0 78
177 0 78
77 77 77
77 77 77
77 76 77
78 76 77
78 76 77
78 76 77
78 76 77
79 76 77
79 75 77
79 75 77
79 75 77
80 75 77
80 75 77
80 74 77
80 74 77
81 74 77
81 74 77
81 74 77
81 73 77
82 73 77
82 73 77
82 73 77
82 73 77
83 72 77
83 72 77
83 72 77
83 72 77
84 72 77
84 71 77
84 71 77
84 71 77
85 71 77
85 71 77
85 71 77
86 70 77
86 70 77
86 70 77
86 70 77
87 70 77
87 69 77
87 69 77
87 69 77
88 69 77
88 69 77
88 68 77
88 68 77
89 68 77
89 68 77
89 68 77
89 67 77
90 67 77
90 67 77
90 67 77
90 67 77
91 66 77
91 66 77
91 66 77
91 66 77
92 66 77
92 66 77
92 65 77
92 65 77
93 65 77
93 65 77
93 65 77
93 64 77
94 64 77
94 64 77
94 64 77
94 64 77
95 63 77
95 63 77
95 63 77
95 63 77
96 63 77
96 62 77
96 62 77
96 62 77
97 62 77
97 62 77
97 61 77
97 61 77
98 61 77
98 61 77
98 61 77
98 61 77
99 60 77
99 60 77
99 60 77
99 60 77
100 60 77
100 59 77
100 59 77
100 59 77
101 59 77
101 59 77
101 58 77
101 58 77
102 58 77
102 58 77
102 58 77
103 57 77
103 57 77
103 57 77
103 57 77
104 57 77
104 56 77
104 56 77
104 56 77
105 56 77
105 56 77
105 55 77
105 55 77
106 55 77
106 55 77
106 55 77
106 55 77
107 54 77
107 54 77
107 54 77
107 54 77
108 54 77
108 53 77
108 53 77
108 53 77
109 53 77
109 53 77
109 52 77
109 52 77
110 52 77
110 52 77
110 52 77
110 51 77
111 51 77
111 51 77
111 51 77
111 51 77
112 50 77
112 50 77
112 50 77
112 50 77
113 50 77
113 50 77
113 49 77
113 49 77
114 49 77
114 49 77
114 49 77
114 48 77
115 48 77
115 48 77
115 48 77
115 48 77
116 47 77
116 47 77
116 47 77
116 47 77
117 47 77
117 46 77
117 46 77
117 46 77
118 46 77
118 46 77
118 45 77
118 45 77
119 45 77
119 45 77
119 45 77
120 45 77
120 44 77
120 44 77
120 44 77
121 44 77
121 44 77
121 43 77
121 43 77
122 43 77
122 43 77
122 43 77
122 42 77
123 42 77
123 42 77
123 42 77
123 42 77
124 41 77
124 41 77
124 41 77
124 41 77
125 41 77
125 40 77
125 40 77
125 40 77
126 40 77
126 40 77
126 40 77
126 39 77
127 39 77
127 39 77
127 39 77
127 39 77
128 38 77
128 38 77
128 38 77
128 38 77
129 38 77
129 37 77
129 37 77
129 37 77
130 37 77
130 37 77
130 36 77
130 36 77
131 36 77
131 36 77
131 36 77
131 35 77
132 35 77
132 35 77
132 35 77
132 35 77
133 34 77
133 34 77
133 34 77
133 34 77
134 34 77
134 34 77
134 33 77
134 33 77
135 33 77
135 33 77
135 33 77
135 32 77
136 32 77
136 32 77
136 32 77
137 32 77
137 31 77
137 31 77
137 31 77
138 31 77
138 31 77
138 30 77
138 30 77
139 30 77
139 30 77
139 30 77
139 29 77
140 29 77
140 29 77
140 29 77
140 29 77
141 29 77
141 28 77
141 28 77
141 28 77
142 28 77
142 28 77
142 27 77
142 27 77
143 27 77
143 27 77
143 27 77
143 26 77
144 26 77
144 26 77
144 26 77
144 26 77
145 25 77
145 25 77
145 25 77
145 25 77
146 25 77
146 24 77
146 24 77
146 24 77
147 24 77
147 24 77
147 24 77
147 23 77
148 23 77
148 23 77
148 23 77
148 23 77
149 22 77
149 22 77
149 22 77
149 22 77
150 22 77
150 21 77
150 21 77
150 21 77
151 21 77
151 21 77
151 20 77
151 20 77
152 20 77
152 20 77
152 20 77
152 19 77
153 19 77
153 19 77
153 19 77
154 19 77
154 18 77
154 18 77
154 18 77
155 18 77
155 18 77
155 18 77
155 17 77
156 17 77
156 17 77
156 17 77
156 17 77
157 16 77
157 16 77
157 16 77
157 16 77
158 16 77
158 15 77
158 15 77
158 15 77
159 15 77
159 15 77
159 14 77
159 14 77
160 14 77
160 14 77
160 14 77
160 13 77
161 13 77
161 13 77
161 13 77
161 13 77
162 13 77
162 12 77
162 12 77
162 12 77
163 12 77
163 12 77
163 11 77
163 11 77
164 11 77
164 11 77
164 11 77
164 10 77
165 10 77
165 10 77
165 10 77
165 10 77
166 9 77
166 9 77
166 9 77
166 9 77
167 9 77
167 8 77
167 8 77
167 8 77
168 8 77
168 8 77
168 8 77
168 7 77
169 7 77
169 7 77
169 7 77
169 7 77
170 6 77
170 6 77
170 6 77
171 6 77
171 6 77
171 5 77
171 5 77
172 5 77
172 5 77
172 5 77
172 4 77
173 4 77
173 4 77
173 4 77
173 4 77
174 3 77
174 3 77
174 3 77
174 3 77
175 3 77
175 3 77
175 2 77
175 2 77
176 2 77
176 2 77
176 2 77
176 1 77
177 1 77
177 1 77
177 1 77
177 1 77
178 0 77
178 0 77
178 0 77
76 76 76
76 75 76
76 75 76
76 75 76
77 75 76
77 75 76
77 74 76
77 74 76
78 74 76
78 74 76
78 74 76
78 74 76
79 73 76
79 73 76
79 73 76
80 73 76
80 73 76
80 72 76
80 72 76
81 72 76
81 72 76
81 72 76
81 71 76
82 71 76
82 71 76
82 71 76
82 71 76
83 70 76
83 70 76
83 70 76
83 70 76
84 70 76
84 70 76
84 69 76
84 69 76
85 69 76
85 69 76
85 69 76
85 68 76
86 68 76
86 68 76
86 68 76
87 68 76
87 67 76
87 67 76
87 67 76
88 67 76
88 67 76
88 67 76
88 66 76
89 66 76
89 66 76
89 66 76
89 66 76
90 65 76
90 65 76
90 65 76
90 65 76
91 65 76
91 64 76
91 64 76
91 64 76
92 64 76
92 64 76
92 63 76
93 63 76
93 63 76
93 63 76
93 63 76
94 63 76
94 62 76
94 62 76
94 62 76
95 62 76
95 62 76
95 61 76
95 61 76
96 61 76
96 61 76
96 61 76
96 60 76
97 60 76
97 60 76
97 60 76
97 60 76
98 59 76
98 59 76
98 59 76
98 59 76
99 59 76
99 59 76
99 58 76
100 58 76
100 58 76
100 58 76
100 58 76
101 57 76
101 57 76
101 57 76
101 57 76
102 57 76
102 56 76
102 56 76
102 56 76
103 56 76
103 56 76
103 56 76
103 55 76
104 55 76
104 55 76
104 55 76
104 55 76
105 54 76
105 54 76
105 54 76
106 54 76
106 54 76
106 53 76
106 53 76
107 53 76
107 53 76
107 53 76
107 52 76
108 52 76
108 52 76
108 52 76
108 52 76
109 52 76
109 51 76
109 51 76
109 51 76
110 51 76
110 51 76
110 50 76
110 50 76
111 50 76
111 50 76
111 50 76
112 49 76
112 49 76
112 49 76
112 49 76
113 49 76
113 49 76
113 48 76
113 48 76
114 48 76
114 48 76
114 48 76
114 47 76
115 47 76
115 47 76
115 47 76
115 47 76
116 46 76
116 46 76
116 46 76
116 46 76
117 46 76
117 45 76
117 45 76
117 45 76
118 45 76
118 45 76
118 45 76
119 44 76
119 44 76
119 44 76
119 44 76
120 44 76
120 43 76
120 43 76
120 43 76
121 43 76
121 43 76
121 42 76
121 42 76
122 42 76
122 42 76
122 42 76
122 41 76
123 41 76
123 41 76
123 41 76
123 41 76
124 41 76
124 40 76
124 40 76
125 40 76
125 40 76
125 40 76
125 39 76
126 39 76
126 39 76
126 39 76
126 39 76
127 38 76
127 38 76
127 38 76
127 38 76
128 38 76
128 38 76
128 37 76
128 37 76
129 37 76
129 37 76
129 37 76
129 36 76
130 36 76
130 36 76
130 36 76
130 36 76
131 35 76
131 35 76
131 35 76
132 35 76
132 35 76
132 34 76
132 34 76
133 34 76
133 34 76
133 34 76
133 34 76
134 33 76
134 33 76
134 33 76
134 33 76
135 33 76
135 32 76
135 32 76
135 32 76
136 32 76
136 32 76
136 31 76
136 31 76
137 31 76
137 31 76
137 31 76
138 31 76
138 30 76
138 30 76
138 30 76
139 30 76
139 30 76
139 29 76
139 29 76
140 29 76
140 29 76
140 29 76
140 28 76
141 28 76
141 28 76
141 28 76
141 28 76
142 27 76
142 27 76
142 27 76
142 27 76
143 27 76
143 27 76
143 26 76
143 26 76
144 26 76
144 26 76
144 26 76
145 25 76
145 25 76
145 25 76
145 25 76
146 25 76
146 24 76
146 24 76
146 24 76
147 24 76
147 24 76
147 23 76
147 23 76
148 23 76
148 23 76
148 23 76
148 23 76
149 22 76
149 22 76
149 22 76
149 22 76
150 22 76
150 21 76
150 21 76
151 21 76
151 21 76
151 21 76
151 20 76
152 20 76
152 20 76
152 20 76
152 20 76
153 20 76
153 19 76
153 19 76
153 19 76
154 19 76
154 19 76
154 18 76
154 18 76
155 18 76
155 18 76
155 18 76
155 17 76
156 17 76
156 17 76
156 17 76
157 17 76
157 16 76
157 16 76
157 16 76
158 16 76
158 16 76
158 16 76
158 15 76
159 15 76
159 15 76
159 15 76
159 15 76
160 14 76
160 14 76
160 14 76
160 14 76
161 14 76
161 13 76
161 13 76
161 13 76
162 13 76
162 13 76
162 13 76
162 12 76
163 12 76
163 12 76
163 12 76
164 12 76
164 11 76
164 11 76
164 11 76
165 11 76
165 11 76
165 10 76
165 10 76
166 10 76
166 10 76
166 10 76
166 9 76
167 9 76
167 9 76
167 9 76
167 9 76
168 9 76
168 8 76
168 8 76
168 8 76
169 8 76
169 8 76
169 7 76
170 7 76
170 7 76
170 7 76
170 7 76
171 6 76
171 6 76
171 6 76
171 6 76
172 6 76
172 5 76
172 5 76
172 5 76
173 5 76
173 5 76
173 5 76
173 4 76
174 4 76
174 4 76
174 4 76
174 4 76
175 3 76
175 3 76
175 3 76
175 3 76
176 3 76
176 2 76
176 2 76
177 2 76
177 2 76
177 2 76
177 2 76
178 1 76
178 1 76
178 1 76
178 1 76
179 1 76
179 0 76
179 0 76
179 0 76
74 74 74
75 74 74
75 74 74
75 74 74
75 74 74
76 73 74
76 73 74
76 73 74
76 73 74
77 73 74
77 72 74
77 72 74
78 72 74
78 72 74
78 72 74
78 72 74
79 71 74
79 71 74
79 71 74
79 71 74
80 71 74
80 70 74
80 70 74
80 70 74
81 70 74
81 70 74
81 69 74
82 69 74
82 69 74
82 69 74
82 69 74
83 69 74
83 68 74
83 68 74
83 68 74
84 68 74
84 68 74
84 67 74
84 67 74
85 67 74
85 67 74
85 67 74
86 66 74
86 66 74
86 66 74
86 66 74
87 66 74
87 66 74
87 65 74
87 65 74
88 65 74
88 65 74
88 65 74
88 64 74
89 64 74
89 64 74
89 64 74
90 64 74
90 64 74
90 63 74
90 63 74
91 63 74
91 63 74
91 63 74
91 62 74
92 62 74
92 62 74
92 62 74
92 62 74
93 61 74
93 61 74
93 61 74
94 61 74
94 61 74
94 61 74
94 60 74
95 60 74
95 60 74
95 60 74
95 60 74
96 59 74
96 59 74
96 59 74
96 59 74
97 59 74
97 58 74
97 58 74
98 58 74
98 58 74
98 58 74
98 58 74
99 57 74
99 57 74
99 57 74
99 57 74
100 57 74
100 56 74
100 56 74
100 56 74
101 56 74
101 56 74
101 56 74
102 55 74
102 55 74
102 55 74
102 55 74
103 55 74
103 54 74
103 54 74
103 54 74
104 54 74
104 54 74
104 53 74
104 53 74
105 53 74
105 53 74
105 53 74
106 53 74
106 52 74
106 52 74
106 52 74
107 52 74
107 52 74
107 51 74
107 51 74
108 51 74
108 51 74
108 51 74
108 50 74
109 50 74
109 50 74
109 50 74
110 50 74
110 50 74
110 49 74
110 49 74
111 49 74
111 49 74
111 49 74
111 48 74
112 48 74
112 48 74
112 48 74
112 48 74
113 47 74
113 47 74
113 47 74
114 47 74
114 47 74
114 47 74
114 46 74
115 46 74
115 46 74
115 46 74
115 46 74
116 45 74
116 45 74
116 45 74
116 45 74
117 45 74
117 45 74
117 44 74
118 44 74
118 44 74
118 44 74
118 44 74
119 43 74
119 43 74
119 43 74
119 43 74
120 43 74
120 42 74
120 42 74
120 42 74
121 42 74
121 42 74
121 42 74
122 41 74
122 41 74
122 41 74
122 41 74
123 41 74
123 40 74
123 40 74
123 40 74
124 40 74
124 40 74
124 39 74
124 39 74
125 39 74
125 39 74
125 39 74
126 39 74
126 38 74
126 38 74
126 38 74
127 38 74
127 38 74
127 37 74
127 37 74
128 37 74
128 37 74
128 37 74
128 37 74
129 36 74
129 36 74
129 36 74
129 36 74
130 36 74
130 35 74
130 35 74
131 35 74
131 35 74
131 35 74
131 34 74
132 34 74
132 34 74
132 34 74
132 34 74
133 34 74
133 33 74
133 33 74
133 33 74
134 33 74
134 33 74
134 32 74
135 32 74
135 32 74
135 32 74
135 32 74
136 31 74
136 31 74
136 31 74
136 31 74
137 31 74
137 31 74
137 30 74
137 30 74
138 30 74
138 30 74
138 30 74
139 29 74
139 29 74
139 29 74
139 29 74
140 29 74
140 28 74
140 28 74
140 28 74
141 28 74
141 28 74
141 28 74
141 27 74
142 27 74
142 27 74
142 27 74
143 27 74
143 26 74
143 26 74
143 26 74
144 26 74
144 26 74
144 26 74
144 25 74
145 25 74
145 25 74
145 25 74
145 25 74
146 24 74
146 24 74
146 24 74
147 24 74
147 24 74
147 23 74
147 23 74
148 23 74
148 23 74
148 23 74
148 23 74
149 22 74
149 22 74
149 22 74
149 22 74
150 22 74
150 21 74
150 21 74
151 21 74
151 21 74
151 21 74
151 20 74
152 20 74
152 20 74
152 20 74
152 20 74
153 20 74
153 19 74
153 19 74
153 19 74
154 19 74
154 19 74
154 18 74
155 18 74
155 18 74
155 18 74
155 18 74
156 18 74
156 17 74
156 17 74
156 17 74
157 17 74
157 17 74
157 16 74
157 16 74
158 16 74
158 16 74
158 16 74
159 15 74
159 15 74
159 15 74
159 15 74
160 15 74
160 15 74
160 14 74
160 14 74
161 14 74
161 14 74
161 14 74
161 13 74
162 13 74
162 13 74
162 13 74
163 13 74
163 12 74
163 12 74
163 12 74
164 12 74
164 12 74
164 12 74
164 11 74
165 11 74
165 11 74
165 11 74
165 11 74
166 10 74
166 10 74
166 10 74
167 10 74
167 10 74
167 9 74
167 9 74
168 9 74
168 9 74
168 9 74
168 9 74
169 8 74
169 8 74
169 8 74
169 8 74
170 8 74
170 7 74
170 7 74
171 7 74
171 7 74
171 7 74
171 7 74
172 6 74
172 6 74
172 6 74
172 6 74
173 6 74
173 5 74
173 5 74
173 5 74
174 5 74
174 5 74
174 4 74
175 4 74
175 4 74
175 4 74
175 4 74
176 4 74
176 3 74
176 3 74
176 3 74
177 3 74
177 3 74
177 2 74
177 2 74
178 2 74
178 2 74
178 2 74
179 1 74
179 1 74
179 1 74
179 1 74
180 1 74
180 1 74
180 0 74
180 0 74
181 0 74
73 73 73
73 73 73
74 73 73
74 72 73
74 72 73
74 72 73
75 72 73
75 72 73
75 72 73
75 71 73
76 71 73
76 71 73
76 71 73
77 71 73
77 70 73
77 70 73
77 70 73
78 70 73
78 70 73
78 70 73
78 69 73
79 69 73
79 69 73
79 69 73
80 69 73
80 68 73
80 68 73
80 68 73
81 68 73
81 68 73
81 68 73
82 67 73
82 67 73
82 67 73
82 67 73
83 67 73
83 66 73
83 66 73
83 66 73
84 66 73
84 66 73
84 66 73
85 65 73
85 65 73
85 65 73
85 65 73
86 65 73
86 64 73
86 64 73
86 64 73
87 64 73
87 64 73
87 64 73
88 63 73
88 63 73
88 63 73
88 63 73
89 63 73
89 62 73
89 62 73
89 62 73
90 62 73
90 62 73
90 62 73
91 61 73
91 61 73
91 61 73
91 61 73
92 61 73
92 60 73
92 60 73
92 60 73
93 60 73
93 60 73
93 59 73
94 59 73
94 59 73
94 59 73
94 59 73
95 59 73
95 58 73
95 58 73
95 58 73
96 58 73
96 58 73
96 57 73
97 57 73
97 57 73
97 57 73
97 57 73
98 57 73
98 56 73
98 56 73
98 56 73
99 56 73
99 56 73
99 55 73
100 55 73
100 55 73
100 55 73
100 55 73
101 55 73
101 54 73
101 54 73
101 54 73
102 54 73
102 54 73
102 53 73
103 53 73
103 53 73
103 53 73
103 53 73
104 53 73
104 52 73
104 52 73
104 52 73
105 52 73
105 52 73
105 51 73
106 51 73
106 51 73
106 51 73
106 51 73
107 51 73
107 50 73
107 50 73
107 50 73
108 50 73
108 50 73
108 49 73
109 49 73
109 49 73
109 49 73
109 49 73
110 49 73
110 48 73
110 48 73
110 48 73
111 48 73
111 48 73
111 47 73
112 47 73
112 47 73
112 47 73
112 47 73
113 46 73
113 46 73
113 46 73
113 46 73
114 46 73
114 46 73
114 45 73
115 45 73
115 45 73
115 45 73
115 45 73
116 44 73
116 44 73
116 44 73
116 44 73
117 44 73
117 44 73
117 43 73
118 43 73
118 43 73
118 43 73
118 43 73
119 42 73
119 42 73
119 42 73
119 42 73
120 42 73
120 42 73
120 41 73
121 41 73
121 41 73
121 41 73
121 41 73
122 40 73
122 40 73
122 40 73
122 40 73
123 40 73
123 40 73
123 39 73
124 39 73
124 39 73
124 39 73
124 39 73
125 38 73
125 38 73
125 38 73
125 38 73
126 38 73
126 38 73
126 37 73
127 37 73
127 37 73
127 37 73
127 37 73
128 36 73
128 36 73
128 36 73
128 36 73
129 36 73
129 36 73
129 35 73
130 35 73
130 35 73
130 35 73
130 35 73
131 34 73
131 34 73
131 34 73
131 34 73
132 34 73
132 33 73
132 33 73
133 33 73
133 33 73
133 33 73
133 33 73
134 32 73
134 32 73
134 32 73
134 32 73
135 32 73
135 31 73
135 31 73
136 31 73
136 31 73
136 31 73
136 31 73
137 30 73
137 30 73
137 30 73
137 30 73
138 30 73
138 29 73
138 29 73
139 29 73
139 29 73
139 29 73
139 29 73
140 28 73
140 28 73
140 28 73
140 28 73
141 28 73
141 27 73
141 27 73
142 27 73
142 27 73
142 27 73
142 27 73
143 26 73
143 26 73
143 26 73
143 26 73
144 26 73
144 25 73
144 25 73
145 25 73
145 25 73
145 25 73
145 25 73
146 24 73
146 24 73
146 24 73
146 24 73
147 24 73
147 23 73
147 23 73
148 23 73
148 23 73
148 23 73
148 23 73
149 22 73
149 22 73
149 22 73
149 22 73
150 22 73
150 21 73
150 21 73
151 21 73
151 21 73
151 21 73
151 21 73
152 20 73
152 20 73
152 20 73
152 20 73
153 20 73
153 19 73
153 19 73
154 19 73
154 19 73
154 19 73
154 18 73
155 18 73
155 18 73
155 18 73
155 18 73
156 18 73
156 17 73
156 17 73
157 17 73
157 17 73
157 17 73
157 16 73
158 16 73
158 16 73
158 16 73
158 16 73
159 16 73
159 15 73
159 15 73
160 15 73
160 15 73
160 15 73
160 14 73
161 14 73
161 14 73
161 14 73
161 14 73
162 14 73
162 13 73
162 13 73
163 13 73
163 13 73
163 13 73
163 12 73
164 12 73
164 12 73
164 12 73
164 12 73
165 12 73
165 11 73
165 11 73
166 11 73
166 11 73
166 11 73
166 10 73
167 10 73
167 10 73
167 10 73
167 10 73
168 10 73
168 9 73
168 9 73
169 9 73
169 9 73
169 9 73
169 8 73
170 8 73
170 8 73
170 8 73
170 8 73
171 8 73
171 7 73
171 7 73
172 7 73
172 7 73
172 7 73
172 6 73
173 6 73
173 6 73
173 6 73
173 6 73
174 5 73
174 5 73
174 5 73
175 5 73
175 5 73
175 5 73
175 4 73
176 4 73
176 4 73
176 4 73
177 4 73
177 3 73
177 3 73
177 3 73
178 3 73
178 3 73
178 3 73
178 2 73
179 2 73
179 2 73
179 2 73
180 2 73
180 1 73
180 1 73
180 1 73
181 1 73
181 1 73
181 1 73
181 0 73
182 0 73
182 0 73
72 72 72
72 72 72
72 71 72
73 71 72
73 71 72
73 71 72
73 71 72
74 70 72
74 70 72
74 70 72
75 70 72
75 70 72
75 70 72
75 69 72
76 69 72
76 69 72
76 69 72
77 69 72
77 69 72
77 68 72
77 68 72
78 68 72
78 68 72
78 68 72
78 67 72
79 67 72
79 67 72
79 67 72
80 67 72
80 67 72
80 66 72
80 66 72
81 66 72
81 66 72
81 66 72
82 65 72
82 65 72
82 65 72
82 65 72
83 65 72
83 65 72
83 64 72
83 64 72
84 64 72
84 64 72
84 64 72
85 63 72
85 63 72
85 63 72
85 63 72
86 63 72
86 63 72
86 62 72
87 62 72
87 62 72
87 62 72
87 62 72
88 62 72
88 61 72
88 61 72
89 61 72
89 61 72
89 61 72
89 60 72
90 60 72
90 60 72
90 60 72
90 60 72
91 60 72
91 59 72
91 59 72
92 59 72
92 59 72
92 59 72
92 58 72
93 58 72
93 58 72
93 58 72
94 58 72
94 58 72
94 57 72
94 57 72
95 57 72
95 57 72
95 57 72
96 56 72
96 56 72
96 56 72
96 56 72
97 56 72
97 56 72
97 55 72
97 55 72
98 55 72
98 55 72
98 55 72
99 54 72
99 54 72
99 54 72
99 54 72
100 54 72
100 54 72
100 53 72
101 53 72
101 53 72
101 53 72
101 53 72
102 53 72
102 52 72
102 52 72
102 52 72
103 52 72
103 52 72
103 51 72
104 51 72
104 51 72
104 51 72
104 51 72
105 51 72
105 50 72
105 50 72
106 50 72
106 50 72
106 50 72
106 49 72
107 49 72
107 49 72
107 49 72
108 49 72
108 49 72
108 48 72
108 48 72
109 48 72
109 48 72
109 48 72
109 47 72
110 47 72
110 47 72
110 47 72
111 47 72
111 47 72
111 46 72
111 46 72
112 46 72
112 46 72
112 46 72
113 46 72
113 45 72
113 45 72
113 45 72
114 45 72
114 45 72
114 44 72
115 44 72
115 44 72
115 44 72
115 44 72
116 44 72
116 43 72
116 43 72
116 43 72
117 43 72
117 43 72
117 42 72
118 42 72
118 42 72
118 42 72
118 42 72
119 42 72
119 41 72
119 41 72
120 41 72
120 41 72
120 41 72
120 40 72
121 40 72
121 40 72
121 40 72
121 40 72
122 40 72
122 39 72
122 39 72
123 39 72
123 39 72
123 39 72
123 38 72
124 38 72
124 38 72
124 38 72
125 38 72
125 38 72
125 37 72
125 37 72
126 37 72
126 37 72
126 37 72
127 37 72
127 36 72
127 36 72
127 36 72
128 36 72
128 36 72
128 35 72
128 35 72
129 35 72
129 35 72
129 35 72
130 35 72
130 34 72
130 34 72
130 34 72
131 34 72
131 34 72
131 33 72
132 33 72
132 33 72
132 33 72
132 33 72
133 33 72
133 32 72
133 32 72
134 32 72
134 32 72
134 32 72
134 31 72
135 31 72
135 31 72
135 31 72
135 31 72
136 31 72
136 30 72
136 30 72
137 30 72
137 30 72
137 30 72
137 29 72
138 29 72
138 29 72
138 29 72
139 29 72
139 29 72
139 28 72
139 28 72
140 28 72
140 28 72
140 28 72
140 28 72
141 27 72
141 27 72
141 27 72
142 27 72
142 27 72
142 26 72
142 26 72
143 26 72
143 26 72
143 26 72
144 26 72
144 25 72
144 25 72
144 25 72
145 25 72
145 25 72
145 24 72
146 24 72
146 24 72
146 24 72
146 24 72
147 24 72
147 23 72
147 23 72
147 23 72
148 23 72
148 23 72
148 22 72
149 22 72
149 22 72
149 22 72
149 22 72
150 22 72
150 21 72
150 21 72
151 21 72
151 21 72
151 21 72
151 21 72
152 20 72
152 20 72
152 20 72
153 20 72
153 20 72
153 19 72
153 19 72
154 19 72
154 19 72
154 19 72
154 19 72
155 18 72
155 18 72
155 18 72
156 18 72
156 18 72
156 17 72
156 17 72
157 17 72
157 17 72
157 17 72
158 17 72
158 16 72
158 16 72
158 16 72
159 16 72
159 16 72
159 15 72
159 15 72
160 15 72
160 15 72
160 15 72
161 15 72
161 14 72
161 14 72
161 14 72
162 14 72
162 14 72
162 13 72
163 13 72
163 13 72
163 13 72
163 13 72
164 13 72
164 12 72
164 12 72
165 12 72
165 12 72
165 12 72
165 12 72
166 11 72
166 11 72
166 11 72
166 11 72
167 11 72
167 10 72
167 10 72
168 10 72
168 10 72
168 10 72
168 10 72
169 9 72
169 9 72
169 9 72
170 9 72
170 9 72
170 8 72
170 8 72
171 8 72
171 8 72
171 8 72
172 8 72
172 7 72
172 7 72
172 7 72
173 7 72
173 7 72
173 6 72
173 6 72
174 6 72
174 6 72
174 6 72
175 6 72
175 5 72
175 5 72
175 5 72
176 5 72
176 5 72
176 4 72
177 4 72
177 4 72
177 4 72
177 4 72
178 4 72
178 3 72
178 3 72
178 3 72
179 3 72
179 3 72
179 3 72
180 2 72
180 2 72
180 2 72
180 2 72
181 2 72
181 1 72
181 1 72
182 1 72
182 1 72
182 1 72
182 1 72
183 0 72
183 0 72
183 0 72
70 70 70
71 70 70
71 70 70
71 70 70
72 70 70
72 70 70
72 69 70
72 69 70
73 69 70
73 69 70
73 69 70
74 69 70
74 68 70
74 68 70
74 68 70
75 68 70
75 68 70
75 67 70
76 67 70
76 67 70
76 67 70
76 67 70
77 67 70
77 66 70
77 66 70
78 66 70
78 66 70
78 66 70
78 66 70
79 65 70
79 65 70
79 65 70
80 65 70
80 65 70
80 64 70
80 64 70
81 64 70
81 64 70
81 64 70
82 64 70
82 63 70
82 63 70
82 63 70
83 63 70
83 63 70
83 63 70
84 62 70
84 62 70
84 62 70
84 62 70
85 62 70
85 61 70
85 61 70
86 61 70
86 61 70
86 61 70
86 61 70
87 60 70
87 60 70
87 60 70
88 60 70
88 60 70
88 60 70
88 59 70
89 59 70
89 59 70
89 59 70
90 59 70
90 58 70
90 58 70
90 58 70
91 58 70
91 58 70
91 58 70
92 57 70
92 57 70
92 57 70
92 57 70
93 57 70
93 57 70
93 56 70
94 56 70
94 56 70
94 56 70
94 56 70
95 55 70
95 55 70
95 55 70
96 55 70
96 55 70
96 55 70
96 54 70
97 54 70
97 54 70
97 54 70
98 54 70
98 54 70
98 53 70
98 53 70
99 53 70
99 53 70
99 53 70
100 52 70
100 52 70
100 52 70
100 52 70
101 52 70
101 52 70
101 51 70
102 51 70
102 51 70
102 51 70
102 51 70
103 51 70
103 50 70
103 50 70
104 50 70
104 50 70
104 50 70
104 49 70
105 49 70
105 49 70
105 49 70
106 49 70
106 49 70
106 48 70
106 48 70
107 48 70
107 48 70
107 48 70
108 48 70
108 47 70
108 47 70
108 47 70
109 47 70
109 47 70
109 46 70
110 46 70
110 46 70
110 46 70
110 46 70
111 46 70
111 45 70
111 45 70
112 45 70
112 45 70
112 45 70
112 45 70
113 44 70
113 44 70
113 44 70
114 44 70
114 44 70
114 43 70
114 43 70
115 43 70
115 43 70
115 43 70
116 43 70
116 42 70
116 42 70
116 42 70
117 42 70
117 42 70
117 42 70
118 41 70
118 41 70
118 41 70
118 41 70
119 41 70
119 40 70
119 40 70
120 40 70
120 40 70
120 40 70
120 40 70
121 39 70
121 39 70
121 39 70
122 39 70
122 39 70
122 39 70
122 38 70
123 38 70
123 38 70
123 38 70
124 38 70
124 37 70
124 37 70
124 37 70
125 37 70
125 37 70
125 37 70
126 36 70
126 36 70
126 36 70
126 36 70
127 36 70
127 36 70
127 35 70
128 35 70
128 35 70
128 35 70
129 35 70
129 34 70
129 34 70
129 34 70
130 34 70
130 34 70
130 34 70
131 33 70
131 33 70
131 33 70
131 33 70
132 33 70
132 33 70
132 32 70
133 32 70
133 32 70
133 32 70
133 32 70
134 31 70
134 31 70
134 31 70
135 31 70
135 31 70
135 31 70
135 30 70
136 30 70
136 30 70
136 30 70
137 30 70
137 29 70
137 29 70
137 29 70
138 29 70
138 29 70
138 29 70
139 28 70
139 28 70
139 28 70
139 28 70
140 28 70
140 28 70
140 27 70
141 27 70
141 27 70
141 27 70
141 27 70
142 26 70
142 26 70
142 26 70
143 26 70
143 26 70
143 26 70
143 25 70
144 25 70
144 25 70
144 25 70
145 25 70
145 25 70
145 24 70
145 24 70
146 24 70
146 24 70
146 24 70
147 23 70
147 23 70
147 23 70
147 23 70
148 23 70
148 23 70
148 22 70
149 22 70
149 22 70
149 22 70
149 22 70
150 22 70
150 21 70
150 21 70
151 21 70
151 21 70
151 21 70
151 20 70
152 20 70
152 20 70
152 20 70
153 20 70
153 20 70
153 19 70
153 19 70
154 19 70
154 19 70
154 19 70
155 19 70
155 18 70
155 18 70
155 18 70
156 18 70
156 18 70
156 17 70
157 17 70
157 17 70
157 17 70
157 17 70
158 17 70
158 16 70
158 16 70
159 16 70
159 16 70
159 16 70
159 16 70
160 15 70
160 15 70
160 15 70
161 15 70
161 15 70
161 14 70
161 14 70
162 14 70
162 14 70
162 14 70
163 14 70
163 13 70
163 13 70
163 13 70
164 13 70
164 13 70
164 13 70
165 12 70
165 12 70
165 12 70
165 12 70
166 12 70
166 11 70
166 11 70
167 11 70
167 11 70
167 11 70
167 11 70
168 10 70
168 10 70
168 10 70
169 10 70
169 10 70
169 10 70
169 9 70
170 9 70
170 9 70
170 9 70
171 9 70
171 8 70
171 8 70
171 8 70
172 8 70
172 8 70
172 8 70
173 7 70
173 7 70
173 7 70
173 7 70
174 7 70
174 7 70
174 6 70
175 6 70
175 6 70
175 6 70
175 6 70
176 5 70
176 5 70
176 5 70
177 5 70
177 5 70
177 5 70
177 4 70
178 4 70
178 4 70
178 4 70
179 4 70
179 4 70
179 3 70
179 3 70
180 3 70
180 3 70
180 3 70
181 2 70
181 2 70
181 2 70
181 2 70
182 2 70
182 2 70
182 1 70
183 1 70
183 1 70
183 1 70
183 1 70
184 1 70
184 0 70
184 0 70
185 0 70
69 69 69
69 69 69
70 69 69
70 69 69
70 69 69
71 68 69
71 68 69
71 68 69
72 68 69
72 68 69
72 67 69
72 67 69
73 67 69
73 67 69
73 67 69
74 67 69
74 66 69
74 66 69
74 66 69
75 66 69
75 66 69
75 66 69
76 65 69
76 65 69
76 65 69
77 65 69
77 65 69
77 65 69
77 64 69
78 64 69
78 64 69
78 64 69
79 64 69
79 63 69
79 63 69
79 63 69
80 63 69
80 63 69
80 63 69
81 62 69
81 62 69
81 62 69
81 62 69
82 62 69
82 62 69
82 61 69
83 61 69
83 61 69
83 61 69
84 61 69
84 61 69
84 60 69
84 60 69
85 60 69
85 60 69
85 60 69
86 59 69
86 59 69
86 59 69
86 59 69
87 59 69
87 59 69
87 58 69
88 58 69
88 58 69
88 58 69
88 58 69
89 58 69
89 57 69
89 57 69
90 57 69
90 57 69
90 57 69
91 57 69
91 56 69
91 56 69
91 56 69
92 56 69
92 56 69
92 55 69
93 55 69
93 55 69
93 55 69
93 55 69
94 55 69
94 54 69
94 54 69
95 54 69
95 54 69
95 54 69
95 54 69
96 53 69
96 53 69
96 53 69
97 53 69
97 53 69
97 53 69
98 52 69
98 52 69
98 52 69
98 52 69
99 52 69
99 52 69
99 51 69
100 51 69
100 51 69
100 51 69
100 51 69
101 50 69
101 50 69
101 50 69
102 50 69
102 50 69
102 50 69
103 49 69
103 49 69
103 49 69
103 49 69
104 49 69
104 49 69
104 48 69
105 48 69
105 48 69
105 48 69
105 48 69
106 48 69
106 47 69
106 47 69
107 47 69
107 47 69
107 47 69
107 46 69
108 46 69
108 46 69
108 46 69
109 46 69
109 46 69
109 45 69
110 45 69
110 45 69
110 45 69
110 45 69
111 45 69
111 44 69
111 44 69
112 44 69
112 44 69
112 44 69
112 44 69
113 43 69
113 43 69
113 43 69
114 43 69
114 43 69
114 42 69
114 42 69
115 42 69
115 42 69
115 42 69
116 42 69
116 41 69
116 41 69
117 41 69
117 41 69
117 41 69
117 41 69
118 40 69
118 40 69
118 40 69
119 40 69
119 40 69
119 40 69
119 39 69
120 39 69
120 39 69
120 39 69
121 39 69
121 39 69
121 38 69
122 38 69
122 38 69
122 38 69
122 38 69
123 37 69
123 37 69
123 37 69
124 37 69
124 37 69
124 37 69
124 36 69
125 36 69
125 36 69
125 36 69
126 36 69
126 36 69
126 35 69
126 35 69
127 35 69
127 35 69
127 35 69
128 35 69
128 34 69
128 34 69
129 34 69
129 34 69
129 34 69
129 33 69
130 33 69
130 33 69
130 33 69
131 33 69
131 33 69
131 32 69
131 32 69
132 32 69
132 32 69
132 32 69
133 32 69
133 31 69
133 31 69
133 31 69
134 31 69
134 31 69
134 31 69
135 30 69
135 30 69
135 30 69
136 30 69
136 30 69
136 29 69
136 29 69
137 29 69
137 29 69
137 29 69
138 29 69
138 28 69
138 28 69
138 28 69
139 28 69
139 28 69
139 28 69
140 27 69
140 27 69
140 27 69
141 27 69
141 27 69
141 27 69
141 26 69
142 26 69
142 26 69
142 26 69
143 26 69
143 25 69
143 25 69
143 25 69
144 25 69
144 25 69
144 25 69
145 24 69
145 24 69
145 24 69
145 24 69
146 24 69
146 24 69
146 23 69
147 23 69
147 23 69
147 23 69
148 23 69
148 23 69
148 22 69
148 22 69
149 22 69
149 22 69
149 22 69
150 22 69
150 21 69
150 21 69
150 21 69
151 21 69
151 21 69
151 20 69
152 20 69
152 20 69
152 20 69
152 20 69
153 20 69
153 19 69
153 19 69
154 19 69
154 19 69
154 19 69
155 19 69
155 18 69
155 18 69
155 18 69
156 18 69
156 18 69
156 18 69
157 17 69
157 17 69
157 17 69
157 17 69
158 17 69
158 16 69
158 16 69
159 16 69
159 16 69
159 16 69
160 16 69
160 15 69
160 15 69
160 15 69
161 15 69
161 15 69
161 15 69
162 14 69
162 14 69
162 14 69
162 14 69
163 14 69
163 14 69
163 13 69
164 13 69
164 13 69
164 13 69
164 13 69
165 12 69
165 12 69
165 12 69
166 12 69
166 12 69
166 12 69
167 11 69
167 11 69
167 11 69
167 11 69
168 11 69
168 11 69
168 10 69
169 10 69
169 10 69
169 10 69
169 10 69
170 10 69
170 9 69
170 9 69
171 9 69
171 9 69
171 9 69
171 8 69
172 8 69
172 8 69
172 8 69
173 8 69
173 8 69
173 7 69
174 7 69
174 7 69
174 7 69
174 7 69
175 7 69
175 6 69
175 6 69
176 6 69
176 6 69
176 6 69
176 6 69
177 5 69
177 5 69
177 5 69
178 5 69
178 5 69
178 5 69
178 4 69
179 4 69
179 4 69
179 4 69
180 4 69
180 3 69
180 3 69
181 3 69
181 3 69
181 3 69
181 3 69
182 2 69
182 2 69
182 2 69
183 2 69
183 2 69
183 2 69
183 1 69
184 1 69
184 1 69
184 1 69
185 1 69
185 1 69
185 0 69
186 0 69
186 0 69
68 68 68
68 68 68
69 68 68
69 67 68
69 67 68
69 67 68
70 67 68
70 67 68
70 67 68
71 66 68
71 66 68
71 66 68
71 66 68
72 66 68
72 66 68
72 65 68
73 65 68
73 65 68
73 65 68
74 65 68
74 65 68
74 64 68
74 64 68
75 64 68
75 64 68
75 64 68
76 63 68
76 63 68
76 63 68
77 63 68
77 63 68
77 63 68
77 62 68
78 62 68
78 62 68
78 62 68
79 62 68
79 62 68
79 61 68
80 61 68
80 61 68
80 61 68
80 61 68
81 61 68
81 60 68
81 60 68
82 60 68
82 60 68
82 60 68
83 60 68
83 59 68
83 59 68
83 59 68
84 59 68
84 59 68
84 59 68
85 58 68
85 58 68
85 58 68
86 58 68
86 58 68
86 58 68
86 57 68
87 57 68
87 57 68
87 57 68
88 57 68
88 57 68
88 56 68
89 56 68
89 56 68
89 56 68
89 56 68
90 55 68
90 55 68
90 55 68
91 55 68
91 55 68
91 55 68
92 54 68
92 54 68
92 54 68
92 54 68
93 54 68
93 54 68
93 53 68
94 53 68
94 53 68
94 53 68
94 53 68
95 53 68
95 52 68
95 52 68
96 52 68
96 52 68
96 52 68
97 52 68
97 51 68
97 51 68
97 51 68
98 51 68
98 51 68
98 51 68
99 50 68
99 50 68
99 50 68
100 50 68
100 50 68
100 50 68
100 49 68
101 49 68
101 49 68
101 49 68
102 49 68
102 49 68
102 48 68
103 48 68
103 48 68
103 48 68
103 48 68
104 47 68
104 47 68
104 47 68
105 47 68
105 47 68
105 47 68
106 46 68
106 46 68
106 46 68
106 46 68
107 46 68
107 46 68
107 45 68
108 45 68
108 45 68
108 45 68
109 45 68
109 45 68
109 44 68
109 44 68
110 44 68
110 44 68
110 44 68
111 44 68
111 43 68
111 43 68
112 43 68
112 43 68
112 43 68
112 43 68
113 42 68
113 42 68
113 42 68
114 42 68
114 42 68
114 42 68
115 41 68
115 41 68
115 41 68
115 41 68
116 41 68
116 41 68
116 40 68
117 40 68
117 40 68
117 40 68
117 40 68
118 39 68
118 39 68
118 39 68
119 39 68
119 39 68
119 39 68
120 38 68
120 38 68
120 38 68
120 38 68
121 38 68
121 38 68
121 37 68
122 37 68
122 37 68
122 37 68
123 37 68
123 37 68
123 36 68
123 36 68
124 36 68
124 36 68
124 36 68
125 36 68
125 35 68
125 35 68
126 35 68
126 35 68
126 35 68
126 35 68
127 34 68
127 34 68
127 34 68
128 34 68
128 34 68
128 34 68
129 33 68
129 33 68
129 33 68
129 33 68
130 33 68
130 33 68
130 32 68
131 32 68
131 32 68
131 32 68
132 32 68
132 31 68
132 31 68
132 31 68
133 31 68
133 31 68
133 31 68
134 30 68
134 30 68
134 30 68
135 30 68
135 30 68
135 30 68
135 29 68
136 29 68
136 29 68
136 29 68
137 29 68
137 29 68
137 28 68
138 28 68
138 28 68
138 28 68
138 28 68
139 28 68
139 27 68
139 27 68
140 27 68
140 27 68
140 27 68
140 27 68
141 26 68
141 26 68
141 26 68
142 26 68
142 26 68
142 26 68
143 25 68
143 25 68
143 25 68
143 25 68
144 25 68
144 25 68
144 24 68
145 24 68
145 24 68
145 24 68
146 24 68
146 23 68
146 23 68
146 23 68
147 23 68
147 23 68
147 23 68
148 22 68
148 22 68
148 22 68
149 22 68
149 22 68
149 22 68
149 21 68
150 21 68
150 21 68
150 21 68
151 21 68
151 21 68
151 20 68
152 20 68
152 20 68
152 20 68
152 20 68
153 20 68
153 19 68
153 19 68
154 19 68
154 19 68
154 19 68
155 19 68
155 18 68
155 18 68
155 18 68
156 18 68
156 18 68
156 18 68
157 17 68
157 17 68
157 17 68
158 17 68
158 17 68
158 17 68
158 16 68
159 16 68
159 16 68
159 16 68
160 16 68
160 15 68
160 15 68
161 15 68
161 15 68
161 15 68
161 15 68
162 14 68
162 14 68
162 14 68
163 14 68
163 14 68
163 14 68
163 13 68
164 13 68
164 13 68
164 13 68
165 13 68
165 13 68
165 12 68
166 12 68
166 12 68
166 12 68
166 12 68
167 12 68
167 11 68
167 11 68
168 11 68
168 11 68
168 11 68
169 11 68
169 10 68
169 10 68
169 10 68
170 10 68
170 10 68
170 10 68
171 9 68
171 9 68
171 9 68
172 9 68
172 9 68
172 9 68
172 8 68
173 8 68
173 8 68
173 8 68
174 8 68
174 7 68
174 7 68
175 7 68
175 7 68
175 7 68
175 7 68
176 6 68
176 6 68
176 6 68
177 6 68
177 6 68
177 6 68
178 5 68
178 5 68
178 5 68
178 5 68
179 5 68
179 5 68
179 4 68
180 4 68
180 4 68
180 4 68
181 4 68
181 4 68
181 3 68
181 3 68
182 3 68
182 3 68
182 3 68
183 3 68
183 2 68
183 2 68
184 2 68
184 2 68
184 2 68
184 2 68
185 1 68
185 1 68
185 1 68
186 1 68
186 1 68
186 1 68
186 0 68
187 0 68
187 0 68
67 67 67
67 66 67
67 66 67
68 66 67
68 66 67
68 66 67
68 66 67
69 65 67
69 65 67
69 65 67
70 65 67
70 65 67
70 65 67
71 64 67
71 64 67
71 64 67
72 64 67
72 64 67
72 64 67
72 63 67
73 63 67
73 63 67
73 63 67
74 63 67
74 63 67
74 62 67
75 62 67
75 62 67
75 62 67
75 62 67
76 62 67
76 61 67
76 61 67
77 61 67
77 61 67
77 61 67
78 61 67
78 60 67
78 60 67
79 60 67
79 60 67
79 60 67
79 60 67
80 59 67
80 59 67
80 59 67
81 59 67
81 59 67
81 59 67
82 58 67
82 58 67
82 58 67
82 58 67
83 58 67
83 58 67
83 57 67
84 57 67
84 57 67
84 57 67
85 57 67
85 57 67
85 56 67
86 56 67
86 56 67
86 56 67
86 56 67
87 56 67
87 55 67
87 55 67
88 55 67
88 55 67
88 55 67
89 55 67
89 54 67
89 54 67
90 54 67
90 54 67
90 54 67
90 54 67
91 53 67
91 53 67
91 53 67
92 53 67
92 53 67
92 53 67
93 52 67
93 52 67
93 52 67
93 52 67
94 52 67
94 52 67
94 51 67
95 51 67
95 51 67
95 51 67
96 51 67
96 51 67
96 50 67
97 50 67
97 50 67
97 50 67
97 50 67
98 50 67
98 49 67
98 49 67
99 49 67
99 49 67
99 49 67
100 49 67
100 48 67
100 48 67
100 48 67
101 48 67
101 48 67
101 48 67
102 47 67
102 47 67
102 47 67
103 47 67
103 47 67
103 47 67
104 46 67
104 46 67
104 46 67
104 46 67
105 46 67
105 46 67
105 45 67
106 45 67
106 45 67
106 45 67
107 45 67
107 45 67
107 44 67
108 44 67
108 44 67
108 44 67
108 44 67
109 44 67
109 43 67
109 43 67
110 43 67
110 43 67
110 43 67
111 43 67
111 42 67
111 42 67
111 42 67
112 42 67
112 42 67
112 42 67
113 41 67
113 41 67
113 41 67
114 41 67
114 41 67
114 41 67
115 40 67
115 40 67
115 40 67
115 40 67
116 40 67
116 40 67
116 39 67
117 39 67
117 39 67
117 39 67
118 39 67
118 39 67
118 38 67
118 38 67
119 38 67
119 38 67
119 38 67
120 38 67
120 37 67
120 37 67
121 37 67
121 37 67
121 37 67
122 37 67
122 36 67
122 36 67
122 36 67
123 36 67
123 36 67
123 36 67
124 35 67
124 35 67
124 35 67
125 35 67
125 35 67
125 35 67
126 34 67
126 34 67
126 34 67
126 34 67
127 34 67
127 34 67
127 33 67
128 33 67
128 33 67
128 33 67
129 33 67
129 33 67
129 32 67
129 32 67
130 32 67
130 32 67
130 32 67
131 32 67
131 31 67
131 31 67
132 31 67
132 31 67
132 31 67
133 31 67
133 30 67
133 30 67
133 30 67
134 30 67
134 30 67
134 30 67
135 29 67
135 29 67
135 29 67
136 29 67
136 29 67
136 29 67
137 28 67
137 28 67
137 28 67
137 28 67
138 28 67
138 28 67
138 27 67
139 27 67
139 27 67
139 27 67
140 27 67
140 27 67
140 26 67
140 26 67
141 26 67
141 26 67
141 26 67
142 26 67
142 25 67
142 25 67
143 25 67
143 25 67
143 25 67
144 25 67
144 24 67
144 24 67
144 24 67
145 24 67
145 24 67
145 24 67
146 23 67
146 23 67
146 23 67
147 23 67
147 23 67
147 23 67
147 22 67
148 22 67
148 22 67
148 22 67
149 22 67
149 22 67
149 21 67
150 21 67
150 21 67
150 21 67
151 21 67
151 21 67
151 20 67
151 20 67
152 20 67
152 20 67
152 20 67
153 20 67
153 19 67
153 19 67
154 19 67
154 19 67
154 19 67
155 19 67
155 18 67
155 18 67
155 18 67
156 18 67
156 18 67
156 18 67
157 17 67
157 17 67
157 17 67
158 17 67
158 17 67
158 17 67
158 16 67
159 16 67
159 16 67
159 16 67
160 16 67
160 16 67
160 15 67
161 15 67
161 15 67
161 15 67
162 15 67
162 15 67
162 14 67
162 14 67
163 14 67
163 14 67
163 14 67
164 14 67
164 13 67
164 13 67
165 13 67
165 13 67
165 13 67
165 13 67
166 12 67
166 12 67
166 12 67
167 12 67
167 12 67
167 12 67
168 11 67
168 11 67
168 11 67
169 11 67
169 11 67
169 11 67
169 10 67
170 10 67
170 10 67
170 10 67
171 10 67
171 10 67
171 9 67
172 9 67
172 9 67
172 9 67
173 9 67
173 9 67
173 8 67
173 8 67
174 8 67
174 8 67
174 8 67
175 8 67
175 7 67
175 7 67
176 7 67
176 7 67
176 7 67
176 7 67
177 6 67
177 6 67
177 6 67
178 6 67
178 6 67
178 6 67
179 5 67
179 5 67
179 5 67
180 5 67
180 5 67
180 5 67
180 4 67
181 4 67
181 4 67
181 4 67
182 4 67
182 4 67
182 3 67
183 3 67
183 3 67
183 3 67
183 3 67
184 3 67
184 2 67
184 2 67
185 2 67
185 2 67
185 2 67
186 2 67
186 1 67
186 1 67
187 1 67
187 1 67
187 1 67
187 1 67
188 0 67
188 0 67
188 0 67
65 65 65
66 65 65
66 65 65
66 65 65
67 65 65
67 65 65
67 64 65
68 64 65
68 64 65
68 64 65
68 64 65
69 64 65
69 63 65
69 63 65
70 63 65
70 63 65
70 63 65
71 63 65
71 62 65
71 62 65
72 62 65
72 62 65
72 62 65
73 62 65
73 61 65
73 61 65
73 61 65
74 61 65
74 61 65
74 61 65
75 60 65
75 60 65
75 60 65
76 60 65
76 60 65
76 60 65
77 59 65
77 59 65
77 59 65
78 59 65
78 59 65
78 59 65
78 58 65
79 58 65
79 58 65
79 58 65
80 58 65
80 58 65
80 57 65
81 57 65
81 57 65
81 57 65
82 57 65
82 57 65
82 57 65
82 56 65
83 56 65
83 56 65
83 56 65
84 56 65
84 56 65
84 55 65
85 55 65
85 55 65
85 55 65
86 55 65
86 55 65
86 54 65
87 54 65
87 54 65
87 54 65
87 54 65
88 54 65
88 53 65
88 53 65
89 53 65
89 53 65
89 53 65
90 53 65
90 52 65
90 52 65
91 52 65
91 52 65
91 52 65
92 52 65
92 51 65
92 51 65
92 51 65
93 51 65
93 51 65
93 51 65
94 50 65
94 50 65
94 50 65
95 50 65
95 50 65
95 50 65
96 49 65
96 49 65
96 49 65
97 49 65
97 49 65
97 49 65
97 48 65
98 48 65
98 48 65
98 48 65
99 48 65
99 48 65
99 47 65
100 47 65
100 47 65
100 47 65
101 47 65
101 47 65
101 47 65
101 46 65
102 46 65
102 46 65
102 46 65
103 46 65
103 46 65
103 45 65
104 45 65
104 45 65
104 45 65
105 45 65
105 45 65
105 44 65
106 44 65
106 44 65
106 44 65
106 44 65
107 44 65
107 43 65
107 43 65
108 43 65
108 43 65
108 43 65
109 43 65
109 42 65
109 42 65
110 42 65
110 42 65
110 42 65
111 42 65
111 41 65
111 41 65
111 41 65
112 41 65
112 41 65
112 41 65
113 40 65
113 40 65
113 40 65
114 40 65
114 40 65
114 40 65
115 39 65
115 39 65
115 39 65
116 39 65
116 39 65
116 39 65
116 38 65
117 38 65
117 38 65
117 38 65
118 38 65
118 38 65
118 38 65
119 37 65
119 37 65
119 37 65
120 37 65
120 37 65
120 37 65
120 36 65
121 36 65
121 36 65
121 36 65
122 36 65
122 36 65
122 35 65
123 35 65
123 35 65
123 35 65
124 35 65
124 35 65
124 34 65
125 34 65
125 34 65
125 34 65
125 34 65
126 34 65
126 33 65
126 33 65
127 33 65
127 33 65
127 33 65
128 33 65
128 32 65
128 32 65
129 32 65
129 32 65
129 32 65
130 32 65
130 31 65
130 31 65
130 31 65
131 31 65
131 31 65
131 31 65
132 30 65
132 30 65
132 30 65
133 30 65
133 30 65
133 30 65
134 29 65
134 29 65
134 29 65
135 29 65
135 29 65
135 29 65
135 28 65
136 28 65
136 28 65
136 28 65
137 28 65
137 28 65
137 28 65
138 27 65
138 27 65
138 27 65
139 27 65
139 27 65
139 27 65
139 26 65
140 26 65
140 26 65
140 26 65
141 26 65
141 26 65
141 25 65
142 25 65
142 25 65
142 25 65
143 25 65
143 25 65
143 24 65
144 24 65
144 24 65
144 24 65
144 24 65
145 24 65
145 23 65
145 23 65
146 23 65
146 23 65
146 23 65
147 23 65
147 22 65
147 22 65
148 22 65
148 22 65
148 22 65
149 22 65
149 21 65
149 21 65
149 21 65
150 21 65
150 21 65
150 21 65
151 20 65
151 20 65
151 20 65
152 20 65
152 20 65
152 20 65
153 19 65
153 19 65
153 19 65
154 19 65
154 19 65
154 19 65
154 19 65
155 18 65
155 18 65
155 18 65
156 18 65
156 18 65
156 18 65
157 17 65
157 17 65
157 17 65
158 17 65
158 17 65
158 17 65
158 16 65
159 16 65
159 16 65
159 16 65
160 16 65
160 16 65
160 15 65
161 15 65
161 15 65
161 15 65
162 15 65
162 15 65
162 14 65
163 14 65
163 14 65
163 14 65
163 14 65
164 14 65
164 13 65
164 13 65
165 13 65
165 13 65
165 13 65
166 13 65
166 12 65
166 12 65
167 12 65
167 12 65
167 12 65
168 12 65
168 11 65
168 11 65
168 11 65
169 11 65
169 11 65
169 11 65
170 10 65
170 10 65
170 10 65
171 10 65
171 10 65
171 10 65
172 9 65
172 9 65
172 9 65
173 9 65
173 9 65
173 9 65
173 9 65
174 8 65
174 8 65
174 8 65
175 8 65
175 8 65
175 8 65
176 7 65
176 7 65
176 7 65
177 7 65
177 7 65
177 7 65
177 6 65
178 6 65
178 6 65
178 6 65
179 6 65
179 6 65
179 5 65
180 5 65
180 5 65
180 5 65
181 5 65
181 5 65
181 4 65
182 4 65
182 4 65
182 4 65
182 4 65
183 4 65
183 3 65
183 3 65
184 3 65
184 3 65
184 3 65
185 3 65
185 2 65
185 2 65
186 2 65
186 2 65
186 2 65
187 2 65
187 1 65
187 1 65
187 1 65
188 1 65
188 1 65
188 1 65
189 0 65
189 0 65
189 0 65
190 0 65
64 64 64
64 64 64
65 64 64
65 64 64
65 63 64
66 63 64
66 63 64
66 63 64
67 63 64
67 63 64
67 62 64
68 62 64
68 62 64
68 62 64
69 62 64
69 62 64
69 62 64
69 61 64
70 61 64
70 61 64
70 61 64
71 61 64
71 61 64
71 60 64
72 60 64
72 60 64
72 60 64
73 60 64
73 60 64
73 59 64
74 59 64
74 59 64
74 59 64
75 59 64
75 59 64
75 58 64
76 58 64
76 58 64
76 58 64
76 58 64
77 58 64
77 57 64
77 57 64
78 57 64
78 57 64
78 57 64
79 57 64
79 57 64
79 56 64
80 56 64
80 56 64
80 56 64
81 56 64
81 56 64
81 55 64
82 55 64
82 55 64
82 55 64
83 55 64
83 55 64
83 54 64
83 54 64
84 54 64
84 54 64
84 54 64
85 54 64
85 53 64
85 53 64
86 53 64
86 53 64
86 53 64
87 53 64
87 53 64
87 52 64
88 52 64
88 52 64
88 52 64
89 52 64
89 52 64
89 51 64
90 51 64
90 51 64
90 51 64
90 51 64
91 51 64
91 50 64
91 50 64
92 50 64
92 50 64
92 50 64
93 50 64
93 49 64
93 49 64
94 49 64
94 49 64
94 49 64
95 49 64
95 48 64
95 48 64
96 48 64
96 48 64
96 48 64
97 48 64
97 48 64
97 47 64
97 47 64
98 47 64
98 47 64
98 47 64
99 47 64
99 46 64
99 46 64
100 46 64
100 46 64
100 46 64
101 46 64
101 45 64
101 45 64
102 45 64
102 45 64
102 45 64
103 45 64
103 44 64
103 44 64
103 44 64
104 44 64
104 44 64
104 44 64
105 44 64
105 43 64
105 43 64
106 43 64
106 43 64
106 43 64
107 43 64
107 42 64
107 42 64
108 42 64
108 42 64
108 42 64
109 42 64
109 41 64
109 41 64
110 41 64
110 41 64
110 41 64
110 41 64
111 40 64
111 40 64
111 40 64
112 40 64
112 40 64
112 40 64
113 40 64
113 39 64
113 39 64
114 39 64
114 39 64
114 39 64
115 39 64
115 38 64
115 38 64
116 38 64
116 38 64
116 38 64
117 38 64
117 37 64
117 37 64
117 37 64
118 37 64
118 37 64
118 37 64
119 36 64
119 36 64
119 36 64
120 36 64
120 36 64
120 36 64
121 35 64
121 35 64
121 35 64
122 35 64
122 35 64
122 35 64
123 35 64
123 34 64
123 34 64
124 34 64
124 34 64
124 34 64
124 34 64
125 33 64
125 33 64
125 33 64
126 33 64
126 33 64
126 33 64
127 32 64
127 32 64
127 32 64
128 32 64
128 32 64
128 32 64
129 31 64
129 31 64
129 31 64
130 31 64
130 31 64
130 31 64
131 31 64
131 30 64
131 30 64
131 30 64
132 30 64
132 30 64
132 30 64
133 29 64
133 29 64
133 29 64
134 29 64
134 29 64
134 29 64
135 28 64
135 28 64
135 28 64
136 28 64
136 28 64
136 28 64
137 27 64
137 27 64
137 27 64
138 27 64
138 27 64
138 27 64
138 26 64
139 26 64
139 26 64
139 26 64
140 26 64
140 26 64
140 26 64
141 25 64
141 25 64
141 25 64
142 25 64
142 25 64
142 25 64
143 24 64
143 24 64
143 24 64
144 24 64
144 24 64
144 24 64
145 23 64
145 23 64
145 23 64
145 23 64
146 23 64
146 23 64
146 22 64
147 22 64
147 22 64
147 22 64
148 22 64
148 22 64
148 22 64
149 21 64
149 21 64
149 21 64
150 21 64
150 21 64
150 21 64
151 20 64
151 20 64
151 20 64
152 20 64
152 20 64
152 20 64
152 19 64
153 19 64
153 19 64
153 19 64
154 19 64
154 19 64
154 18 64
155 18 64
155 18 64
155 18 64
156 18 64
156 18 64
156 18 64
157 17 64
157 17 64
157 17 64
158 17 64
158 17 64
158 17 64
158 16 64
159 16 64
159 16 64
159 16 64
160 16 64
160 16 64
160 15 64
161 15 64
161 15 64
161 15 64
162 15 64
162 15 64
162 14 64
163 14 64
163 14 64
163 14 64
164 14 64
164 14 64
164 13 64
165 13 64
165 13 64
165 13 64
165 13 64
166 13 64
166 13 64
166 12 64
167 12 64
167 12 64
167 12 64
168 12 64
168 12 64
168 11 64
169 11 64
169 11 64
169 11 64
170 11 64
170 11 64
170 10 64
171 10 64
171 10 64
171 10 64
172 10 64
172 10 64
172 9 64
172 9 64
173 9 64
173 9 64
173 9 64
174 9 64
174 9 64
174 8 64
175 8 64
175 8 64
175 8 64
176 8 64
176 8 64
176 7 64
177 7 64
177 7 64
177 7 64
178 7 64
178 7 64
178 6 64
179 6 64
179 6 64
179 6 64
179 6 64
180 6 64
180 5 64
180 5 64
181 5 64
181 5 64
181 5 64
182 5 64
182 4 64
182 4 64
183 4 64
183 4 64
183 4 64
184 4 64
184 4 64
184 3 64
185 3 64
185 3 64
185 3 64
186 3 64
186 3 64
186 2 64
186 2 64
187 2 64
187 2 64
187 2 64
188 2 64
188 1 64
188 1 64
189 1 64
189 1 64
189 1 64
190 1 64
190 0 64
190 0 64
191 0 64
191 0 64
63 63 63
63 63 63
63 62 63
64 62 63
64 62 63
64 62 63
65 62 63
65 62 63
65 62 63
66 61 63
66 61 63
66 61 63
67 61 63
67 61 63
67 61 63
68 60 63
68 60 63
68 60 63
69 60 63
69 60 63
69 60 63
70 59 63
70 59 63
70 59 63
71 59 63
71 59 63
71 59 63
72 59 63
72 58 63
72 58 63
73 58 63
73 58 63
73 58 63
73 58 63
74 57 63
74 57 63
74 57 63
75 57 63
75 57 63
75 57 63
76 56 63
76 56 63
76 56 63
77 56 63
77 56 63
77 56 63
78 56 63
78 55 63
78 55 63
79 55 63
79 55 63
79 55 63
80 55 63
80 54 63
80 54 63
81 54 63
81 54 63
81 54 63
82 54 63
82 54 63
82 53 63
83 53 63
83 53 63
83 53 63
84 53 63
84 53 63
84 52 63
85 52 63
85 52 63
85 52 63
85 52 63
86 52 63
86 51 63
86 51 63
87 51 63
87 51 63
87 51 63
88 51 63
88 51 63
88 50 63
89 50 63
89 50 63
89 50 63
90 50 63
90 50 63
90 49 63
91 49 63
91 49 63
91 49 63
92 49 63
92 49 63
92 48 63
93 48 63
93 48 63
93 48 63
94 48 63
94 48 63
94 48 63
95 47 63
95 47 63
95 47 63
96 47 63
96 47 63
96 47 63
97 46 63
97 46 63
97 46 63
97 46 63
98 46 63
98 46 63
98 45 63
99 45 63
99 45 63
99 45 63
100 45 63
100 45 63
100 45 63
101 44 63
101 44 63
101 44 63
102 44 63
102 44 63
102 44 63
103 43 63
103 43 63
103 43 63
104 43 63
104 43 63
104 43 63
105 42 63
105 42 63
105 42 63
106 42 63
106 42 63
106 42 63
107 42 63
107 41 63
107 41 63
108 41 63
108 41 63
108 41 63
109 41 63
109 40 63
109 40 63
109 40 63
110 40 63
110 40 63
110 40 63
111 39 63
111 39 63
111 39 63
112 39 63
112 39 63
112 39 63
113 39 63
113 38 63
113 38 63
114 38 63
114 38 63
114 38 63
115 38 63
115 37 63
115 37 63
116 37 63
116 37 63
116 37 63
117 37 63
117 37 63
117 36 63
118 36 63
118 36 63
118 36 63
119 36 63
119 36 63
119 35 63
120 35 63
120 35 63
120 35 63
121 35 63
121 35 63
121 34 63
121 34 63
122 34 63
122 34 63
122 34 63
123 34 63
123 34 63
123 33 63
124 33 63
124 33 63
124 33 63
125 33 63
125 33 63
125 32 63
126 32 63
126 32 63
126 32 63
127 32 63
127 32 63
127 31 63
128 31 63
128 31 63
128 31 63
129 31 63
129 31 63
129 31 63
130 30 63
130 30 63
130 30 63
131 30 63
131 30 63
131 30 63
132 29 63
132 29 63
132 29 63
133 29 63
133 29 63
133 29 63
134 28 63
134 28 63
134 28 63
134 28 63
135 28 63
135 28 63
135 28 63
136 27 63
136 27 63
136 27 63
137 27 63
137 27 63
137 27 63
138 26 63
138 26 63
138 26 63
139 26 63
139 26 63
139 26 63
140 25 63
140 25 63
140 25 63
141 25 63
141 25 63
141 25 63
142 25 63
142 24 63
142 24 63
143 24 63
143 24 63
143 24 63
144 24 63
144 23 63
144 23 63
145 23 63
145 23 63
145 23 63
146 23 63
146 23 63
146 22 63
146 22 63
147 22 63
147 22 63
147 22 63
148 22 63
148 21 63
148 21 63
149 21 63
149 21 63
149 21 63
150 21 63
150 20 63
150 20 63
151 20 63
151 20 63
151 20 63
152 20 63
152 20 63
152 19 63
153 19 63
153 19 63
153 19 63
154 19 63
154 19 63
154 18 63
155 18 63
155 18 63
155 18 63
156 18 63
156 18 63
156 17 63
157 17 63
157 17 63
157 17 63
158 17 63
158 17 63
158 17 63
158 16 63
159 16 63
159 16 63
159 16 63
160 16 63
160 16 63
160 15 63
161 15 63
161 15 63
161 15 63
162 15 63
162 15 63
162 14 63
163 14 63
163 14 63
163 14 63
164 14 63
164 14 63
164 14 63
165 13 63
165 13 63
165 13 63
166 13 63
166 13 63
166 13 63
167 12 63
167 12 63
167 12 63
168 12 63
168 12 63
168 12 63
169 11 63
169 11 63
169 11 63
170 11 63
170 11 63
170 11 63
170 11 63
171 10 63
171 10 63
171 10 63
172 10 63
172 10 63
172 10 63
173 9 63
173 9 63
173 9 63
174 9 63
174 9 63
174 9 63
175 8 63
175 8 63
175 8 63
176 8 63
176 8 63
176 8 63
177 8 63
177 7 63
177 7 63
178 7 63
178 7 63
178 7 63
179 7 63
179 6 63
179 6 63
180 6 63
180 6 63
180 6 63
181 6 63
181 6 63
181 5 63
182 5 63
182 5 63
182 5 63
182 5 63
183 5 63
183 4 63
183 4 63
184 4 63
184 4 63
184 4 63
185 4 63
185 3 63
185 3 63
186 3 63
186 3 63
186 3 63
187 3 63
187 3 63
187 2 63
188 2 63
188 2 63
188 2 63
189 2 63
189 2 63
189 1 63
190 1 63
190 1 63
190 1 63
191 1 63
191 1 63
191 0 63
192 0 63
192 0 63
192 0 63
62 62 62
62 61 62
62 61 62
62 61 62
63 61 62
63 61 62
63 61 62
64 60 62
64 60 62
64 60 62
65 60 62
65 60 62
65 60 62
66 60 62
66 59 62
66 59 62
67 59 62
67 59 62
67 59 62
68 59 62
68 58 62
68 58 62
69 58 62
69 58 62
69 58 62
70 58 62
70 57 62
70 57 62
71 57 62
71 57 62
71 57 62
72 57 62
72 57 62
72 56 62
73 56 62
73 56 62
73 56 62
74 56 62
74 56 62
74 55 62
75 55 62
75 55 62
75 55 62
76 55 62
76 55 62
76 55 62
77 54 62
77 54 62
77 54 62
78 54 62
78 54 62
78 54 62
79 53 62
79 53 62
79 53 62
80 53 62
80 53 62
80 53 62
81 53 62
81 52 62
81 52 62
82 52 62
82 52 62
82 52 62
83 52 62
83 51 62
83 51 62
84 51 62
84 51 62
84 51 62
85 51 62
85 51 62
85 50 62
86 50 62
86 50 62
86 50 62
87 50 62
87 50 62
87 49 62
88 49 62
88 49 62
88 49 62
89 49 62
89 49 62
89 49 62
90 48 62
90 48 62
90 48 62
91 48 62
91 48 62
91 48 62
92 47 62
92 47 62
92 47 62
93 47 62
93 47 62
93 47 62
94 47 62
94 46 62
94 46 62
95 46 62
95 46 62
95 46 62
96 46 62
96 45 62
96 45 62
97 45 62
97 45 62
97 45 62
98 45 62
98 45 62
98 44 62
99 44 62
99 44 62
99 44 62
100 44 62
100 44 62
100 43 62
101 43 62
101 43 62
101 43 62
102 43 62
102 43 62
102 43 62
103 42 62
103 42 62
103 42 62
104 42 62
104 42 62
104 42 62
105 41 62
105 41 62
105 41 62
106 41 62
106 41 62
106 41 62
106 41 62
107 40 62
107 40 62
107 40 62
108 40 62
108 40 62
108 40 62
109 39 62
109 39 62
109 39 62
110 39 62
110 39 62
110 39 62
111 39 62
111 38 62
111 38 62
112 38 62
112 38 62
112 38 62
113 38 62
113 37 62
113 37 62
114 37 62
114 37 62
114 37 62
115 37 62
115 37 62
115 36 62
116 36 62
116 36 62
116 36 62
117 36 62
117 36 62
117 35 62
118 35 62
118 35 62
118 35 62
119 35 62
119 35 62
119 35 62
120 34 62
120 34 62
120 34 62
121 34 62
121 34 62
121 34 62
122 33 62
122 33 62
122 33 62
123 33 62
123 33 62
123 33 62
124 33 62
124 32 62
124 32 62
125 32 62
125 32 62
125 32 62
126 32 62
126 31 62
126 31 62
127 31 62
127 31 62
127 31 62
128 31 62
128 31 62
128 30 62
129 30 62
129 30 62
129 30 62
130 30 62
130 30 62
130 29 62
131 29 62
131 29 62
131 29 62
132 29 62
132 29 62
132 29 62
133 28 62
133 28 62
133 28 62
134 28 62
134 28 62
134 28 62
135 27 62
135 27 62
135 27 62
136 27 62
136 27 62
136 27 62
137 27 62
137 26 62
137 26 62
138 26 62
138 26 62
138 26 62
139 26 62
139 25 62
139 25 62
140 25 62
140 25 62
140 25 62
141 25 62
141 25 62
141 24 62
142 24 62
142 24 62
142 24 62
143 24 62
143 24 62
143 23 62
144 23 62
144 23 62
144 23 62
145 23 62
145 23 62
145 23 62
146 22 62
146 22 62
146 22 62
147 22 62
147 22 62
147 22 62
148 21 62
148 21 62
148 21 62
149 21 62
149 21 62
149 21 62
149 21 62
150 20 62
150 20 62
150 20 62
151 20 62
151 20 62
151 20 62
152 19 62
152 19 62
152 19 62
153 19 62
153 19 62
153 19 62
154 18 62
154 18 62
154 18 62
155 18 62
155 18 62
155 18 62
156 18 62
156 17 62
156 17 62
157 17 62
157 17 62
157 17 62
158 17 62
158 16 62
158 16 62
159 16 62
159 16 62
159 16 62
160 16 62
160 16 62
160 15 62
161 15 62
161 15 62
161 15 62
162 15 62
162 15 62
162 14 62
163 14 62
163 14 62
163 14 62
164 14 62
164 14 62
164 14 62
165 13 62
165 13 62
165 13 62
166 13 62
166 13 62
166 13 62
167 12 62
167 12 62
167 12 62
168 12 62
168 12 62
168 12 62
169 12 62
169 11 62
169 11 62
170 11 62
170 11 62
170 11 62
171 11 62
171 10 62
171 10 62
172 10 62
172 10 62
172 10 62
173 10 62
173 10 62
173 9 62
174 9 62
174 9 62
174 9 62
175 9 62
175 9 62
175 8 62
176 8 62
176 8 62
176 8 62
177 8 62
177 8 62
177 8 62
178 7 62
178 7 62
178 7 62
179 7 62
179 7 62
179 7 62
180 6 62
180 6 62
180 6 62
181 6 62
181 6 62
181 6 62
182 6 62
182 5 62
182 5 62
183 5 62
183 5 62
183 5 62
184 5 62
184 4 62
184 4 62
185 4 62
185 4 62
185 4 62
186 4 62
186 4 62
186 3 62
187 3 62
187 3 62
187 3 62
188 3 62
188 3 62
188 2 62
189 2 62
189 2 62
189 2 62
190 2 62
190 2 62
190 2 62
191 1 62
191 1 62
191 1 62
192 1 62
192 1 62
192 1 62
193 0 62
193 0 62
193 0 62
193 0 62
60 60 60
61 60 60
61 60 60
61 60 60
62 60 60
62 59 60
62 59 60
63 59 60
63 59 60
63 59 60
64 59 60
64 59 60
64 58 60
65 58 60
65 58 60
65 58 60
66 58 60
66 58 60
66 58 60
67 57 60
67 57 60
67 57 60
68 57 60
68 57 60
68 57 60
69 56 60
69 56 60
69 56 60
70 56 60
70 56 60
70 56 60
71 56 60
71 55 60
71 55 60
72 55 60
72 55 60
72 55 60
73 55 60
73 54 60
73 54 60
74 54 60
74 54 60
74 54 60
75 54 60
75 54 60
75 53 60
76 53 60
76 53 60
76 53 60
77 53 60
77 53 60
77 53 60
78 52 60
78 52 60
78 52 60
79 52 60
79 52 60
79 52 60
80 51 60
80 51 60
80 51 60
81 51 60
81 51 60
81 51 60
82 51 60
82 50 60
82 50 60
83 50 60
83 50 60
83 50 60
84 50 60
84 50 60
85 49 60
85 49 60
85 49 60
86 49 60
86 49 60
86 49 60
87 48 60
87 48 60
87 48 60
88 48 60
88 48 60
88 48 60
89 48 60
89 47 60
89 47 60
90 47 60
90 47 60
90 47 60
91 47 60
91 46 60
91 46 60
92 46 60
92 46 60
92 46 60
93 46 60
93 46 60
93 45 60
94 45 60
94 45 60
94 45 60
95 45 60
95 45 60
95 45 60
96 44 60
96 44 60
96 44 60
97 44 60
97 44 60
97 44 60
98 43 60
98 43 60
98 43 60
99 43 60
99 43 60
99 43 60
100 43 60
100 42 60
100 42 60
101 42 60
101 42 60
101 42 60
102 42 60
102 42 60
102 41 60
103 41 60
103 41 60
103 41 60
104 41 60
104 41 60
104 40 60
105 40 60
105 40 60
105 40 60
106 40 60
106 40 60
106 40 60
107 39 60
107 39 60
107 39 60
108 39 60
108 39 60
108 39 60
109 38 60
109 38 60
109 38 60
110 38 60
110 38 60
110 38 60
111 38 60
111 37 60
111 37 60
112 37 60
112 37 60
112 37 60
113 37 60
113 37 60
114 36 60
114 36 60
114 36 60
115 36 60
115 36 60
115 36 60
116 35 60
116 35 60
116 35 60
117 35 60
117 35 60
117 35 60
118 35 60
118 34 60
118 34 60
119 34 60
119 34 60
119 34 60
120 34 60
120 34 60
120 33 60
121 33 60
121 33 60
121 33 60
122 33 60
122 33 60
122 32 60
123 32 60
123 32 60
123 32 60
124 32 60
124 32 60
124 32 60
125 31 60
125 31 60
125 31 60
126 31 60
126 31 60
126 31 60
127 30 60
127 30 60
127 30 60
128 30 60
128 30 60
128 30 60
129 30 60
129 29 60
129 29 60
130 29 60
130 29 60
130 29 60
131 29 60
131 29 60
131 28 60
132 28 60
132 28 60
132 28 60
133 28 60
133 28 60
133 27 60
134 27 60
134 27 60
134 27 60
135 27 60
135 27 60
135 27 60
136 26 60
136 26 60
136 26 60
137 26 60
137 26 60
137 26 60
138 26 60
138 25 60
138 25 60
139 25 60
139 25 60
139 25 60
140 25 60
140 24 60
140 24 60
141 24 60
141 24 60
141 24 60
142 24 60
142 24 60
143 23 60
143 23 60
143 23 60
144 23 60
144 23 60
144 23 60
145 22 60
145 22 60
145 22 60
146 22 60
146 22 60
146 22 60
147 22 60
147 21 60
147 21 60
148 21 60
148 21 60
148 21 60
149 21 60
149 21 60
149 20 60
150 20 60
150 20 60
150 20 60
151 20 60
151 20 60
151 19 60
152 19 60
152 19 60
152 19 60
153 19 60
153 19 60
153 19 60
154 18 60
154 18 60
154 18 60
155 18 60
155 18 60
155 18 60
156 18 60
156 17 60
156 17 60
157 17 60
157 17 60
157 17 60
158 17 60
158 16 60
158 16 60
159 16 60
159 16 60
159 16 60
160 16 60
160 16 60
160 15 60
161 15 60
161 15 60
161 15 60
162 15 60
162 15 60
162 14 60
163 14 60
163 14 60
163 14 60
164 14 60
164 14 60
164 14 60
165 13 60
165 13 60
165 13 60
166 13 60
166 13 60
166 13 60
167 13 60
167 12 60
167 12 60
168 12 60
168 12 60
168 12 60
169 12 60
169 11 60
169 11 60
170 11 60
170 11 60
170 11 60
171 11 60
171 11 60
172 10 60
172 10 60
172 10 60
173 10 60
173 10 60
173 10 60
174 10 60
174 9 60
174 9 60
175 9 60
175 9 60
175 9 60
176 9 60
176 8 60
176 8 60
177 8 60
177 8 60
177 8 60
178 8 60
178 8 60
178 7 60
179 7 60
179 7 60
179 7 60
180 7 60
180 7 60
180 6 60
181 6 60
181 6 60
181 6 60
182 6 60
182 6 60
182 6 60
183 5 60
183 5 60
183 5 60
184 5 60
184 5 60
184 5 60
185 5 60
185 4 60
185 4 60
186 4 60
186 4 60
186 4 60
187 4 60
187 3 60
187 3 60
188 3 60
188 3 60
188 3 60
189 3 60
189 3 60
189 2 60
190 2 60
190 2 60
190 2 60
191 2 60
191 2 60
191 2 60
192 1 60
192 1 60
192 1 60
193 1 60
193 1 60
193 1 60
194 0 60
194 0 60
194 0 60
195 0 60
59 59 59
59 59 59
60 59 59
60 59 59
60 58 59
61 58 59
61 58 59
61 58 59
62 58 59
62 58 59
62 57 59
63 57 59
63 57 59
63 57 59
64 57 59
64 57 59
64 57 59
65 56 59
65 56 59
65 56 59
66 56 59
66 56 59
67 56 59
67 56 59
67 55 59
68 55 59
68 55 59
68 55 59
69 55 59
69 55 59
69 55 59
70 54 59
70 54 59
70 54 59
71 54 59
71 54 59
71 54 59
72 53 59
72 53 59
72 53 59
73 53 59
73 53 59
73 53 59
74 53 59
74 52 59
74 52 59
75 52 59
75 52 59
75 52 59
76 52 59
76 52 59
76 51 59
77 51 59
77 51 59
78 51 59
78 51 59
78 51 59
79 51 59
79 50 59
79 50 59
80 50 59
80 50 59
80 50 59
81 50 59
81 49 59
81 49 59
82 49 59
82 49 59
82 49 59
83 49 59
83 49 59
83 48 59
84 48 59
84 48 59
84 48 59
85 48 59
85 48 59
85 48 59
86 47 59
86 47 59
86 47 59
87 47 59
87 47 59
87 47 59
88 47 59
88 46 59
88 46 59
89 46 59
89 46 59
90 46 59
90 46 59
90 46 59
91 45 59
91 45 59
91 45 59
92 45 59
92 45 59
92 45 59
93 44 59
93 44 59
93 44 59
94 44 59
94 44 59
94 44 59
95 44 59
95 43 59
95 43 59
96 43 59
96 43 59
96 43 59
97 43 59
97 43 59
97 42 59
98 42 59
98 42 59
98 42 59
99 42 59
99 42 59
99 42 59
100 41 59
100 41 59
101 41 59
101 41 59
101 41 59
102 41 59
102 40 59
102 40 59
103 40 59
103 40 59
103 40 59
104 40 59
104 40 59
104 39 59
105 39 59
105 39 59
105 39 59
106 39 59
106 39 59
106 39 59
107 38 59
107 38 59
107 38 59
108 38 59
108 38 59
108 38 59
109 38 59
109 37 59
109 37 59
110 37 59
110 37 59
110 37 59
111 37 59
111 36 59
112 36 59
112 36 59
112 36 59
113 36 59
113 36 59
113 36 59
114 35 59
114 35 59
114 35 59
115 35 59
115 35 59
115 35 59
116 35 59
116 34 59
116 34 59
117 34 59
117 34 59
117 34 59
118 34 59
118 34 59
118 33 59
119 33 59
119 33 59
119 33 59
120 33 59
120 33 59
120 33 59
121 32 59
121 32 59
121 32 59
122 32 59
122 32 59
123 32 59
123 31 59
123 31 59
124 31 59
124 31 59
124 31 59
125 31 59
125 31 59
125 30 59
126 30 59
126 30 59
126 30 59
127 30 59
127 30 59
127 30 59
128 29 59
128 29 59
128 29 59
129 29 59
129 29 59
129 29 59
130 29 59
130 28 59
130 28 59
131 28 59
131 28 59
131 28 59
132 28 59
132 27 59
132 27 59
133 27 59
133 27 59
134 27 59
134 27 59
134 27 59
135 26 59
135 26 59
135 26 59
136 26 59
136 26 59
136 26 59
137 26 59
137 25 59
137 25 59
138 25 59
138 25 59
138 25 59
139 25 59
139 25 59
139 24 59
140 24 59
140 24 59
140 24 59
141 24 59
141 24 59
141 23 59
142 23 59
142 23 59
142 23 59
143 23 59
143 23 59
143 23 59
144 22 59
144 22 59
145 22 59
145 22 59
145 22 59
146 22 59
146 22 59
146 21 59
147 21 59
147 21 59
147 21 59
148 21 59
148 21 59
148 21 59
149 20 59
149 20 59
149 20 59
150 20 59
150 20 59
150 20 59
151 20 59
151 19 59
151 19 59
152 19 59
152 19 59
152 19 59
153 19 59
153 18 59
153 18 59
154 18 59
154 18 59
154 18 59
155 18 59
155 18 59
156 17 59
156 17 59
156 17 59
157 17 59
157 17 59
157 17 59
158 17 59
158 16 59
158 16 59
159 16 59
159 16 59
159 16 59
160 16 59
160 16 59
160 15 59
161 15 59
161 15 59
161 15 59
162 15 59
162 15 59
162 14 59
163 14 59
163 14 59
163 14 59
164 14 59
164 14 59
164 14 59
165 13 59
165 13 59
165 13 59
166 13 59
166 13 59
167 13 59
167 13 59
167 12 59
168 12 59
168 12 59
168 12 59
169 12 59
169 12 59
169 12 59
170 11 59
170 11 59
170 11 59
171 11 59
171 11 59
171 11 59
172 10 59
172 10 59
172 10 59
173 10 59
173 10 59
173 10 59
174 10 59
174 9 59
174 9 59
175 9 59
175 9 59
175 9 59
176 9 59
176 9 59
176 8 59
177 8 59
177 8 59
177 8 59
178 8 59
178 8 59
179 8 59
179 7 59
179 7 59
180 7 59
180 7 59
180 7 59
181 7 59
181 7 59
181 6 59
182 6 59
182 6 59
182 6 59
183 6 59
183 6 59
183 5 59
184 5 59
184 5 59
184 5 59
185 5 59
185 5 59
185 5 59
186 4 59
186 4 59
186 4 59
187 4 59
187 4 59
187 4 59
188 4 59
188 3 59
188 3 59
189 3 59
189 3 59
190 3 59
190 3 59
190 3 59
191 2 59
191 2 59
191 2 59
192 2 59
192 2 59
192 2 59
193 1 59
193 1 59
193 1 59
194 1 59
194 1 59
194 1 59
195 1 59
195 0 59
195 0 59
196 0 59
196 0 59
58 58 58
58 58 58
58 57 58
59 57 58
59 57 58
59 57 58
60 57 58
60 57 58
60 57 58
61 56 58
61 56 58
62 56 58
62 56 58
62 56 58
63 56 58
63 55 58
63 55 58
64 55 58
64 55 58
64 55 58
65 55 58
65 55 58
65 54 58
66 54 58
66 54 58
66 54 58
67 54 58
67 54 58
67 54 58
68 53 58
68 53 58
69 53 58
69 53 58
69 53 58
70 53 58
70 53 58
70 52 58
71 52 58
71 52 58
71 52 58
72 52 58
72 52 58
72 52 58
73 51 58
73 51 58
73 51 58
74 51 58
74 51 58
74 51 58
75 51 58
75 50 58
76 50 58
76 50 58
76 50 58
77 50 58
77 50 58
77 50 58
78 49 58
78 49 58
78 49 58
79 49 58
79 49 58
79 49 58
80 49 58
80 48 58
80 48 58
81 48 58
81 48 58
81 48 58
82 48 58
82 48 58
83 47 58
83 47 58
83 47 58
84 47 58
84 47 58
84 47 58
85 47 58
85 46 58
85 46 58
86 46 58
86 46 58
86 46 58
87 46 58
87 46 58
87 45 58
88 45 58
88 45 58
88 45 58
89 45 58
89 45 58
90 45 58
90 44 58
90 44 58
91 44 58
91 44 58
91 44 58
92 44 58
92 44 58
92 43 58
93 43 58
93 43 58
93 43 58
94 43 58
94 43 58
94 42 58
95 42 58
95 42 58
95 42 58
96 42 58
96 42 58
97 42 58
97 41 58
97 41 58
98 41 58
98 41 58
98 41 58
99 41 58
99 41 58
99 40 58
100 40 58
100 40 58
100 40 58
101 40 58
101 40 58
101 40 58
102 39 58
102 39 58
102 39 58
103 39 58
103 39 58
104 39 58
104 39 58
104 38 58
105 38 58
105 38 58
105 38 58
106 38 58
106 38 58
106 38 58
107 37 58
107 37 58
107 37 58
108 37 58
108 37 58
108 37 58
109 37 58
109 36 58
109 36 58
110 36 58
110 36 58
111 36 58
111 36 58
111 36 58
112 35 58
112 35 58
112 35 58
113 35 58
113 35 58
113 35 58
114 35 58
114 34 58
114 34 58
115 34 58
115 34 58
115 34 58
116 34 58
116 34 58
116 33 58
117 33 58
117 33 58
118 33 58
118 33 58
118 33 58
119 33 58
119 32 58
119 32 58
120 32 58
120 32 58
120 32 58
121 32 58
121 32 58
121 31 58
122 31 58
122 31 58
122 31 58
123 31 58
123 31 58
123 30 58
124 30 58
124 30 58
125 30 58
125 30 58
125 30 58
126 30 58
126 29 58
126 29 58
127 29 58
127 29 58
127 29 58
128 29 58
128 29 58
128 28 58
129 28 58
129 28 58
129 28 58
130 28 58
130 28 58
130 28 58
131 27 58
131 27 58
132 27 58
132 27 58
132 27 58
133 27 58
133 27 58
133 26 58
134 26 58
134 26 58
134 26 58
135 26 58
135 26 58
135 26 58
136 25 58
136 25 58
136 25 58
137 25 58
137 25 58
137 25 58
138 25 58
138 24 58
139 24 58
139 24 58
139 24 58
140 24 58
140 24 58
140 24 58
141 23 58
141 23 58
141 23 58
142 23 58
142 23 58
142 23 58
143 23 58
143 22 58
143 22 58
144 22 58
144 22 58
144 22 58
145 22 58
145 22 58
146 21 58
146 21 58
146 21 58
147 21 58
147 21 58
147 21 58
148 21 58
148 20 58
148 20 58
149 20 58
149 20 58
149 20 58
150 20 58
150 20 58
150 19 58
151 19 58
151 19 58
151 19 58
152 19 58
152 19 58
153 18 58
153 18 58
153 18 58
154 18 58
154 18 58
154 18 58
155 18 58
155 17 58
155 17 58
156 17 58
156 17 58
156 17 58
157 17 58
157 17 58
157 16 58
158 16 58
158 16 58
158 16 58
159 16 58
159 16 58
160 16 58
160 15 58
160 15 58
161 15 58
161 15 58
161 15 58
162 15 58
162 15 58
162 14 58
163 14 58
163 14 58
163 14 58
164 14 58
164 14 58
164 14 58
165 13 58
165 13 58
165 13 58
166 13 58
166 13 58
167 13 58
167 13 58
167 12 58
168 12 58
168 12 58
168 12 58
169 12 58
169 12 58
169 12 58
170 11 58
170 11 58
170 11 58
171 11 58
171 11 58
171 11 58
172 11 58
172 10 58
172 10 58
173 10 58
173 10 58
174 10 58
174 10 58
174 10 58
175 9 58
175 9 58
175 9 58
176 9 58
176 9 58
176 9 58
177 9 58
177 8 58
177 8 58
178 8 58
178 8 58
178 8 58
179 8 58
179 8 58
179 7 58
180 7 58
180 7 58
181 7 58
181 7 58
181 7 58
182 7 58
182 6 58
182 6 58
183 6 58
183 6 58
183 6 58
184 6 58
184 5 58
184 5 58
185 5 58
185 5 58
185 5 58
186 5 58
186 5 58
186 4 58
187 4 58
187 4 58
188 4 58
188 4 58
188 4 58
189 4 58
189 3 58
189 3 58
190 3 58
190 3 58
190 3 58
191 3 58
191 3 58
191 2 58
192 2 58
192 2 58
192 2 58
193 2 58
193 2 58
193 2 58
194 1 58
194 1 58
195 1 58
195 1 58
195 1 58
196 1 58
196 1 58
196 0 58
197 0 58
197 0 58
197 0 58
56 56 56
57 56 56
57 56 56
57 56 56
58 56 56
58 56 56
59 56 56
59 55 56
59 55 56
60 55 56
60 55 56
60 55 56
61 55 56
61 55 56
61 54 56
62 54 56
62 54 56
62 54 56
63 54 56
63 54 56
64 54 56
64 53 56
64 53 56
65 53 56
65 53 56
65 53 56
66 53 56
66 53 56
66 52 56
67 52 56
67 52 56
67 52 56
68 52 56
68 52 56
69 52 56
69 51 56
69 51 56
70 51 56
70 51 56
70 51 56
71 51 56
71 51 56
71 50 56
72 50 56
72 50 56
72 50 56
73 50 56
73 50 56
73 50 56
74 49 56
74 49 56
75 49 56
75 49 56
75 49 56
76 49 56
76 49 56
76 48 56
77 48 56
77 48 56
77 48 56
78 48 56
78 48 56
78 48 56
79 47 56
79 47 56
80 47 56
80 47 56
80 47 56
81 47 56
81 47 56
81 46 56
82 46 56
82 46 56
82 46 56
83 46 56
83 46 56
83 46 56
84 46 56
84 45 56
85 45 56
85 45 56
85 45 56
86 45 56
86 45 56
86 45 56
87 44 56
87 44 56
87 44 56
88 44 56
88 44 56
88 44 56
89 44 56
89 43 56
90 43 56
90 43 56
90 43 56
91 43 56
91 43 56
91 43 56
92 42 56
92 42 56
92 42 56
93 42 56
93 42 56
93 42 56
94 42 56
94 41 56
95 41 56
95 41 56
95 41 56
96 41 56
96 41 56
96 41 56
97 40 56
97 40 56
97 40 56
98 40 56
98 40 56
98 40 56
99 40 56
99 39 56
100 39 56
100 39 56
100 39 56
101 39 56
101 39 56
101 39 56
102 38 56
102 38 56
102 38 56
103 38 56
103 38 56
103 38 56
104 38 56
104 37 56
105 37 56
105 37 56
105 37 56
106 37 56
106 37 56
106 37 56
107 36 56
107 36 56
107 36 56
108 36 56
108 36 56
108 36 56
109 36 56
109 35 56
109 35 56
110 35 56
110 35 56
111 35 56
111 35 56
111 35 56
112 34 56
112 34 56
112 34 56
113 34 56
113 34 56
113 34 56
114 34 56
114 33 56
114 33 56
115 33 56
115 33 56
116 33 56
116 33 56
116 33 56
117 33 56
117 32 56
117 32 56
118 32 56
118 32 56
118 32 56
119 32 56
119 32 56
119 31 56
120 31 56
120 31 56
121 31 56
121 31 56
121 31 56
122 31 56
122 30 56
122 30 56
123 30 56
123 30 56
123 30 56
124 30 56
124 30 56
124 29 56
125 29 56
125 29 56
126 29 56
126 29 56
126 29 56
127 29 56
127 28 56
127 28 56
128 28 56
128 28 56
128 28 56
129 28 56
129 28 56
129 27 56
130 27 56
130 27 56
131 27 56
131 27 56
131 27 56
132 27 56
132 26 56
132 26 56
133 26 56
133 26 56
133 26 56
134 26 56
134 26 56
134 25 56
135 25 56
135 25 56
136 25 56
136 25 56
136 25 56
137 25 56
137 24 56
137 24 56
138 24 56
138 24 56
138 24 56
139 24 56
139 24 56
139 23 56
140 23 56
140 23 56
141 23 56
141 23 56
141 23 56
142 23 56
142 22 56
142 22 56
143 22 56
143 22 56
143 22 56
144 22 56
144 22 56
144 21 56
145 21 56
145 21 56
146 21 56
146 21 56
146 21 56
147 21 56
147 20 56
147 20 56
148 20 56
148 20 56
148 20 56
149 20 56
149 20 56
149 20 56
150 19 56
150 19 56
150 19 56
151 19 56
151 19 56
152 19 56
152 19 56
152 18 56
153 18 56
153 18 56
153 18 56
154 18 56
154 18 56
154 18 56
155 17 56
155 17 56
155 17 56
156 17 56
156 17 56
157 17 56
157 17 56
157 16 56
158 16 56
158 16 56
158 16 56
159 16 56
159 16 56
159 16 56
160 15 56
160 15 56
160 15 56
161 15 56
161 15 56
162 15 56
162 15 56
162 14 56
163 14 56
163 14 56
163 14 56
164 14 56
164 14 56
164 14 56
165 13 56
165 13 56
165 13 56
166 13 56
166 13 56
167 13 56
167 13 56
167 12 56
168 12 56
168 12 56
168 12 56
169 12 56
169 12 56
169 12 56
170 11 56
170 11 56
170 11 56
171 11 56
171 11 56
172 11 56
172 11 56
172 10 56
173 10 56
173 10 56
173 10 56
174 10 56
174 10 56
174 10 56
175 9 56
175 9 56
175 9 56
176 9 56
176 9 56
177 9 56
177 9 56
177 8 56
178 8 56
178 8 56
178 8 56
179 8 56
179 8 56
179 8 56
180 7 56
180 7 56
180 7 56
181 7 56
181 7 56
182 7 56
182 7 56
182 7 56
183 6 56
183 6 56
183 6 56
184 6 56
184 6 56
184 6 56
185 6 56
185 5 56
185 5 56
186 5 56
186 5 56
186 5 56
187 5 56
187 5 56
188 4 56
188 4 56
188 4 56
189 4 56
189 4 56
189 4 56
190 4 56
190 3 56
190 3 56
191 3 56
191 3 56
191 3 56
192 3 56
192 3 56
193 2 56
193 2 56
193 2 56
194 2 56
194 2 56
194 2 56
195 2 56
195 1 56
195 1 56
196 1 56
196 1 56
196 1 56
197 1 56
197 1 56
198 0 56
198 0 56
198 0 56
199 0 56
55 55 55
55 55 55
56 55 55
56 55 55
57 55 55
57 54 55
57 54 55
58 54 55
58 54 55
58 54 55
59 54 55
59 54 55
59 53 55
60 53 55
60 53 55
61 53 55
61 53 55
61 53 55
62 53 55
62 52 55
62 52 55
63 52 55
63 52 55
63 52 55
64 52 55
64 52 55
65 52 55
65 51 55
65 51 55
66 51 55
66 51 55
66 51 55
67 51 55
67 51 55
67 50 55
68 50 55
68 50 55
69 50 55
69 50 55
69 50 55
70 50 55
70 49 55
70 49 55
71 49 55
71 49 55
71 49 55
72 49 55
72 49 55
73 48 55
73 48 55
73 48 55
74 48 55
74 48 55
74 48 55
75 48 55
75 48 55
75 47 55
76 47 55
76 47 55
77 47 55
77 47 55
77 47 55
78 47 55
78 46 55
78 46 55
79 46 55
79 46 55
79 46 55
80 46 55
80 46 55
81 45 55
81 45 55
81 45 55
82 45 55
82 45 55
82 45 55
83 45 55
83 44 55
83 44 55
84 44 55
84 44 55
84 44 55
85 44 55
85 44 55
86 44 55
86 43 55
86 43 55
87 43 55
87 43 55
87 43 55
88 43 55
88 43 55
88 42 55
89 42 55
89 42 55
90 42 55
90 42 55
90 42 55
91 42 55
91 41 55
91 41 55
92 41 55
92 41 55
92 41 55
93 41 55
93 41 55
94 40 55
94 40 55
94 40 55
95 40 55
95 40 55
95 40 55
96 40 55
96 39 55
96 39 55
97 39 55
97 39 55
98 39 55
98 39 55
98 39 55
99 39 55
99 38 55
99 38 55
100 38 55
100 38 55
100 38 55
101 38 55
101 38 55
102 37 55
102 37 55
102 37 55
103 37 55
103 37 55
103 37 55
104 37 55
104 36 55
104 36 55
105 36 55
105 36 55
106 36 55
106 36 55
106 36 55
107 35 55
107 35 55
107 35 55
108 35 55
108 35 55
108 35 55
109 35 55
109 35 55
110 34 55
110 34 55
110 34 55
111 34 55
111 34 55
111 34 55
112 34 55
112 33 55
112 33 55
113 33 55
113 33 55
114 33 55
114 33 55
114 33 55
115 32 55
115 32 55
115 32 55
116 32 55
116 32 55
116 32 55
117 32 55
117 31 55
118 31 55
118 31 55
118 31 55
119 31 55
119 31 55
119 31 55
120 31 55
120 30 55
120 30 55
121 30 55
121 30 55
122 30 55
122 30 55
122 30 55
123 29 55
123 29 55
123 29 55
124 29 55
124 29 55
124 29 55
125 29 55
125 28 55
126 28 55
126 28 55
126 28 55
127 28 55
127 28 55
127 28 55
128 27 55
128 27 55
128 27 55
129 27 55
129 27 55
129 27 55
130 27 55
130 27 55
131 26 55
131 26 55
131 26 55
132 26 55
132 26 55
132 26 55
133 26 55
133 25 55
133 25 55
134 25 55
134 25 55
135 25 55
135 25 55
135 25 55
136 24 55
136 24 55
136 24 55
137 24 55
137 24 55
137 24 55
138 24 55
138 23 55
139 23 55
139 23 55
139 23 55
140 23 55
140 23 55
140 23 55
141 23 55
141 22 55
141 22 55
142 22 55
142 22 55
143 22 55
143 22 55
143 22 55
144 21 55
144 21 55
144 21 55
145 21 55
145 21 55
145 21 55
146 21 55
146 20 55
147 20 55
147 20 55
147 20 55
148 20 55
148 20 55
148 20 55
149 19 55
149 19 55
149 19 55
150 19 55
150 19 55
151 19 55
151 19 55
151 19 55
152 18 55
152 18 55
152 18 55
153 18 55
153 18 55
153 18 55
154 18 55
154 17 55
155 17 55
155 17 55
155 17 55
156 17 55
156 17 55
156 17 55
157 16 55
157 16 55
157 16 55
158 16 55
158 16 55
159 16 55
159 16 55
159 15 55
160 15 55
160 15 55
160 15 55
161 15 55
161 15 55
161 15 55
162 15 55
162 14 55
163 14 55
163 14 55
163 14 55
164 14 55
164 14 55
164 14 55
165 13 55
165 13 55
165 13 55
166 13 55
166 13 55
167 13 55
167 13 55
167 12 55
168 12 55
168 12 55
168 12 55
169 12 55
169 12 55
169 12 55
170 11 55
170 11 55
171 11 55
171 11 55
171 11 55
172 11 55
172 11 55
172 10 55
173 10 55
173 10 55
173 10 55
174 10 55
174 10 55
174 10 55
175 10 55
175 9 55
176 9 55
176 9 55
176 9 55
177 9 55
177 9 55
177 9 55
178 8 55
178 8 55
178 8 55
179 8 55
179 8 55
180 8 55
180 8 55
180 7 55
181 7 55
181 7 55
181 7 55
182 7 55
182 7 55
182 7 55
183 6 55
183 6 55
184 6 55
184 6 55
184 6 55
185 6 55
185 6 55
185 6 55
186 5 55
186 5 55
186 5 55
187 5 55
187 5 55
188 5 55
188 5 55
188 4 55
189 4 55
189 4 55
189 4 55
190 4 55
190 4 55
190 4 55
191 3 55
191 3 55
192 3 55
192 3 55
192 3 55
193 3 55
193 3 55
193 2 55
194 2 55
194 2 55
194 2 55
195 2 55
195 2 55
196 2 55
196 2 55
196 1 55
197 1 55
197 1 55
197 1 55
198 1 55
198 1 55
198 1 55
199 0 55
199 0 55
200 0 55
200 0 55
54 54 54
54 54 54
55 54 54
55 53 54
55 53 54
56 53 54
56 53 54
56 53 54
57 53 54
57 53 54
58 52 54
58 52 54
58 52 54
59 52 54
59 52 54
59 52 54
60 52 54
60 52 54
60 51 54
61 51 54
61 51 54
62 51 54
62 51 54
62 51 54
63 51 54
63 50 54
63 50 54
64 50 54
64 50 54
65 50 54
65 50 54
65 50 54
66 50 54
66 49 54
66 49 54
67 49 54
67 49 54
67 49 54
68 49 54
68 49 54
69 48 54
69 48 54
69 48 54
70 48 54
70 48 54
70 48 54
71 48 54
71 47 54
72 47 54
72 47 54
72 47 54
73 47 54
73 47 54
73 47 54
74 47 54
74 46 54
75 46 54
75 46 54
75 46 54
76 46 54
76 46 54
76 46 54
77 45 54
77 45 54
77 45 54
78 45 54
78 45 54
79 45 54
79 45 54
79 45 54
80 44 54
80 44 54
80 44 54
81 44 54
81 44 54
82 44 54
82 44 54
82 43 54
83 43 54
83 43 54
83 43 54
84 43 54
84 43 54
84 43 54
85 42 54
85 42 54
86 42 54
86 42 54
86 42 54
87 42 54
87 42 54
87 42 54
88 41 54
88 41 54
89 41 54
89 41 54
89 41 54
90 41 54
90 41 54
90 40 54
91 40 54
91 40 54
91 40 54
92 40 54
92 40 54
93 40 54
93 40 54
93 39 54
94 39 54
94 39 54
94 39 54
95 39 54
95 39 54
96 39 54
96 38 54
96 38 54
97 38 54
97 38 54
97 38 54
98 38 54
98 38 54
99 37 54
99 37 54
99 37 54
100 37 54
100 37 54
100 37 54
101 37 54
101 37 54
101 36 54
102 36 54
102 36 54
103 36 54
103 36 54
103 36 54
104 36 54
104 35 54
104 35 54
105 35 54
105 35 54
106 35 54
106 35 54
106 35 54
107 35 54
107 34 54
107 34 54
108 34 54
108 34 54
108 34 54
109 34 54
109 34 54
110 33 54
110 33 54
110 33 54
111 33 54
111 33 54
111 33 54
112 33 54
112 33 54
113 32 54
113 32 54
113 32 54
114 32 54
114 32 54
114 32 54
115 32 54
115 31 54
115 31 54
116 31 54
116 31 54
117 31 54
117 31 54
117 31 54
118 30 54
118 30 54
118 30 54
119 30 54
119 30 54
120 30 54
120 30 54
120 30 54
121 29 54
121 29 54
121 29 54
122 29 54
122 29 54
123 29 54
123 29 54
123 28 54
124 28 54
124 28 54
124 28 54
125 28 54
125 28 54
125 28 54
126 28 54
126 27 54
127 27 54
127 27 54
127 27 54
128 27 54
128 27 54
128 27 54
129 26 54
129 26 54
130 26 54
130 26 54
130 26 54
131 26 54
131 26 54
131 25 54
132 25 54
132 25 54
132 25 54
133 25 54
133 25 54
134 25 54
134 25 54
134 24 54
135 24 54
135 24 54
135 24 54
136 24 54
136 24 54
137 24 54
137 23 54
137 23 54
138 23 54
138 23 54
138 23 54
139 23 54
139 23 54
140 23 54
140 22 54
140 22 54
141 22 54
141 22 54
141 22 54
142 22 54
142 22 54
142 21 54
143 21 54
143 21 54
144 21 54
144 21 54
144 21 54
145 21 54
145 21 54
145 20 54
146 20 54
146 20 54
147 20 54
147 20 54
147 20 54
148 20 54
148 19 54
148 19 54
149 19 54
149 19 54
149 19 54
150 19 54
150 19 54
151 18 54
151 18 54
151 18 54
152 18 54
152 18 54
152 18 54
153 18 54
153 18 54
154 17 54
154 17 54
154 17 54
155 17 54
155 17 54
155 17 54
156 17 54
156 16 54
156 16 54
157 16 54
157 16 54
158 16 54
158 16 54
158 16 54
159 16 54
159 15 54
159 15 54
160 15 54
160 15 54
161 15 54
161 15 54
161 15 54
162 14 54
162 14 54
162 14 54
163 14 54
163 14 54
164 14 54
164 14 54
164 13 54
165 13 54
165 13 54
165 13 54
166 13 54
166 13 54
166 13 54
167 13 54
167 12 54
168 12 54
168 12 54
168 12 54
169 12 54
169 12 54
169 12 54
170 11 54
170 11 54
171 11 54
171 11 54
171 11 54
172 11 54
172 11 54
172 11 54
173 10 54
173 10 54
173 10 54
174 10 54
174 10 54
175 10 54
175 10 54
175 9 54
176 9 54
176 9 54
176 9 54
177 9 54
177 9 54
178 9 54
178 8 54
178 8 54
179 8 54
179 8 54
179 8 54
180 8 54
180 8 54
180 8 54
181 7 54
181 7 54
182 7 54
182 7 54
182 7 54
183 7 54
183 7 54
183 6 54
184 6 54
184 6 54
185 6 54
185 6 54
185 6 54
186 6 54
186 6 54
186 5 54
187 5 54
187 5 54
188 5 54
188 5 54
188 5 54
189 5 54
189 4 54
189 4 54
190 4 54
190 4 54
190 4 54
191 4 54
191 4 54
192 4 54
192 3 54
192 3 54
193 3 54
193 3 54
193 3 54
194 3 54
194 3 54
195 2 54
195 2 54
195 2 54
196 2 54
196 2 54
196 2 54
197 2 54
197 1 54
197 1 54
198 1 54
198 1 54
199 1 54
199 1 54
199 1 54
200 1 54
200 0 54
200 0 54
201 0 54
201 0 54
53 53 53
53 52 53
53 52 53
54 52 53
54 52 53
54 52 53
55 52 53
55 52 53
56 51 53
56 51 53
56 51 53
57 51 53
57 51 53
57 51 53
58 51 53
58 51 53
59 50 53
59 50 53
59 50 53
60 50 53
60 50 53
60 50 53
61 50 53
61 50 53
62 49 53
62 49 53
62 49 53
63 49 53
63 49 53
63 49 53
64 49 53
64 48 53
65 48 53
65 48 53
65 48 53
66 48 53
66 48 53
66 48 53
67 48 53
67 47 53
68 47 53
68 47 53
68 47 53
69 47 53
69 47 53
69 47 53
70 46 53
70 46 53
71 46 53
71 46 53
71 46 53
72 46 53
72 46 53
72 46 53
73 45 53
73 45 53
74 45 53
74 45 53
74 45 53
75 45 53
75 45 53
75 45 53
76 44 53
76 44 53
77 44 53
77 44 53
77 44 53
78 44 53
78 44 53
78 43 53
79 43 53
79 43 53
80 43 53
80 43 53
80 43 53
81 43 53
81 43 53
81 42 53
82 42 53
82 42 53
83 42 53
83 42 53
83 42 53
84 42 53
84 41 53
84 41 53
85 41 53
85 41 53
86 41 53
86 41 53
86 41 53
87 41 53
87 40 53
87 40 53
88 40 53
88 40 53
89 40 53
89 40 53
89 40 53
90 40 53
90 39 53
90 39 53
91 39 53
91 39 53
92 39 53
92 39 53
92 39 53
93 38 53
93 38 53
93 38 53
94 38 53
94 38 53
95 38 53
95 38 53
95 38 53
96 37 53
96 37 53
97 37 53
97 37 53
97 37 53
98 37 53
98 37 53
98 36 53
99 36 53
99 36 53
100 36 53
100 36 53
100 36 53
101 36 53
101 36 53
101 35 53
102 35 53
102 35 53
103 35 53
103 35 53
103 35 53
104 35 53
104 34 53
104 34 53
105 34 53
105 34 53
106 34 53
106 34 53
106 34 53
107 34 53
107 33 53
107 33 53
108 33 53
108 33 53
109 33 53
109 33 53
109 33 53
110 33 53
110 32 53
110 32 53
111 32 53
111 32 53
112 32 53
112 32 53
112 32 53
113 31 53
113 31 53
113 31 53
114 31 53
114 31 53
115 31 53
115 31 53
115 31 53
116 30 53
116 30 53
116 30 53
117 30 53
117 30 53
118 30 53
118 30 53
118 29 53
119 29 53
119 29 53
119 29 53
120 29 53
120 29 53
121 29 53
121 29 53
121 28 53
122 28 53
122 28 53
122 28 53
123 28 53
123 28 53
124 28 53
124 28 53
124 27 53
125 27 53
125 27 53
125 27 53
126 27 53
126 27 53
127 27 53
127 26 53
127 26 53
128 26 53
128 26 53
128 26 53
129 26 53
129 26 53
130 26 53
130 25 53
130 25 53
131 25 53
131 25 53
131 25 53
132 25 53
132 25 53
133 24 53
133 24 53
133 24 53
134 24 53
134 24 53
134 24 53
135 24 53
135 24 53
136 23 53
136 23 53
136 23 53
137 23 53
137 23 53
137 23 53
138 23 53
138 23 53
139 22 53
139 22 53
139 22 53
140 22 53
140 22 53
140 22 53
141 22 53
141 21 53
142 21 53
142 21 53
142 21 53
143 21 53
143 21 53
143 21 53
144 21 53
144 20 53
145 20 53
145 20 53
145 20 53
146 20 53
146 20 53
146 20 53
147 19 53
147 19 53
148 19 53
148 19 53
148 19 53
149 19 53
149 19 53
149 19 53
150 18 53
150 18 53
151 18 53
151 18 53
151 18 53
152 18 53
152 18 53
152 18 53
153 17 53
153 17 53
154 17 53
154 17 53
154 17 53
155 17 53
155 17 53
155 16 53
156 16 53
156 16 53
157 16 53
157 16 53
157 16 53
158 16 53
158 16 53
158 15 53
159 15 53
159 15 53
160 15 53
160 15 53
160 15 53
161 15 53
161 14 53
162 14 53
162 14 53
162 14 53
163 14 53
163 14 53
163 14 53
164 14 53
164 13 53
165 13 53
165 13 53
165 13 53
166 13 53
166 13 53
166 13 53
167 13 53
167 12 53
168 12 53
168 12 53
168 12 53
169 12 53
169 12 53
169 12 53
170 11 53
170 11 53
171 11 53
171 11 53
171 11 53
172 11 53
172 11 53
172 11 53
173 10 53
173 10 53
174 10 53
174 10 53
174 10 53
175 10 53
175 10 53
175 9 53
176 9 53
176 9 53
177 9 53
177 9 53
177 9 53
178 9 53
178 9 53
178 8 53
179 8 53
179 8 53
180 8 53
180 8 53
180 8 53
181 8 53
181 8 53
181 7 53
182 7 53
182 7 53
183 7 53
183 7 53
183 7 53
184 7 53
184 6 53
184 6 53
185 6 53
185 6 53
186 6 53
186 6 53
186 6 53
187 6 53
187 5 53
187 5 53
188 5 53
188 5 53
189 5 53
189 5 53
189 5 53
190 4 53
190 4 53
190 4 53
191 4 53
191 4 53
192 4 53
192 4 53
192 4 53
193 3 53
193 3 53
193 3 53
194 3 53
194 3 53
195 3 53
195 3 53
195 3 53
196 2 53
196 2 53
196 2 53
197 2 53
197 2 53
198 2 53
198 2 53
198 1 53
199 1 53
199 1 53
199 1 53
200 1 53
200 1 53
201 1 53
201 1 53
201 0 53
202 0 53
202 0 53
202 0 53
51 51 51
52 51 51
52 51 51
52 51 51
53 51 51
53 51 51
54 50 51
54 50 51
54 50 51
55 50 51
55 50 51
55 50 51
56 50 51
56 50 51
57 49 51
57 49 51
57 49 51
58 49 51
58 49 51
59 49 51
59 49 51
59 49 51
60 48 51
60 48 51
60 48 51
61 48 51
61 48 51
62 48 51
62 48 51
62 48 51
63 47 51
63 47 51
63 47 51
64 47 51
64 47 51
65 47 51
65 47 51
65 47 51
66 46 51
66 46 51
67 46 51
67 46 51
67 46 51
68 46 51
68 46 51
68 45 51
69 45 51
69 45 51
70 45 51
70 45 51
70 45 51
71 45 51
71 45 51
72 44 51
72 44 51
72 44 51
73 44 51
73 44 51
73 44 51
74 44 51
74 44 51
75 43 51
75 43 51
75 43 51
76 43 51
76 43 51
76 43 51
77 43 51
77 43 51
78 42 51
78 42 51
78 42 51
79 42 51
79 42 51
80 42 51
80 42 51
80 41 51
81 41 51
81 41 51
81 41 51
82 41 51
82 41 51
83 41 51
83 41 51
83 40 51
84 40 51
84 40 51
85 40 51
85 40 51
85 40 51
86 40 51
86 40 51
86 39 51
87 39 51
87 39 51
88 39 51
88 39 51
88 39 51
89 39 51
89 39 51
89 38 51
90 38 51
90 38 51
91 38 51
91 38 51
91 38 51
92 38 51
92 38 51
93 37 51
93 37 51
93 37 51
94 37 51
94 37 51
94 37 51
95 37 51
95 36 51
96 36 51
96 36 51
96 36 51
97 36 51
97 36 51
97 36 51
98 36 51
98 35 51
99 35 51
99 35 51
99 35 51
100 35 51
100 35 51
101 35 51
101 35 51
101 34 51
102 34 51
102 34 51
102 34 51
103 34 51
103 34 51
104 34 51
104 34 51
104 33 51
105 33 51
105 33 51
106 33 51
106 33 51
106 33 51
107 33 51
107 33 51
107 32 51
108 32 51
108 32 51
109 32 51
109 32 51
109 32 51
110 32 51
110 31 51
110 31 51
111 31 51
111 31 51
112 31 51
112 31 51
112 31 51
113 31 51
113 30 51
114 30 51
114 30 51
114 30 51
115 30 51
115 30 51
115 30 51
116 30 51
116 29 51
117 29 51
117 29 51
117 29 51
118 29 51
118 29 51
119 29 51
119 29 51
119 28 51
120 28 51
120 28 51
120 28 51
121 28 51
121 28 51
122 28 51
122 27 51
122 27 51
123 27 51
123 27 51
123 27 51
124 27 51
124 27 51
125 27 51
125 26 51
125 26 51
126 26 51
126 26 51
127 26 51
127 26 51
127 26 51
128 26 51
128 25 51
128 25 51
129 25 51
129 25 51
130 25 51
130 25 51
130 25 51
131 25 51
131 24 51
132 24 51
132 24 51
132 24 51
133 24 51
133 24 51
133 24 51
134 24 51
134 23 51
135 23 51
135 23 51
135 23 51
136 23 51
136 23 51
136 23 51
137 22 51
137 22 51
138 22 51
138 22 51
138 22 51
139 22 51
139 22 51
140 22 51
140 21 51
140 21 51
141 21 51
141 21 51
141 21 51
142 21 51
142 21 51
143 21 51
143 20 51
143 20 51
144 20 51
144 20 51
145 20 51
145 20 51
145 20 51
146 20 51
146 19 51
146 19 51
147 19 51
147 19 51
148 19 51
148 19 51
148 19 51
149 18 51
149 18 51
149 18 51
150 18 51
150 18 51
151 18 51
151 18 51
151 18 51
152 17 51
152 17 51
153 17 51
153 17 51
153 17 51
154 17 51
154 17 51
154 17 51
155 16 51
155 16 51
156 16 51
156 16 51
156 16 51
157 16 51
157 16 51
158 16 51
158 15 51
158 15 51
159 15 51
159 15 51
159 15 51
160 15 51
160 15 51
161 15 51
161 14 51
161 14 51
162 14 51
162 14 51
162 14 51
163 14 51
163 14 51
164 13 51
164 13 51
164 13 51
165 13 51
165 13 51
166 13 51
166 13 51
166 13 51
167 12 51
167 12 51
167 12 51
168 12 51
168 12 51
169 12 51
169 12 51
169 12 51
170 11 51
170 11 51
170 11 51
171 11 51
171 11 51
172 11 51
172 11 51
172 11 51
173 10 51
173 10 51
174 10 51
174 10 51
174 10 51
175 10 51
175 10 51
175 10 51
176 9 51
176 9 51
177 9 51
177 9 51
177 9 51
178 9 51
178 9 51
179 8 51
179 8 51
179 8 51
180 8 51
180 8 51
180 8 51
181 8 51
181 8 51
182 7 51
182 7 51
182 7 51
183 7 51
183 7 51
183 7 51
184 7 51
184 7 51
185 6 51
185 6 51
185 6 51
186 6 51
186 6 51
187 6 51
187 6 51
187 6 51
188 5 51
188 5 51
188 5 51
189 5 51
189 5 51
190 5 51
190 5 51
190 4 51
191 4 51
191 4 51
192 4 51
192 4 51
192 4 51
193 4 51
193 4 51
193 3 51
194 3 51
194 3 51
195 3 51
195 3 51
195 3 51
196 3 51
196 3 51
196 2 51
197 2 51
197 2 51
198 2 51
198 2 51
198 2 51
199 2 51
199 2 51
200 1 51
200 1 51
200 1 51
201 1 51
201 1 51
201 1 51
202 1 51
202 1 51
203 0 51
203 0 51
203 0 51
204 0 51
50 50 50
50 50 50
51 50 50
51 50 50
52 49 50
52 49 50
52 49 50
53 49 50
53 49 50
53 49 50
54 49 50
54 49 50
55 48 50
55 48 50
55 48 50
56 48 50
56 48 50
57 48 50
57 48 50
57 48 50
58 47 50
58 47 50
59 47 50
59 47 50
59 47 50
60 47 50
60 47 50
60 47 50
61 46 50
61 46 50
62 46 50
62 46 50
62 46 50
63 46 50
63 46 50
64 46 50
64 45 50
64 45 50
65 45 50
65 45 50
66 45 50
66 45 50
66 45 50
67 45 50
67 44 50
67 44 50
68 44 50
68 44 50
69 44 50
69 44 50
69 44 50
70 44 50
70 43 50
71 43 50
71 43 50
71 43 50
72 43 50
72 43 50
73 43 50
73 43 50
73 42 50
74 42 50
74 42 50
74 42 50
75 42 50
75 42 50
76 42 50
76 42 50
76 41 50
77 41 50
77 41 50
78 41 50
78 41 50
78 41 50
79 41 50
79 41 50
80 40 50
80 40 50
80 40 50
81 40 50
81 40 50
81 40 50
82 40 50
82 40 50
83 39 50
83 39 50
83 39 50
84 39 50
84 39 50
85 39 50
85 39 50
85 39 50
86 38 50
86 38 50
87 38 50
87 38 50
87 38 50
88 38 50
88 38 50
88 38 50
89 37 50
89 37 50
90 37 50
90 37 50
90 37 50
91 37 50
91 37 50
92 37 50
92 36 50
92 36 50
93 36 50
93 36 50
93 36 50
94 36 50
94 36 50
95 36 50
95 35 50
95 35 50
96 35 50
96 35 50
97 35 50
97 35 50
97 35 50
98 35 50
98 34 50
99 34 50
99 34 50
99 34 50
100 34 50
100 34 50
100 34 50
101 34 50
101 33 50
102 33 50
102 33 50
102 33 50
103 33 50
103 33 50
104 33 50
104 33 50
104 32 50
105 32 50
105 32 50
106 32 50
106 32 50
106 32 50
107 32 50
107 32 50
107 31 50
108 31 50
108 31 50
109 31 50
109 31 50
109 31 50
110 31 50
110 31 50
111 30 50
111 30 50
111 30 50
112 30 50
112 30 50
113 30 50
113 30 50
113 30 50
114 29 50
114 29 50
114 29 50
115 29 50
115 29 50
116 29 50
116 29 50
116 29 50
117 28 50
117 28 50
118 28 50
118 28 50
118 28 50
119 28 50
119 28 50
120 28 50
120 27 50
120 27 50
121 27 50
121 27 50
121 27 50
122 27 50
122 27 50
123 27 50
123 26 50
123 26 50
124 26 50
124 26 50
125 26 50
125 26 50
125 26 50
126 26 50
126 25 50
127 25 50
127 25 50
127 25 50
128 25 50
128 25 50
128 25 50
129 25 50
129 24 50
130 24 50
130 24 50
130 24 50
131 24 50
131 24 50
132 24 50
132 24 50
132 23 50
133 23 50
133 23 50
134 23 50
134 23 50
134 23 50
135 23 50
135 23 50
135 22 50
136 22 50
136 22 50
137 22 50
137 22 50
137 22 50
138 22 50
138 22 50
139 21 50
139 21 50
139 21 50
140 21 50
140 21 50
141 21 50
141 21 50
141 21 50
142 20 50
142 20 50
142 20 50
143 20 50
143 20 50
144 20 50
144 20 50
144 20 50
145 19 50
145 19 50
146 19 50
146 19 50
146 19 50
147 19 50
147 19 50
148 19 50
148 18 50
148 18 50
149 18 50
149 18 50
149 18 50
150 18 50
150 18 50
151 18 50
151 17 50
151 17 50
152 17 50
152 17 50
153 17 50
153 17 50
153 17 50
154 17 50
154 16 50
155 16 50
155 16 50
155 16 50
156 16 50
156 16 50
156 16 50
157 16 50
157 15 50
158 15 50
158 15 50
158 15 50
159 15 50
159 15 50
160 15 50
160 15 50
160 14 50
161 14 50
161 14 50
162 14 50
162 14 50
162 14 50
163 14 50
163 14 50
163 13 50
164 13 50
164 13 50
165 13 50
165 13 50
165 13 50
166 13 50
166 13 50
167 12 50
167 12 50
167 12 50
168 12 50
168 12 50
168 12 50
169 12 50
169 12 50
170 11 50
170 11 50
170 11 50
171 11 50
171 11 50
172 11 50
172 11 50
172 11 50
173 10 50
173 10 50
174 10 50
174 10 50
174 10 50
175 10 50
175 10 50
175 10 50
176 9 50
176 9 50
177 9 50
177 9 50
177 9 50
178 9 50
178 9 50
179 9 50
179 8 50
179 8 50
180 8 50
180 8 50
181 8 50
181 8 50
181 8 50
182 8 50
182 7 50
182 7 50
183 7 50
183 7 50
184 7 50
184 7 50
184 7 50
185 7 50
185 6 50
186 6 50
186 6 50
186 6 50
187 6 50
187 6 50
188 6 50
188 6 50
188 5 50
189 5 50
189 5 50
189 5 50
190 5 50
190 5 50
191 5 50
191 5 50
191 4 50
192 4 50
192 4 50
193 4 50
193 4 50
193 4 50
194 4 50
194 4 50
195 3 50
195 3 50
195 3 50
196 3 50
196 3 50
196 3 50
197 3 50
197 3 50
198 2 50
198 2 50
198 2 50
199 2 50
199 2 50
200 2 50
200 2 50
200 2 50
201 1 50
201 1 50
202 1 50
202 1 50
202 1 50
203 1 50
203 1 50
203 1 50
204 0 50
204 0 50
205 0 50
205 0 50
49 49 49
49 49 49
49 48 49
50 48 49
50 48 49
51 48 49
51 48 49
51 48 49
52 48 49
52 48 49
53 47 49
53 47 49
53 47 49
54 47 49
54 47 49
55 47 49
55 47 49
55 47 49
56 46 49
56 46 49
57 46 49
57 46 49
57 46 49
58 46 49
58 46 49
59 46 49
59 46 49
59 45 49
60 45 49
60 45 49
61 45 49
61 45 49
61 45 49
62 45 49
62 45 49
63 44 49
63 44 49
63 44 49
64 44 49
64 44 49
64 44 49
65 44 49
65 44 49
66 43 49
66 43 49
66 43 49
67 43 49
67 43 49
68 43 49
68 43 49
68 43 49
69 42 49
69 42 49
70 42 49
70 42 49
70 42 49
71 42 49
71 42 49
72 42 49
72 41 49
72 41 49
73 41 49
73 41 49
74 41 49
74 41 49
74 41 49
75 41 49
75 41 49
76 40 49
76 40 49
76 40 49
77 40 49
77 40 49
78 40 49
78 40 49
78 40 49
79 39 49
79 39 49
80 39 49
80 39 49
80 39 49
81 39 49
81 39 49
81 39 49
82 38 49
82 38 49
83 38 49
83 38 49
83 38 49
84 38 49
84 38 49
85 38 49
85 37 49
85 37 49
86 37 49
86 37 49
87 37 49
87 37 49
87 37 49
88 37 49
88 36 49
89 36 49
89 36 49
89 36 49
90 36 49
90 36 49
91 36 49
91 36 49
91 36 49
92 35 49
92 35 49
93 35 49
93 35 49
93 35 49
94 35 49
94 35 49
95 35 49
95 34 49
95 34 49
96 34 49
96 34 49
96 34 49
97 34 49
97 34 49
98 34 49
98 33 49
98 33 49
99 33 49
99 33 49
100 33 49
100 33 49
100 33 49
101 33 49
101 32 49
102 32 49
102 32 49
102 32 49
103 32 49
103 32 49
104 32 49
104 32 49
104 31 49
105 31 49
105 31 49
106 31 49
106 31 49
106 31 49
107 31 49
107 31 49
108 31 49
108 30 49
108 30 49
109 30 49
109 30 49
110 30 49
110 30 49
110 30 49
111 30 49
111 29 49
112 29 49
112 29 49
112 29 49
113 29 49
113 29 49
113 29 49
114 29 49
114 28 49
115 28 49
115 28 49
115 28 49
116 28 49
116 28 49
117 28 49
117 28 49
117 27 49
118 27 49
118 27 49
119 27 49
119 27 49
119 27 49
120 27 49
120 27 49
121 26 49
121 26 49
121 26 49
122 26 49
122 26 49
123 26 49
123 26 49
123 26 49
124 26 49
124 25 49
125 25 49
125 25 49
125 25 49
126 25 49
126 25 49
127 25 49
127 25 49
127 24 49
128 24 49
128 24 49
128 24 49
129 24 49
129 24 49
130 24 49
130 24 49
130 23 49
131 23 49
131 23 49
132 23 49
132 23 49
132 23 49
133 23 49
133 23 49
134 22 49
134 22 49
134 22 49
135 22 49
135 22 49
136 22 49
136 22 49
136 22 49
137 21 49
137 21 49
138 21 49
138 21 49
138 21 49
139 21 49
139 21 49
140 21 49
140 21 49
140 20 49
141 20 49
141 20 49
142 20 49
142 20 49
142 20 49
143 20 49
143 20 49
143 19 49
144 19 49
144 19 49
145 19 49
145 19 49
145 19 49
146 19 49
146 19 49
147 18 49
147 18 49
147 18 49
148 18 49
148 18 49
149 18 49
149 18 49
149 18 49
150 17 49
150 17 49
151 17 49
151 17 49
151 17 49
152 17 49
152 17 49
153 17 49
153 16 49
153 16 49
154 16 49
154 16 49
155 16 49
155 16 49
155 16 49
156 16 49
156 15 49
157 15 49
157 15 49
157 15 49
158 15 49
158 15 49
159 15 49
159 15 49
159 15 49
160 14 49
160 14 49
160 14 49
161 14 49
161 14 49
162 14 49
162 14 49
162 14 49
163 13 49
163 13 49
164 13 49
164 13 49
164 13 49
165 13 49
165 13 49
166 13 49
166 12 49
166 12 49
167 12 49
167 12 49
168 12 49
168 12 49
168 12 49
169 12 49
169 11 49
170 11 49
170 11 49
170 11 49
171 11 49
171 11 49
172 11 49
172 11 49
172 10 49
173 10 49
173 10 49
174 10 49
174 10 49
174 10 49
175 10 49
175 10 49
175 10 49
176 9 49
176 9 49
177 9 49
177 9 49
177 9 49
178 9 49
178 9 49
179 9 49
179 8 49
179 8 49
180 8 49
180 8 49
181 8 49
181 8 49
181 8 49
182 8 49
182 7 49
183 7 49
183 7 49
183 7 49
184 7 49
184 7 49
185 7 49
185 7 49
185 6 49
186 6 49
186 6 49
187 6 49
187 6 49
187 6 49
188 6 49
188 6 49
189 5 49
189 5 49
189 5 49
190 5 49
190 5 49
191 5 49
191 5 49
191 5 49
192 5 49
192 4 49
192 4 49
193 4 49
193 4 49
194 4 49
194 4 49
194 4 49
195 4 49
195 3 49
196 3 49
196 3 49
196 3 49
197 3 49
197 3 49
198 3 49
198 3 49
198 2 49
199 2 49
199 2 49
200 2 49
200 2 49
200 2 49
201 2 49
201 2 49
202 1 49
202 1 49
202 1 49
203 1 49
203 1 49
204 1 49
204 1 49
204 1 49
205 0 49
205 0 49
206 0 49
206 0 49
206 0 49
47 47 47
48 47 47
48 47 47
49 47 47
49 47 47
49 47 47
50 47 47
50 47 47
51 46 47
51 46 47
51 46 47
52 46 47
52 46 47
53 46 47
53 46 47
53 46 47
54 46 47
54 45 47
55 45 47
55 45 47
55 45 47
56 45 47
56 45 47
57 45 47
57 45 47
57 44 47
58 44 47
58 44 47
59 44 47
59 44 47
59 44 47
60 44 47
60 44 47
61 43 47
61 43 47
61 43 47
62 43 47
62 43 47
63 43 47
63 43 47
63 43 47
64 43 47
64 42 47
65 42 47
65 42 47
65 42 47
66 42 47
66 42 47
67 42 47
67 42 47
67 41 47
68 41 47
68 41 47
69 41 47
69 41 47
69 41 47
70 41 47
70 41 47
71 41 47
71 40 47
71 40 47
72 40 47
72 40 47
73 40 47
73 40 47
74 40 47
74 40 47
74 39 47
75 39 47
75 39 47
76 39 47
76 39 47
76 39 47
77 39 47
77 39 47
78 39 47
78 38 47
78 38 47
79 38 47
79 38 47
80 38 47
80 38 47
80 38 47
81 38 47
81 37 47
82 37 47
82 37 47
82 37 47
83 37 47
83 37 47
84 37 47
84 37 47
84 36 47
85 36 47
85 36 47
86 36 47
86 36 47
86 36 47
87 36 47
87 36 47
88 36 47
88 35 47
88 35 47
89 35 47
89 35 47
90 35 47
90 35 47
90 35 47
91 35 47
91 34 47
92 34 47
92 34 47
92 34 47
93 34 47
93 34 47
94 34 47
94 34 47
94 34 47
95 33 47
95 33 47
96 33 47
96 33 47
96 33 47
97 33 47
97 33 47
98 33 47
98 32 47
98 32 47
99 32 47
99 32 47
100 32 47
100 32 47
100 32 47
101 32 47
101 31 47
102 31 47
102 31 47
102 31 47
103 31 47
103 31 47
104 31 47
104 31 47
104 31 47
105 30 47
105 30 47
106 30 47
106 30 47
106 30 47
107 30 47
107 30 47
108 30 47
108 29 47
108 29 47
109 29 47
109 29 47
110 29 47
110 29 47
110 29 47
111 29 47
111 29 47
112 28 47
112 28 47
112 28 47
113 28 47
113 28 47
114 28 47
114 28 47
114 28 47
115 27 47
115 27 47
116 27 47
116 27 47
116 27 47
117 27 47
117 27 47
118 27 47
118 26 47
118 26 47
119 26 47
119 26 47
120 26 47
120 26 47
120 26 47
121 26 47
121 26 47
122 25 47
122 25 47
122 25 47
123 25 47
123 25 47
124 25 47
124 25 47
124 25 47
125 24 47
125 24 47
126 24 47
126 24 47
126 24 47
127 24 47
127 24 47
128 24 47
128 24 47
129 23 47
129 23 47
129 23 47
130 23 47
130 23 47
131 23 47
131 23 47
131 23 47
132 22 47
132 22 47
133 22 47
133 22 47
133 22 47
134 22 47
134 22 47
135 22 47
135 22 47
135 21 47
136 21 47
136 21 47
137 21 47
137 21 47
137 21 47
138 21 47
138 21 47
139 20 47
139 20 47
139 20 47
140 20 47
140 20 47
141 20 47
141 20 47
141 20 47
142 19 47
142 19 47
143 19 47
143 19 47
143 19 47
144 19 47
144 19 47
145 19 47
145 19 47
145 18 47
146 18 47
146 18 47
147 18 47
147 18 47
147 18 47
148 18 47
148 18 47
149 17 47
149 17 47
149 17 47
150 17 47
150 17 47
151 17 47
151 17 47
151 17 47
152 17 47
152 16 47
153 16 47
153 16 47
153 16 47
154 16 47
154 16 47
155 16 47
155 16 47
155 15 47
156 15 47
156 15 47
157 15 47
157 15 47
157 15 47
158 15 47
158 15 47
159 14 47
159 14 47
159 14 47
160 14 47
160 14 47
161 14 47
161 14 47
161 14 47
162 14 47
162 13 47
163 13 47
163 13 47
163 13 47
164 13 47
164 13 47
165 13 47
165 13 47
165 12 47
166 12 47
166 12 47
167 12 47
167 12 47
167 12 47
168 12 47
168 12 47
169 12 47
169 11 47
169 11 47
170 11 47
170 11 47
171 11 47
171 11 47
171 11 47
172 11 47
172 10 47
173 10 47
173 10 47
173 10 47
174 10 47
174 10 47
175 10 47
175 10 47
175 10 47
176 9 47
176 9 47
177 9 47
177 9 47
177 9 47
178 9 47
178 9 47
179 9 47
179 8 47
179 8 47
180 8 47
180 8 47
181 8 47
181 8 47
181 8 47
182 8 47
182 7 47
183 7 47
183 7 47
184 7 47
184 7 47
184 7 47
185 7 47
185 7 47
186 7 47
186 6 47
186 6 47
187 6 47
187 6 47
188 6 47
188 6 47
188 6 47
189 6 47
189 5 47
190 5 47
190 5 47
190 5 47
191 5 47
191 5 47
192 5 47
192 5 47
192 5 47
193 4 47
193 4 47
194 4 47
194 4 47
194 4 47
195 4 47
195 4 47
196 4 47
196 3 47
196 3 47
197 3 47
197 3 47
198 3 47
198 3 47
198 3 47
199 3 47
199 2 47
200 2 47
200 2 47
200 2 47
201 2 47
201 2 47
202 2 47
202 2 47
202 2 47
203 1 47
203 1 47
204 1 47
204 1 47
204 1 47
205 1 47
205 1 47
206 1 47
206 0 47
206 0 47
207 0 47
207 0 47
208 0 47
46 46 46
47 46 46
47 46 46
47 46 46
48 46 46
48 46 46
49 45 46
49 45 46
49 45 46
50 45 46
50 45 46
51 45 46
51 45 46
51 45 46
52 45 46
52 44 46
53 44 46
53 44 46
53 44 46
54 44 46
54 44 46
55 44 46
55 44 46
56 43 46
56 43 46
56 43 46
57 43 46
57 43 46
58 43 46
58 43 46
58 43 46
59 43 46
59 42 46
60 42 46
60 42 46
60 42 46
61 42 46
61 42 46
62 42 46
62 42 46
62 42 46
63 41 46
63 41 46
64 41 46
64 41 46
64 41 46
65 41 46
65 41 46
66 41 46
66 40 46
67 40 46
67 40 46
67 40 46
68 40 46
68 40 46
69 40 46
69 40 46
69 40 46
70 39 46
70 39 46
71 39 46
71 39 46
71 39 46
72 39 46
72 39 46
73 39 46
73 39 46
73 38 46
74 38 46
74 38 46
75 38 46
75 38 46
75 38 46
76 38 46
76 38 46
77 37 46
77 37 46
78 37 46
78 37 46
78 37 46
79 37 46
79 37 46
80 37 46
80 37 46
80 36 46
81 36 46
81 36 46
82 36 46
82 36 46
82 36 46
83 36 46
83 36 46
84 35 46
84 35 46
84 35 46
85 35 46
85 35 46
86 35 46
86 35 46
87 35 46
87 35 46
87 34 46
88 34 46
88 34 46
89 34 46
89 34 46
89 34 46
90 34 46
90 34 46
91 34 46
91 33 46
91 33 46
92 33 46
92 33 46
93 33 46
93 33 46
93 33 46
94 33 46
94 32 46
95 32 46
95 32 46
95 32 46
96 32 46
96 32 46
97 32 46
97 32 46
98 32 46
98 31 46
98 31 46
99 31 46
99 31 46
100 31 46
100 31 46
100 31 46
101 31 46
101 31 46
102 30 46
102 30 46
102 30 46
103 30 46
103 30 46
104 30 46
104 30 46
104 30 46
105 29 46
105 29 46
106 29 46
106 29 46
106 29 46
107 29 46
107 29 46
108 29 46
108 29 46
109 28 46
109 28 46
109 28 46
110 28 46
110 28 46
111 28 46
111 28 46
111 28 46
112 28 46
112 27 46
113 27 46
113 27 46
113 27 46
114 27 46
114 27 46
115 27 46
115 27 46
115 26 46
116 26 46
116 26 46
117 26 46
117 26 46
118 26 46
118 26 46
118 26 46
119 26 46
119 25 46
120 25 46
120 25 46
120 25 46
121 25 46
121 25 46
122 25 46
122 25 46
122 25 46
123 24 46
123 24 46
124 24 46
124 24 46
124 24 46
125 24 46
125 24 46
126 24 46
126 23 46
126 23 46
127 23 46
127 23 46
128 23 46
128 23 46
129 23 46
129 23 46
129 23 46
130 22 46
130 22 46
131 22 46
131 22 46
131 22 46
132 22 46
132 22 46
133 22 46
133 22 46
133 21 46
134 21 46
134 21 46
135 21 46
135 21 46
135 21 46
136 21 46
136 21 46
137 20 46
137 20 46
137 20 46
138 20 46
138 20 46
139 20 46
139 20 46
140 20 46
140 20 46
140 19 46
141 19 46
141 19 46
142 19 46
142 19 46
142 19 46
143 19 46
143 19 46
144 18 46
144 18 46
144 18 46
145 18 46
145 18 46
146 18 46
146 18 46
146 18 46
147 18 46
147 17 46
148 17 46
148 17 46
149 17 46
149 17 46
149 17 46
150 17 46
150 17 46
151 17 46
151 16 46
151 16 46
152 16 46
152 16 46
153 16 46
153 16 46
153 16 46
154 16 46
154 15 46
155 15 46
155 15 46
155 15 46
156 15 46
156 15 46
157 15 46
157 15 46
157 15 46
158 14 46
158 14 46
159 14 46
159 14 46
160 14 46
160 14 46
160 14 46
161 14 46
161 14 46
162 13 46
162 13 46
162 13 46
163 13 46
163 13 46
164 13 46
164 13 46
164 13 46
165 12 46
165 12 46
166 12 46
166 12 46
166 12 46
167 12 46
167 12 46
168 12 46
168 12 46
168 11 46
169 11 46
169 11 46
170 11 46
170 11 46
171 11 46
171 11 46
171 11 46
172 11 46
172 10 46
173 10 46
173 10 46
173 10 46
174 10 46
174 10 46
175 10 46
175 10 46
175 9 46
176 9 46
176 9 46
177 9 46
177 9 46
177 9 46
178 9 46
178 9 46
179 9 46
179 8 46
180 8 46
180 8 46
180 8 46
181 8 46
181 8 46
182 8 46
182 8 46
182 8 46
183 7 46
183 7 46
184 7 46
184 7 46
184 7 46
185 7 46
185 7 46
186 7 46
186 6 46
186 6 46
187 6 46
187 6 46
188 6 46
188 6 46
188 6 46
189 6 46
189 6 46
190 5 46
190 5 46
191 5 46
191 5 46
191 5 46
192 5 46
192 5 46
193 5 46
193 5 46
193 4 46
194 4 46
194 4 46
195 4 46
195 4 46
195 4 46
196 4 46
196 4 46
197 3 46
197 3 46
197 3 46
198 3 46
198 3 46
199 3 46
199 3 46
199 3 46
200 3 46
200 2 46
201 2 46
201 2 46
202 2 46
202 2 46
202 2 46
203 2 46
203 2 46
204 2 46
204 1 46
204 1 46
205 1 46
205 1 46
206 1 46
206 1 46
206 1 46
207 1 46
207 0 46
208 0 46
208 0 46
208 0 46
209 0 46
45 45 45
45 45 45
46 45 45
46 45 45
47 44 45
47 44 45
47 44 45
48 44 45
48 44 45
49 44 45
49 44 45
49 44 45
50 44 45
50 43 45
51 43 45
51 43 45
51 43 45
52 43 45
52 43 45
53 43 45
53 43 45
54 42 45
54 42 45
54 42 45
55 42 45
55 42 45
56 42 45
56 42 45
56 42 45
57 42 45
57 41 45
58 41 45
58 41 45
59 41 45
59 41 45
59 41 45
60 41 45
60 41 45
61 41 45
61 40 45
61 40 45
62 40 45
62 40 45
63 40 45
63 40 45
63 40 45
64 40 45
64 40 45
65 39 45
65 39 45
66 39 45
66 39 45
66 39 45
67 39 45
67 39 45
68 39 45
68 39 45
68 38 45
69 38 45
69 38 45
70 38 45
70 38 45
71 38 45
71 38 45
71 38 45
72 38 45
72 37 45
73 37 45
73 37 45
73 37 45
74 37 45
74 37 45
75 37 45
75 37 45
76 37 45
76 36 45
76 36 45
77 36 45
77 36 45
78 36 45
78 36 45
78 36 45
79 36 45
79 36 45
80 35 45
80 35 45
80 35 45
81 35 45
81 35 45
82 35 45
82 35 45
83 35 45
83 35 45
83 34 45
84 34 45
84 34 45
85 34 45
85 34 45
85 34 45
86 34 45
86 34 45
87 33 45
87 33 45
88 33 45
88 33 45
88 33 45
89 33 45
89 33 45
90 33 45
90 33 45
90 32 45
91 32 45
91 32 45
92 32 45
92 32 45
92 32 45
93 32 45
93 32 45
94 32 45
94 31 45
95 31 45
95 31 45
95 31 45
96 31 45
96 31 45
97 31 45
97 31 45
97 31 45
98 30 45
98 30 45
99 30 45
99 30 45
100 30 45
100 30 45
100 30 45
101 30 45
101 30 45
102 29 45
102 29 45
102 29 45
103 29 45
103 29 45
104 29 45
104 29 45
105 29 45
105 29 45
105 28 45
106 28 45
106 28 45
107 28 45
107 28 45
107 28 45
108 28 45
108 28 45
109 28 45
109 27 45
109 27 45
110 27 45
110 27 45
111 27 45
111 27 45
112 27 45
112 27 45
112 27 45
113 26 45
113 26 45
114 26 45
114 26 45
114 26 45
115 26 45
115 26 45
116 26 45
116 26 45
117 25 45
117 25 45
117 25 45
118 25 45
118 25 45
119 25 45
119 25 45
119 25 45
120 25 45
120 24 45
121 24 45
121 24 45
121 24 45
122 24 45
122 24 45
123 24 45
123 24 45
124 23 45
124 23 45
124 23 45
125 23 45
125 23 45
126 23 45
126 23 45
126 23 45
127 23 45
127 22 45
128 22 45
128 22 45
129 22 45
129 22 45
129 22 45
130 22 45
130 22 45
131 22 45
131 21 45
131 21 45
132 21 45
132 21 45
133 21 45
133 21 45
134 21 45
134 21 45
134 21 45
135 20 45
135 20 45
136 20 45
136 20 45
136 20 45
137 20 45
137 20 45
138 20 45
138 20 45
138 19 45
139 19 45
139 19 45
140 19 45
140 19 45
141 19 45
141 19 45
141 19 45
142 19 45
142 18 45
143 18 45
143 18 45
143 18 45
144 18 45
144 18 45
145 18 45
145 18 45
146 18 45
146 17 45
146 17 45
147 17 45
147 17 45
148 17 45
148 17 45
148 17 45
149 17 45
149 17 45
150 16 45
150 16 45
150 16 45
151 16 45
151 16 45
152 16 45
152 16 45
153 16 45
153 16 45
153 15 45
154 15 45
154 15 45
155 15 45
155 15 45
155 15 45
156 15 45
156 15 45
157 15 45
157 14 45
158 14 45
158 14 45
158 14 45
159 14 45
159 14 45
160 14 45
160 14 45
160 13 45
161 13 45
161 13 45
162 13 45
162 13 45
163 13 45
163 13 45
163 13 45
164 13 45
164 12 45
165 12 45
165 12 45
165 12 45
166 12 45
166 12 45
167 12 45
167 12 45
167 12 45
168 11 45
168 11 45
169 11 45
169 11 45
170 11 45
170 11 45
170 11 45
171 11 45
171 11 45
172 10 45
172 10 45
172 10 45
173 10 45
173 10 45
174 10 45
174 10 45
175 10 45
175 10 45
175 9 45
176 9 45
176 9 45
177 9 45
177 9 45
177 9 45
178 9 45
178 9 45
179 9 45
179 8 45
179 8 45
180 8 45
180 8 45
181 8 45
181 8 45
182 8 45
182 8 45
182 8 45
183 7 45
183 7 45
184 7 45
184 7 45
184 7 45
185 7 45
185 7 45
186 7 45
186 7 45
187 6 45
187 6 45
187 6 45
188 6 45
188 6 45
189 6 45
189 6 45
189 6 45
190 6 45
190 5 45
191 5 45
191 5 45
192 5 45
192 5 45
192 5 45
193 5 45
193 5 45
194 4 45
194 4 45
194 4 45
195 4 45
195 4 45
196 4 45
196 4 45
196 4 45
197 4 45
197 3 45
198 3 45
198 3 45
199 3 45
199 3 45
199 3 45
200 3 45
200 3 45
201 3 45
201 2 45
201 2 45
202 2 45
202 2 45
203 2 45
203 2 45
204 2 45
204 2 45
204 2 45
205 1 45
205 1 45
206 1 45
206 1 45
206 1 45
207 1 45
207 1 45
208 1 45
208 1 45
208 0 45
209 0 45
209 0 45
210 0 45
210 0 45
44 44 44
44 43 44
44 43 44
45 43 44
45 43 44
46 43 44
46 43 44
47 43 44
47 43 44
47 43 44
48 42 44
48 42 44
49 42 44
49 42 44
49 42 44
50 42 44
50 42 44
51 42 44
51 42 44
52 41 44
52 41 44
52 41 44
53 41 44
53 41 44
54 41 44
54 41 44
55 41 44
55 41 44
55 41 44
56 40 44
56 40 44
57 40 44
57 40 44
57 40 44
58 40 44
58 40 44
59 40 44
59 40 44
60 39 44
60 39 44
60 39 44
61 39 44
61 39 44
62 39 44
62 39 44
62 39 44
63 39 44
63 38 44
64 38 44
64 38 44
65 38 44
65 38 44
65 38 44
66 38 44
66 38 44
67 38 44
67 37 44
68 37 44
68 37 44
68 37 44
69 37 44
69 37 44
70 37 44
70 37 44
70 37 44
71 36 44
71 36 44
72 36 44
72 36 44
73 36 44
73 36 44
73 36 44
74 36 44
74 36 44
75 35 44
75 35 44
76 35 44
76 35 44
76 35 44
77 35 44
77 35 44
78 35 44
78 35 44
78 35 44
79 34 44
79 34 44
80 34 44
80 34 44
81 34 44
81 34 44
81 34 44
82 34 44
82 34 44
83 33 44
83 33 44
84 33 44
84 33 44
84 33 44
85 33 44
85 33 44
86 33 44
86 33 44
86 32 44
87 32 44
87 32 44
88 32 44
88 32 44
89 32 44
89 32 44
89 32 44
90 32 44
90 31 44
91 31 44
91 31 44
92 31 44
92 31 44
92 31 44
93 31 44
93 31 44
94 31 44
94 30 44
94 30 44
95 30 44
95 30 44
96 30 44
96 30 44
97 30 44
97 30 44
97 30 44
98 29 44
98 29 44
99 29 44
99 29 44
100 29 44
100 29 44
100 29 44
101 29 44
101 29 44
102 28 44
102 28 44
102 28 44
103 28 44
103 28 44
104 28 44
104 28 44
105 28 44
105 28 44
105 28 44
106 27 44
106 27 44
107 27 44
107 27 44
108 27 44
108 27 44
108 27 44
109 27 44
109 27 44
110 26 44
110 26 44
110 26 44
111 26 44
111 26 44
112 26 44
112 26 44
113 26 44
113 26 44
113 25 44
114 25 44
114 25 44
115 25 44
115 25 44
116 25 44
116 25 44
116 25 44
117 25 44
117 24 44
118 24 44
118 24 44
118 24 44
119 24 44
119 24 44
120 24 44
120 24 44
121 24 44
121 23 44
121 23 44
122 23 44
122 23 44
123 23 44
123 23 44
124 23 44
124 23 44
124 23 44
125 22 44
125 22 44
126 22 44
126 22 44
126 22 44
127 22 44
127 22 44
128 22 44
128 22 44
129 22 44
129 21 44
129 21 44
130 21 44
130 21 44
131 21 44
131 21 44
131 21 44
132 21 44
132 21 44
133 20 44
133 20 44
134 20 44
134 20 44
134 20 44
135 20 44
135 20 44
136 20 44
136 20 44
137 19 44
137 19 44
137 19 44
138 19 44
138 19 44
139 19 44
139 19 44
139 19 44
140 19 44
140 18 44
141 18 44
141 18 44
142 18 44
142 18 44
142 18 44
143 18 44
143 18 44
144 18 44
144 17 44
145 17 44
145 17 44
145 17 44
146 17 44
146 17 44
147 17 44
147 17 44
147 17 44
148 16 44
148 16 44
149 16 44
149 16 44
150 16 44
150 16 44
150 16 44
151 16 44
151 16 44
152 16 44
152 15 44
153 15 44
153 15 44
153 15 44
154 15 44
154 15 44
155 15 44
155 15 44
155 15 44
156 14 44
156 14 44
157 14 44
157 14 44
158 14 44
158 14 44
158 14 44
159 14 44
159 14 44
160 13 44
160 13 44
161 13 44
161 13 44
161 13 44
162 13 44
162 13 44
163 13 44
163 13 44
163 12 44
164 12 44
164 12 44
165 12 44
165 12 44
166 12 44
166 12 44
166 12 44
167 12 44
167 11 44
168 11 44
168 11 44
169 11 44
169 11 44
169 11 44
170 11 44
170 11 44
171 11 44
171 10 44
171 10 44
172 10 44
172 10 44
173 10 44
173 10 44
174 10 44
174 10 44
174 10 44
175 9 44
175 9 44
176 9 44
176 9 44
177 9 44
177 9 44
177 9 44
178 9 44
178 9 44
179 9 44
179 8 44
179 8 44
180 8 44
180 8 44
181 8 44
181 8 44
182 8 44
182 8 44
182 8 44
183 7 44
183 7 44
184 7 44
184 7 44
185 7 44
185 7 44
185 7 44
186 7 44
186 7 44
187 6 44
187 6 44
187 6 44
188 6 44
188 6 44
189 6 44
189 6 44
190 6 44
190 6 44
190 5 44
191 5 44
191 5 44
192 5 44
192 5 44
193 5 44
193 5 44
193 5 44
194 5 44
194 4 44
195 4 44
195 4 44
195 4 44
196 4 44
196 4 44
197 4 44
197 4 44
198 4 44
198 3 44
198 3 44
199 3 44
199 3 44
200 3 44
200 3 44
200 3 44
201 3 44
201 3 44
202 3 44
202 2 44
203 2 44
203 2 44
203 2 44
204 2 44
204 2 44
205 2 44
205 2 44
206 2 44
206 1 44
206 1 44
207 1 44
207 1 44
208 1 44
208 1 44
208 1 44
209 1 44
209 1 44
210 0 44
210 0 44
211 0 44
211 0 44
211 0 44
42 42 42
43 42 42
43 42 42
44 42 42
44 42 42
44 42 42
45 42 42
45 42 42
46 41 42
46 41 42
47 41 42
47 41 42
47 41 42
48 41 42
48 41 42
49 41 42
49 41 42
50 40 42
50 40 42
50 40 42
51 40 42
51 40 42
52 40 42
52 40 42
53 40 42
53 40 42
53 40 42
54 39 42
54 39 42
55 39 42
55 39 42
56 39 42
56 39 42
56 39 42
57 39 42
57 39 42
58 38 42
58 38 42
59 38 42
59 38 42
59 38 42
60 38 42
60 38 42
61 38 42
61 38 42
62 38 42
62 37 42
62 37 42
63 37 42
63 37 42
64 37 42
64 37 42
64 37 42
65 37 42
65 37 42
66 36 42
66 36 42
67 36 42
67 36 42
67 36 42
68 36 42
68 36 42
69 36 42
69 36 42
70 36 42
70 35 42
70 35 42
71 35 42
71 35 42
72 35 42
72 35 42
73 35 42
73 35 42
73 35 42
74 34 42
74 34 42
75 34 42
75 34 42
76 34 42
76 34 42
76 34 42
77 34 42
77 34 42
78 33 42
78 33 42
79 33 42
79 33 42
79 33 42
80 33 42
80 33 42
81 33 42
81 33 42
82 33 42
82 32 42
82 32 42
83 32 42
83 32 42
84 32 42
84 32 42
85 32 42
85 32 42
85 32 42
86 31 42
86 31 42
87 31 42
87 31 42
88 31 42
88 31 42
88 31 42
89 31 42
89 31 42
90 31 42
90 30 42
91 30 42
91 30 42
91 30 42
92 30 42
92 30 42
93 30 42
93 30 42
94 30 42
94 29 42
94 29 42
95 29 42
95 29 42
96 29 42
96 29 42
97 29 42
97 29 42
97 29 42
98 29 42
98 28 42
99 28 42
99 28 42
100 28 42
100 28 42
100 28 42
101 28 42
101 28 42
102 28 42
102 27 42
103 27 42
103 27 42
103 27 42
104 27 42
104 27 42
105 27 42
105 27 42
106 27 42
106 26 42
106 26 42
107 26 42
107 26 42
108 26 42
108 26 42
108 26 42
109 26 42
109 26 42
110 26 42
110 25 42
111 25 42
111 25 42
111 25 42
112 25 42
112 25 42
113 25 42
113 25 42
114 25 42
114 24 42
114 24 42
115 24 42
115 24 42
116 24 42
116 24 42
117 24 42
117 24 42
117 24 42
118 24 42
118 23 42
119 23 42
119 23 42
120 23 42
120 23 42
120 23 42
121 23 42
121 23 42
122 23 42
122 22 42
123 22 42
123 22 42
123 22 42
124 22 42
124 22 42
125 22 42
125 22 42
126 22 42
126 22 42
126 21 42
127 21 42
127 21 42
128 21 42
128 21 42
129 21 42
129 21 42
129 21 42
130 21 42
130 20 42
131 20 42
131 20 42
132 20 42
132 20 42
132 20 42
133 20 42
133 20 42
134 20 42
134 20 42
135 19 42
135 19 42
135 19 42
136 19 42
136 19 42
137 19 42
137 19 42
138 19 42
138 19 42
138 18 42
139 18 42
139 18 42
140 18 42
140 18 42
141 18 42
141 18 42
141 18 42
142 18 42
142 17 42
143 17 42
143 17 42
144 17 42
144 17 42
144 17 42
145 17 42
145 17 42
146 17 42
146 17 42
147 16 42
147 16 42
147 16 42
148 16 42
148 16 42
149 16 42
149 16 42
149 16 42
150 16 42
150 15 42
151 15 42
151 15 42
152 15 42
152 15 42
152 15 42
153 15 42
153 15 42
154 15 42
154 15 42
155 14 42
155 14 42
155 14 42
156 14 42
156 14 42
157 14 42
157 14 42
158 14 42
158 14 42
158 13 42
159 13 42
159 13 42
160 13 42
160 13 42
161 13 42
161 13 42
161 13 42
162 13 42
162 13 42
163 12 42
163 12 42
164 12 42
164 12 42
164 12 42
165 12 42
165 12 42
166 12 42
166 12 42
167 11 42
167 11 42
167 11 42
168 11 42
168 11 42
169 11 42
169 11 42
170 11 42
170 11 42
170 10 42
171 10 42
171 10 42
172 10 42
172 10 42
173 10 42
173 10 42
173 10 42
174 10 42
174 10 42
175 9 42
175 9 42
176 9 42
176 9 42
176 9 42
177 9 42
177 9 42
178 9 42
178 9 42
179 8 42
179 8 42
179 8 42
180 8 42
180 8 42
181 8 42
181 8 42
182 8 42
182 8 42
182 8 42
183 7 42
183 7 42
184 7 42
184 7 42
185 7 42
185 7 42
185 7 42
186 7 42
186 7 42
187 6 42
187 6 42
188 6 42
188 6 42
188 6 42
189 6 42
189 6 42
190 6 42
190 6 42
191 6 42
191 5 42
191 5 42
192 5 42
192 5 42
193 5 42
193 5 42
193 5 42
194 5 42
194 5 42
195 4 42
195 4 42
196 4 42
196 4 42
196 4 42
197 4 42
197 4 42
198 4 42
198 4 42
199 3 42
199 3 42
199 3 42
200 3 42
200 3 42
201 3 42
201 3 42
202 3 42
202 3 42
202 3 42
203 2 42
203 2 42
204 2 42
204 2 42
205 2 42
205 2 42
205 2 42
206 2 42
206 2 42
207 1 42
207 1 42
208 1 42
208 1 42
208 1 42
209 1 42
209 1 42
210 1 42
210 1 42
211 1 42
211 0 42
211 0 42
212 0 42
212 0 42
213 0 42
41 41 41
41 41 41
42 41 41
42 41 41
43 41 41
43 40 41
44 40 41
44 40 41
44 40 41
45 40 41
45 40 41
46 40 41
46 40 41
47 40 41
47 40 41
48 39 41
48 39 41
48 39 41
49 39 41
49 39 41
50 39 41
50 39 41
51 39 41
51 39 41
51 39 41
52 38 41
52 38 41
53 38 41
53 38 41
54 38 41
54 38 41
54 38 41
55 38 41
55 38 41
56 38 41
56 37 41
57 37 41
57 37 41
57 37 41
58 37 41
58 37 41
59 37 41
59 37 41
60 37 41
60 36 41
61 36 41
61 36 41
61 36 41
62 36 41
62 36 41
63 36 41
63 36 41
64 36 41
64 36 41
64 35 41
65 35 41
65 35 41
66 35 41
66 35 41
67 35 41
67 35 41
67 35 41
68 35 41
68 35 41
69 34 41
69 34 41
70 34 41
70 34 41
70 34 41
71 34 41
71 34 41
72 34 41
72 34 41
73 34 41
73 33 41
74 33 41
74 33 41
74 33 41
75 33 41
75 33 41
76 33 41
76 33 41
77 33 41
77 32 41
77 32 41
78 32 41
78 32 41
79 32 41
79 32 41
80 32 41
80 32 41
80 32 41
81 32 41
81 31 41
82 31 41
82 31 41
83 31 41
83 31 41
83 31 41
84 31 41
84 31 41
85 31 41
85 31 41
86 30 41
86 30 41
87 30 41
87 30 41
87 30 41
88 30 41
88 30 41
89 30 41
89 30 41
90 29 41
90 29 41
90 29 41
91 29 41
91 29 41
92 29 41
92 29 41
93 29 41
93 29 41
93 29 41
94 28 41
94 28 41
95 28 41
95 28 41
96 28 41
96 28 41
97 28 41
97 28 41
97 28 41
98 28 41
98 27 41
99 27 41
99 27 41
100 27 41
100 27 41
100 27 41
101 27 41
101 27 41
102 27 41
102 27 41
103 26 41
103 26 41
103 26 41
104 26 41
104 26 41
105 26 41
105 26 41
106 26 41
106 26 41
106 25 41
107 25 41
107 25 41
108 25 41
108 25 41
109 25 41
109 25 41
110 25 41
110 25 41
110 25 41
111 24 41
111 24 41
112 24 41
112 24 41
113 24 41
113 24 41
113 24 41
114 24 41
114 24 41
115 24 41
115 23 41
116 23 41
116 23 41
116 23 41
117 23 41
117 23 41
118 23 41
118 23 41
119 23 41
119 23 41
119 22 41
120 22 41
120 22 41
121 22 41
121 22 41
122 22 41
122 22 41
123 22 41
123 22 41
123 21 41
124 21 41
124 21 41
125 21 41
125 21 41
126 21 41
126 21 41
126 21 41
127 21 41
127 21 41
128 20 41
128 20 41
129 20 41
129 20 41
129 20 41
130 20 41
130 20 41
131 20 41
131 20 41
132 20 41
132 19 41
132 19 41
133 19 41
133 19 41
134 19 41
134 19 41
135 19 41
135 19 41
136 19 41
136 18 41
136 18 41
137 18 41
137 18 41
138 18 41
138 18 41
139 18 41
139 18 41
139 18 41
140 18 41
140 17 41
141 17 41
141 17 41
142 17 41
142 17 41
142 17 41
143 17 41
143 17 41
144 17 41
144 17 41
145 16 41
145 16 41
145 16 41
146 16 41
146 16 41
147 16 41
147 16 41
148 16 41
148 16 41
149 16 41
149 15 41
149 15 41
150 15 41
150 15 41
151 15 41
151 15 41
152 15 41
152 15 41
152 15 41
153 14 41
153 14 41
154 14 41
154 14 41
155 14 41
155 14 41
155 14 41
156 14 41
156 14 41
157 14 41
157 13 41
158 13 41
158 13 41
158 13 41
159 13 41
159 13 41
160 13 41
160 13 41
161 13 41
161 13 41
162 12 41
162 12 41
162 12 41
163 12 41
163 12 41
164 12 41
164 12 41
165 12 41
165 12 41
165 12 41
166 11 41
166 11 41
167 11 41
167 11 41
168 11 41
168 11 41
168 11 41
169 11 41
169 11 41
170 10 41
170 10 41
171 10 41
171 10 41
172 10 41
172 10 41
172 10 41
173 10 41
173 10 41
174 10 41
174 9 41
175 9 41
175 9 41
175 9 41
176 9 41
176 9 41
177 9 41
177 9 41
178 9 41
178 9 41
178 8 41
179 8 41
179 8 41
180 8 41
180 8 41
181 8 41
181 8 41
181 8 41
182 8 41
182 8 41
183 7 41
183 7 41
184 7 41
184 7 41
185 7 41
185 7 41
185 7 41
186 7 41
186 7 41
187 6 41
187 6 41
188 6 41
188 6 41
188 6 41
189 6 41
189 6 41
190 6 41
190 6 41
191 6 41
191 5 41
191 5 41
192 5 41
192 5 41
193 5 41
193 5 41
194 5 41
194 5 41
194 5 41
195 5 41
195 4 41
196 4 41
196 4 41
197 4 41
197 4 41
198 4 41
198 4 41
198 4 41
199 4 41
199 3 41
200 3 41
200 3 41
201 3 41
201 3 41
201 3 41
202 3 41
202 3 41
203 3 41
203 3 41
204 2 41
204 2 41
204 2 41
205 2 41
205 2 41
206 2 41
206 2 41
207 2 41
207 2 41
207 2 41
208 1 41
208 1 41
209 1 41
209 1 41
210 1 41
210 1 41
211 1 41
211 1 41
211 1 41
212 1 41
212 0 41
213 0 41
213 0 41
214 0 41
214 0 41
40 40 40
40 40 40
41 40 40
41 39 40
41 39 40
42 39 40
42 39 40
43 39 40
43 39 40
44 39 40
44 39 40
45 39 40
45 39 40
45 38 40
46 38 40
46 38 40
47 38 40
47 38 40
48 38 40
48 38 40
49 38 40
49 38 40
49 38 40
50 37 40
50 37 40
51 37 40
51 37 40
52 37 40
52 37 40
52 37 40
53 37 40
53 37 40
54 37 40
54 36 40
55 36 40
55 36 40
56 36 40
56 36 40
56 36 40
57 36 40
57 36 40
58 36 40
58 36 40
59 35 40
59 35 40
60 35 40
60 35 40
60 35 40
61 35 40
61 35 40
62 35 40
62 35 40
63 35 40
63 34 40
63 34 40
64 34 40
64 34 40
65 34 40
65 34 40
66 34 40
66 34 40
67 34 40
67 34 40
67 33 40
68 33 40
68 33 40
69 33 40
69 33 40
70 33 40
70 33 40
71 33 40
71 33 40
71 33 40
72 32 40
72 32 40
73 32 40
73 32 40
74 32 40
74 32 40
74 32 40
75 32 40
75 32 40
76 32 40
76 31 40
77 31 40
77 31 40
78 31 40
78 31 40
78 31 40
79 31 40
79 31 40
80 31 40
80 31 40
81 30 40
81 30 40
82 30 40
82 30 40
82 30 40
83 30 40
83 30 40
84 30 40
84 30 40
85 30 40
85 29 40
85 29 40
86 29 40
86 29 40
87 29 40
87 29 40
88 29 40
88 29 40
89 29 40
89 29 40
89 28 40
90 28 40
90 28 40
91 28 40
91 28 40
92 28 40
92 28 40
93 28 40
93 28 40
93 28 40
94 27 40
94 27 40
95 27 40
95 27 40
96 27 40
96 27 40
96 27 40
97 27 40
97 27 40
98 27 40
98 26 40
99 26 40
99 26 40
100 26 40
100 26 40
100 26 40
101 26 40
101 26 40
102 26 40
102 26 40
103 25 40
103 25 40
104 25 40
104 25 40
104 25 40
105 25 40
105 25 40
106 25 40
106 25 40
107 25 40
107 24 40
107 24 40
108 24 40
108 24 40
109 24 40
109 24 40
110 24 40
110 24 40
111 24 40
111 24 40
111 23 40
112 23 40
112 23 40
113 23 40
113 23 40
114 23 40
114 23 40
115 23 40
115 23 40
115 23 40
116 23 40
116 22 40
117 22 40
117 22 40
118 22 40
118 22 40
118 22 40
119 22 40
119 22 40
120 22 40
120 22 40
121 21 40
121 21 40
122 21 40
122 21 40
122 21 40
123 21 40
123 21 40
124 21 40
124 21 40
125 21 40
125 20 40
126 20 40
126 20 40
126 20 40
127 20 40
127 20 40
128 20 40
128 20 40
129 20 40
129 20 40
129 19 40
130 19 40
130 19 40
131 19 40
131 19 40
132 19 40
132 19 40
133 19 40
133 19 40
133 19 40
134 18 40
134 18 40
135 18 40
135 18 40
136 18 40
136 18 40
137 18 40
137 18 40
137 18 40
138 18 40
138 17 40
139 17 40
139 17 40
140 17 40
140 17 40
140 17 40
141 17 40
141 17 40
142 17 40
142 17 40
143 16 40
143 16 40
144 16 40
144 16 40
144 16 40
145 16 40
145 16 40
146 16 40
146 16 40
147 16 40
147 15 40
148 15 40
148 15 40
148 15 40
149 15 40
149 15 40
150 15 40
150 15 40
151 15 40
151 15 40
151 14 40
152 14 40
152 14 40
153 14 40
153 14 40
154 14 40
154 14 40
155 14 40
155 14 40
155 14 40
156 13 40
156 13 40
157 13 40
157 13 40
158 13 40
158 13 40
159 13 40
159 13 40
159 13 40
160 13 40
160 12 40
161 12 40
161 12 40
162 12 40
162 12 40
162 12 40
163 12 40
163 12 40
164 12 40
164 12 40
165 11 40
165 11 40
166 11 40
166 11 40
166 11 40
167 11 40
167 11 40
168 11 40
168 11 40
169 11 40
169 10 40
170 10 40
170 10 40
170 10 40
171 10 40
171 10 40
172 10 40
172 10 40
173 10 40
173 10 40
173 9 40
174 9 40
174 9 40
175 9 40
175 9 40
176 9 40
176 9 40
177 9 40
177 9 40
177 9 40
178 8 40
178 8 40
179 8 40
179 8 40
180 8 40
180 8 40
181 8 40
181 8 40
181 8 40
182 8 40
182 7 40
183 7 40
183 7 40
184 7 40
184 7 40
184 7 40
185 7 40
185 7 40
186 7 40
186 7 40
187 6 40
187 6 40
188 6 40
188 6 40
188 6 40
189 6 40
189 6 40
190 6 40
190 6 40
191 6 40
191 5 40
192 5 40
192 5 40
192 5 40
193 5 40
193 5 40
194 5 40
194 5 40
195 5 40
195 5 40
195 4 40
196 4 40
196 4 40
197 4 40
197 4 40
198 4 40
198 4 40
199 4 40
199 4 40
199 4 40
200 3 40
200 3 40
201 3 40
201 3 40
202 3 40
202 3 40
203 3 40
203 3 40
203 3 40
204 3 40
204 2 40
205 2 40
205 2 40
206 2 40
206 2 40
206 2 40
207 2 40
207 2 40
208 2 40
208 2 40
209 1 40
209 1 40
210 1 40
210 1 40
210 1 40
211 1 40
211 1 40
212 1 40
212 1 40
213 1 40
213 0 40
214 0 40
214 0 40
214 0 40
215 0 40
215 0 40
38 38 38
39 38 38
39 38 38
40 38 38
40 38 38
41 38 38
41 38 38
42 38 38
42 38 38
42 38 38
43 37 38
43 37 38
44 37 38
44 37 38
45 37 38
45 37 38
46 37 38
46 37 38
46 37 38
47 37 38
47 37 38
48 36 38
48 36 38
49 36 38
49 36 38
50 36 38
50 36 38
50 36 38
51 36 38
51 36 38
52 36 38
52 35 38
53 35 38
53 35 38
54 35 38
54 35 38
55 35 38
55 35 38
55 35 38
56 35 38
56 35 38
57 34 38
57 34 38
58 34 38
58 34 38
59 34 38
59 34 38
59 34 38
60 34 38
60 34 38
61 34 38
61 34 38
62 33 38
62 33 38
63 33 38
63 33 38
63 33 38
64 33 38
64 33 38
65 33 38
65 33 38
66 33 38
66 32 38
67 32 38
67 32 38
67 32 38
68 32 38
68 32 38
69 32 38
69 32 38
70 32 38
70 32 38
71 32 38
71 31 38
71 31 38
72 31 38
72 31 38
73 31 38
73 31 38
74 31 38
74 31 38
75 31 38
75 31 38
75 30 38
76 30 38
76 30 38
77 30 38
77 30 38
78 30 38
78 30 38
79 30 38
79 30 38
80 30 38
80 29 38
80 29 38
81 29 38
81 29 38
82 29 38
82 29 38
83 29 38
83 29 38
84 29 38
84 29 38
84 29 38
85 28 38
85 28 38
86 28 38
86 28 38
87 28 38
87 28 38
88 28 38
88 28 38
88 28 38
89 28 38
89 27 38
90 27 38
90 27 38
91 27 38
91 27 38
92 27 38
92 27 38
92 27 38
93 27 38
93 27 38
94 26 38
94 26 38
95 26 38
95 26 38
96 26 38
96 26 38
96 26 38
97 26 38
97 26 38
98 26 38
98 26 38
99 25 38
99 25 38
100 25 38
100 25 38
100 25 38
101 25 38
101 25 38
102 25 38
102 25 38
103 25 38
103 24 38
104 24 38
104 24 38
105 24 38
105 24 38
105 24 38
106 24 38
106 24 38
107 24 38
107 24 38
108 24 38
108 23 38
109 23 38
109 23 38
109 23 38
110 23 38
110 23 38
111 23 38
111 23 38
112 23 38
112 23 38
113 22 38
113 22 38
113 22 38
114 22 38
114 22 38
115 22 38
115 22 38
116 22 38
116 22 38
117 22 38
117 21 38
117 21 38
118 21 38
118 21 38
119 21 38
119 21 38
120 21 38
120 21 38
121 21 38
121 21 38
121 21 38
122 20 38
122 20 38
123 20 38
123 20 38
124 20 38
124 20 38
125 20 38
125 20 38
125 20 38
126 20 38
126 19 38
127 19 38
127 19 38
128 19 38
128 19 38
129 19 38
129 19 38
130 19 38
130 19 38
130 19 38
131 18 38
131 18 38
132 18 38
132 18 38
133 18 38
133 18 38
134 18 38
134 18 38
134 18 38
135 18 38
135 18 38
136 17 38
136 17 38
137 17 38
137 17 38
138 17 38
138 17 38
138 17 38
139 17 38
139 17 38
140 17 38
140 16 38
141 16 38
141 16 38
142 16 38
142 16 38
142 16 38
143 16 38
143 16 38
144 16 38
144 16 38
145 16 38
145 15 38
146 15 38
146 15 38
146 15 38
147 15 38
147 15 38
148 15 38
148 15 38
149 15 38
149 15 38
150 14 38
150 14 38
150 14 38
151 14 38
151 14 38
152 14 38
152 14 38
153 14 38
153 14 38
154 14 38
154 13 38
155 13 38
155 13 38
155 13 38
156 13 38
156 13 38
157 13 38
157 13 38
158 13 38
158 13 38
159 13 38
159 12 38
159 12 38
160 12 38
160 12 38
161 12 38
161 12 38
162 12 38
162 12 38
163 12 38
163 12 38
163 11 38
164 11 38
164 11 38
165 11 38
165 11 38
166 11 38
166 11 38
167 11 38
167 11 38
167 11 38
168 11 38
168 10 38
169 10 38
169 10 38
170 10 38
170 10 38
171 10 38
171 10 38
171 10 38
172 10 38
172 10 38
173 9 38
173 9 38
174 9 38
174 9 38
175 9 38
175 9 38
175 9 38
176 9 38
176 9 38
177 9 38
177 8 38
178 8 38
178 8 38
179 8 38
179 8 38
180 8 38
180 8 38
180 8 38
181 8 38
181 8 38
182 8 38
182 7 38
183 7 38
183 7 38
184 7 38
184 7 38
184 7 38
185 7 38
185 7 38
186 7 38
186 7 38
187 6 38
187 6 38
188 6 38
188 6 38
188 6 38
189 6 38
189 6 38
190 6 38
190 6 38
191 6 38
191 5 38
192 5 38
192 5 38
192 5 38
193 5 38
193 5 38
194 5 38
194 5 38
195 5 38
195 5 38
196 5 38
196 4 38
196 4 38
197 4 38
197 4 38
198 4 38
198 4 38
199 4 38
199 4 38
200 4 38
200 4 38
200 3 38
201 3 38
201 3 38
202 3 38
202 3 38
203 3 38
203 3 38
204 3 38
204 3 38
205 3 38
205 3 38
205 2 38
206 2 38
206 2 38
207 2 38
207 2 38
208 2 38
208 2 38
209 2 38
209 2 38
209 2 38
210 1 38
210 1 38
211 1 38
211 1 38
212 1 38
212 1 38
213 1 38
213 1 38
213 1 38
214 1 38
214 0 38
215 0 38
215 0 38
216 0 38
216 0 38
217 0 38
37 37 37
38 37 37
38 37 37
39 37 37
39 37 37
39 37 37
40 37 37
40 37 37
41 36 37
41 36 37
42 36 37
42 36 37
43 36 37
43 36 37
44 36 37
44 36 37
44 36 37
45 36 37
45 35 37
46 35 37
46 35 37
47 35 37
47 35 37
48 35 37
48 35 37
48 35 37
49 35 37
49 35 37
50 35 37
50 34 37
51 34 37
51 34 37
52 34 37
52 34 37
53 34 37
53 34 37
53 34 37
54 34 37
54 34 37
55 34 37
55 33 37
56 33 37
56 33 37
57 33 37
57 33 37
58 33 37
58 33 37
58 33 37
59 33 37
59 33 37
60 33 37
60 32 37
61 32 37
61 32 37
62 32 37
62 32 37
63 32 37
63 32 37
63 32 37
64 32 37
64 32 37
65 31 37
65 31 37
66 31 37
66 31 37
67 31 37
67 31 37
68 31 37
68 31 37
68 31 37
69 31 37
69 31 37
70 30 37
70 30 37
71 30 37
71 30 37
72 30 37
72 30 37
72 30 37
73 30 37
73 30 37
74 30 37
74 30 37
75 29 37
75 29 37
76 29 37
76 29 37
77 29 37
77 29 37
77 29 37
78 29 37
78 29 37
79 29 37
79 28 37
80 28 37
80 28 37
81 28 37
81 28 37
82 28 37
82 28 37
82 28 37
83 28 37
83 28 37
84 28 37
84 27 37
85 27 37
85 27 37
86 27 37
86 27 37
87 27 37
87 27 37
87 27 37
88 27 37
88 27 37
89 27 37
89 26 37
90 26 37
90 26 37
91 26 37
91 26 37
92 26 37
92 26 37
92 26 37
93 26 37
93 26 37
94 26 37
94 25 37
95 25 37
95 25 37
96 25 37
96 25 37
96 25 37
97 25 37
97 25 37
98 25 37
98 25 37
99 24 37
99 24 37
100 24 37
100 24 37
101 24 37
101 24 37
101 24 37
102 24 37
102 24 37
103 24 37
103 24 37
104 23 37
104 23 37
105 23 37
105 23 37
106 23 37
106 23 37
106 23 37
107 23 37
107 23 37
108 23 37
108 23 37
109 22 37
109 22 37
110 22 37
110 22 37
111 22 37
111 22 37
111 22 37
112 22 37
112 22 37
113 22 37
113 22 37
114 21 37
114 21 37
115 21 37
115 21 37
116 21 37
116 21 37
116 21 37
117 21 37
117 21 37
118 21 37
118 20 37
119 20 37
119 20 37
120 20 37
120 20 37
120 20 37
121 20 37
121 20 37
122 20 37
122 20 37
123 20 37
123 19 37
124 19 37
124 19 37
125 19 37
125 19 37
125 19 37
126 19 37
126 19 37
127 19 37
127 19 37
128 19 37
128 18 37
129 18 37
129 18 37
130 18 37
130 18 37
130 18 37
131 18 37
131 18 37
132 18 37
132 18 37
133 18 37
133 17 37
134 17 37
134 17 37
135 17 37
135 17 37
135 17 37
136 17 37
136 17 37
137 17 37
137 17 37
138 16 37
138 16 37
139 16 37
139 16 37
139 16 37
140 16 37
140 16 37
141 16 37
141 16 37
142 16 37
142 16 37
143 15 37
143 15 37
144 15 37
144 15 37
144 15 37
145 15 37
145 15 37
146 15 37
146 15 37
147 15 37
147 15 37
148 14 37
148 14 37
149 14 37
149 14 37
149 14 37
150 14 37
150 14 37
151 14 37
151 14 37
152 14 37
152 14 37
153 13 37
153 13 37
154 13 37
154 13 37
154 13 37
155 13 37
155 13 37
156 13 37
156 13 37
157 13 37
157 12 37
158 12 37
158 12 37
159 12 37
159 12 37
159 12 37
160 12 37
160 12 37
161 12 37
161 12 37
162 12 37
162 11 37
163 11 37
163 11 37
163 11 37
164 11 37
164 11 37
165 11 37
165 11 37
166 11 37
166 11 37
167 11 37
167 10 37
168 10 37
168 10 37
168 10 37
169 10 37
169 10 37
170 10 37
170 10 37
171 10 37
171 10 37
172 9 37
172 9 37
173 9 37
173 9 37
173 9 37
174 9 37
174 9 37
175 9 37
175 9 37
176 9 37
176 9 37
177 8 37
177 8 37
178 8 37
178 8 37
178 8 37
179 8 37
179 8 37
180 8 37
180 8 37
181 8 37
181 8 37
182 7 37
182 7 37
183 7 37
183 7 37
183 7 37
184 7 37
184 7 37
185 7 37
185 7 37
186 7 37
186 7 37
187 6 37
187 6 37
187 6 37
188 6 37
188 6 37
189 6 37
189 6 37
190 6 37
190 6 37
191 6 37
191 5 37
192 5 37
192 5 37
192 5 37
193 5 37
193 5 37
194 5 37
194 5 37
195 5 37
195 5 37
196 5 37
196 4 37
197 4 37
197 4 37
197 4 37
198 4 37
198 4 37
199 4 37
199 4 37
200 4 37
200 4 37
201 4 37
201 3 37
202 3 37
202 3 37
202 3 37
203 3 37
203 3 37
204 3 37
204 3 37
205 3 37
205 3 37
206 3 37
206 2 37
207 2 37
207 2 37
207 2 37
208 2 37
208 2 37
209 2 37
209 2 37
210 2 37
210 2 37
211 1 37
211 1 37
211 1 37
212 1 37
212 1 37
213 1 37
213 1 37
214 1 37
214 1 37
215 1 37
215 1 37
216 0 37
216 0 37
216 0 37
217 0 37
217 0 37
218 0 37
36 36 36
36 36 36
37 36 36
37 36 36
38 36 36
38 35 36
39 35 36
39 35 36
40 35 36
40 35 36
40 35 36
41 35 36
41 35 36
42 35 36
42 35 36
43 35 36
43 34 36
44 34 36
44 34 36
45 34 36
45 34 36
46 34 36
46 34 36
46 34 36
47 34 36
47 34 36
48 34 36
48 33 36
49 33 36
49 33 36
50 33 36
50 33 36
51 33 36
51 33 36
51 33 36
52 33 36
52 33 36
53 33 36
53 32 36
54 32 36
54 32 36
55 32 36
55 32 36
56 32 36
56 32 36
57 32 36
57 32 36
57 32 36
58 32 36
58 31 36
59 31 36
59 31 36
60 31 36
60 31 36
61 31 36
61 31 36
62 31 36
62 31 36
63 31 36
63 31 36
63 30 36
64 30 36
64 30 36
65 30 36
65 30 36
66 30 36
66 30 36
67 30 36
67 30 36
68 30 36
68 30 36
68 29 36
69 29 36
69 29 36
70 29 36
70 29 36
71 29 36
71 29 36
72 29 36
72 29 36
73 29 36
73 29 36
74 29 36
74 28 36
74 28 36
75 28 36
75 28 36
76 28 36
76 28 36
77 28 36
77 28 36
78 28 36
78 28 36
79 28 36
79 27 36
80 27 36
80 27 36
80 27 36
81 27 36
81 27 36
82 27 36
82 27 36
83 27 36
83 27 36
84 27 36
84 26 36
85 26 36
85 26 36
85 26 36
86 26 36
86 26 36
87 26 36
87 26 36
88 26 36
88 26 36
89 26 36
89 25 36
90 25 36
90 25 36
91 25 36
91 25 36
91 25 36
92 25 36
92 25 36
93 25 36
93 25 36
94 25 36
94 24 36
95 24 36
95 24 36
96 24 36
96 24 36
97 24 36
97 24 36
97 24 36
98 24 36
98 24 36
99 24 36
99 23 36
100 23 36
100 23 36
101 23 36
101 23 36
102 23 36
102 23 36
102 23 36
103 23 36
103 23 36
104 23 36
104 22 36
105 22 36
105 22 36
106 22 36
106 22 36
107 22 36
107 22 36
108 22 36
108 22 36
108 22 36
109 22 36
109 21 36
110 21 36
110 21 36
111 21 36
111 21 36
112 21 36
112 21 36
113 21 36
113 21 36
113 21 36
114 21 36
114 21 36
115 20 36
115 20 36
116 20 36
116 20 36
117 20 36
117 20 36
118 20 36
118 20 36
119 20 36
119 20 36
119 20 36
120 19 36
120 19 36
121 19 36
121 19 36
122 19 36
122 19 36
123 19 36
123 19 36
124 19 36
124 19 36
125 19 36
125 18 36
125 18 36
126 18 36
126 18 36
127 18 36
127 18 36
128 18 36
128 18 36
129 18 36
129 18 36
130 18 36
130 17 36
130 17 36
131 17 36
131 17 36
132 17 36
132 17 36
133 17 36
133 17 36
134 17 36
134 17 36
135 17 36
135 16 36
136 16 36
136 16 36
136 16 36
137 16 36
137 16 36
138 16 36
138 16 36
139 16 36
139 16 36
140 16 36
140 15 36
141 15 36
141 15 36
142 15 36
142 15 36
142 15 36
143 15 36
143 15 36
144 15 36
144 15 36
145 15 36
145 14 36
146 14 36
146 14 36
147 14 36
147 14 36
147 14 36
148 14 36
148 14 36
149 14 36
149 14 36
150 14 36
150 13 36
151 13 36
151 13 36
152 13 36
152 13 36
153 13 36
153 13 36
153 13 36
154 13 36
154 13 36
155 13 36
155 12 36
156 12 36
156 12 36
157 12 36
157 12 36
158 12 36
158 12 36
158 12 36
159 12 36
159 12 36
160 12 36
160 12 36
161 11 36
161 11 36
162 11 36
162 11 36
163 11 36
163 11 36
164 11 36
164 11 36
164 11 36
165 11 36
165 11 36
166 10 36
166 10 36
167 10 36
167 10 36
168 10 36
168 10 36
169 10 36
169 10 36
170 10 36
170 10 36
170 10 36
171 9 36
171 9 36
172 9 36
172 9 36
173 9 36
173 9 36
174 9 36
174 9 36
175 9 36
175 9 36
175 9 36
176 8 36
176 8 36
177 8 36
177 8 36
178 8 36
178 8 36
179 8 36
179 8 36
180 8 36
180 8 36
181 8 36
181 7 36
181 7 36
182 7 36
182 7 36
183 7 36
183 7 36
184 7 36
184 7 36
185 7 36
185 7 36
186 7 36
186 6 36
187 6 36
187 6 36
187 6 36
188 6 36
188 6 36
189 6 36
189 6 36
190 6 36
190 6 36
191 6 36
191 5 36
192 5 36
192 5 36
192 5 36
193 5 36
193 5 36
194 5 36
194 5 36
195 5 36
195 5 36
196 5 36
196 4 36
197 4 36
197 4 36
198 4 36
198 4 36
198 4 36
199 4 36
199 4 36
200 4 36
200 4 36
201 4 36
201 4 36
202 3 36
202 3 36
203 3 36
203 3 36
204 3 36
204 3 36
204 3 36
205 3 36
205 3 36
206 3 36
206 3 36
207 2 36
207 2 36
208 2 36
208 2 36
209 2 36
209 2 36
209 2 36
210 2 36
210 2 36
211 2 36
211 2 36
212 1 36
212 1 36
213 1 36
213 1 36
214 1 36
214 1 36
215 1 36
215 1 36
215 1 36
216 1 36
216 1 36
217 0 36
217 0 36
218 0 36
218 0 36
219 0 36
219 0 36
35 35 35
35 35 35
36 34 35
36 34 35
36 34 35
37 34 35
37 34 35
38 34 35
38 34 35
39 34 35
39 34 35
40 34 35
40 34 35
41 33 35
41 33 35
42 33 35
42 33 35
43 33 35
43 33 35
43 33 35
44 33 35
44 33 35
45 33 35
45 33 35
46 33 35
46 32 35
47 32 35
47 32 35
48 32 35
48 32 35
49 32 35
49 32 35
49 32 35
50 32 35
50 32 35
51 32 35
51 31 35
52 31 35
52 31 35
53 31 35
53 31 35
54 31 35
54 31 35
55 31 35
55 31 35
56 31 35
56 31 35
56 31 35
57 30 35
57 30 35
58 30 35
58 30 35
59 30 35
59 30 35
60 30 35
60 30 35
61 30 35
61 30 35
62 30 35
62 29 35
63 29 35
63 29 35
63 29 35
64 29 35
64 29 35
65 29 35
65 29 35
66 29 35
66 29 35
67 29 35
67 29 35
68 28 35
68 28 35
69 28 35
69 28 35
70 28 35
70 28 35
70 28 35
71 28 35
71 28 35
72 28 35
72 28 35
73 27 35
73 27 35
74 27 35
74 27 35
75 27 35
75 27 35
76 27 35
76 27 35
77 27 35
77 27 35
77 27 35
78 27 35
78 26 35
79 26 35
79 26 35
80 26 35
80 26 35
81 26 35
81 26 35
82 26 35
82 26 35
83 26 35
83 26 35
83 25 35
84 25 35
84 25 35
85 25 35
85 25 35
86 25 35
86 25 35
87 25 35
87 25 35
88 25 35
88 25 35
89 25 35
89 24 35
90 24 35
90 24 35
90 24 35
91 24 35
91 24 35
92 24 35
92 24 35
93 24 35
93 24 35
94 24 35
94 23 35
95 23 35
95 23 35
96 23 35
96 23 35
97 23 35
97 23 35
97 23 35
98 23 35
98 23 35
99 23 35
99 23 35
100 22 35
100 22 35
101 22 35
101 22 35
102 22 35
102 22 35
103 22 35
103 22 35
104 22 35
104 22 35
104 22 35
105 22 35
105 21 35
106 21 35
106 21 35
107 21 35
107 21 35
108 21 35
108 21 35
109 21 35
109 21 35
110 21 35
110 21 35
111 20 35
111 20 35
111 20 35
112 20 35
112 20 35
113 20 35
113 20 35
114 20 35
114 20 35
115 20 35
115 20 35
116 20 35
116 19 35
117 19 35
117 19 35
117 19 35
118 19 35
118 19 35
119 19 35
119 19 35
120 19 35
120 19 35
121 19 35
121 18 35
122 18 35
122 18 35
123 18 35
123 18 35
124 18 35
124 18 35
124 18 35
125 18 35
125 18 35
126 18 35
126 18 35
127 17 35
127 17 35
128 17 35
128 17 35
129 17 35
129 17 35
130 17 35
130 17 35
131 17 35
131 17 35
131 17 35
132 16 35
132 16 35
133 16 35
133 16 35
134 16 35
134 16 35
135 16 35
135 16 35
136 16 35
136 16 35
137 16 35
137 16 35
138 15 35
138 15 35
138 15 35
139 15 35
139 15 35
140 15 35
140 15 35
141 15 35
141 15 35
142 15 35
142 15 35
143 14 35
143 14 35
144 14 35
144 14 35
144 14 35
145 14 35
145 14 35
146 14 35
146 14 35
147 14 35
147 14 35
148 14 35
148 13 35
149 13 35
149 13 35
150 13 35
150 13 35
151 13 35
151 13 35
151 13 35
152 13 35
152 13 35
153 13 35
153 12 35
154 12 35
154 12 35
155 12 35
155 12 35
156 12 35
156 12 35
157 12 35
157 12 35
158 12 35
158 12 35
158 12 35
159 11 35
159 11 35
160 11 35
160 11 35
161 11 35
161 11 35
162 11 35
162 11 35
163 11 35
163 11 35
164 11 35
164 10 35
165 10 35
165 10 35
165 10 35
166 10 35
166 10 35
167 10 35
167 10 35
168 10 35
168 10 35
169 10 35
169 10 35
170 9 35
170 9 35
171 9 35
171 9 35
172 9 35
172 9 35
172 9 35
173 9 35
173 9 35
174 9 35
174 9 35
175 8 35
175 8 35
176 8 35
176 8 35
177 8 35
177 8 35
178 8 35
178 8 35
178 8 35
179 8 35
179 8 35
180 8 35
180 7 35
181 7 35
181 7 35
182 7 35
182 7 35
183 7 35
183 7 35
184 7 35
184 7 35
185 7 35
185 7 35
185 7 35
186 6 35
186 6 35
187 6 35
187 6 35
188 6 35
188 6 35
189 6 35
189 6 35
190 6 35
190 6 35
191 6 35
191 5 35
192 5 35
192 5 35
192 5 35
193 5 35
193 5 35
194 5 35
194 5 35
195 5 35
195 5 35
196 5 35
196 5 35
197 4 35
197 4 35
198 4 35
198 4 35
199 4 35
199 4 35
199 4 35
200 4 35
200 4 35
201 4 35
201 4 35
202 3 35
202 3 35
203 3 35
203 3 35
204 3 35
204 3 35
205 3 35
205 3 35
206 3 35
206 3 35
206 3 35
207 3 35
207 2 35
208 2 35
208 2 35
209 2 35
209 2 35
210 2 35
210 2 35
211 2 35
211 2 35
212 2 35
212 2 35
212 1 35
213 1 35
213 1 35
214 1 35
214 1 35
215 1 35
215 1 35
216 1 35
216 1 35
217 1 35
217 1 35
218 1 35
218 0 35
219 0 35
219 0 35
219 0 35
220 0 35
220 0 35
33 33 33
34 33 33
34 33 33
35 33 33
35 33 33
36 33 33
36 33 33
37 33 33
37 33 33
38 33 33
38 32 33
39 32 33
39 32 33
39 32 33
40 32 33
40 32 33
41 32 33
41 32 33
42 32 33
42 32 33
43 32 33
43 32 33
44 31 33
44 31 33
45 31 33
45 31 33
46 31 33
46 31 33
47 31 33
47 31 33
47 31 33
48 31 33
48 31 33
49 31 33
49 30 33
50 30 33
50 30 33
51 30 33
51 30 33
52 30 33
52 30 33
53 30 33
53 30 33
54 30 33
54 30 33
55 30 33
55 29 33
56 29 33
56 29 33
56 29 33
57 29 33
57 29 33
58 29 33
58 29 33
59 29 33
59 29 33
60 29 33
60 29 33
61 28 33
61 28 33
62 28 33
62 28 33
63 28 33
63 28 33
64 28 33
64 28 33
64 28 33
65 28 33
65 28 33
66 28 33
66 27 33
67 27 33
67 27 33
68 27 33
68 27 33
69 27 33
69 27 33
70 27 33
70 27 33
71 27 33
71 27 33
72 27 33
72 26 33
73 26 33
73 26 33
73 26 33
74 26 33
74 26 33
75 26 33
75 26 33
76 26 33
76 26 33
77 26 33
77 26 33
78 25 33
78 25 33
79 25 33
79 25 33
80 25 33
80 25 33
81 25 33
81 25 33
81 25 33
82 25 33
82 25 33
83 25 33
83 24 33
84 24 33
84 24 33
85 24 33
85 24 33
86 24 33
86 24 33
87 24 33
87 24 33
88 24 33
88 24 33
89 24 33
89 23 33
89 23 33
90 23 33
90 23 33
91 23 33
91 23 33
92 23 33
92 23 33
93 23 33
93 23 33
94 23 33
94 23 33
95 22 33
95 22 33
96 22 33
96 22 33
97 22 33
97 22 33
98 22 33
98 22 33
98 22 33
99 22 33
99 22 33
100 22 33
100 21 33
101 21 33
101 21 33
102 21 33
102 21 33
103 21 33
103 21 33
104 21 33
104 21 33
105 21 33
105 21 33
106 21 33
106 20 33
106 20 33
107 20 33
107 20 33
108 20 33
108 20 33
109 20 33
109 20 33
110 20 33
110 20 33
111 20 33
111 20 33
112 19 33
112 19 33
113 19 33
113 19 33
114 19 33
114 19 33
115 19 33
115 19 33
115 19 33
116 19 33
116 19 33
117 19 33
117 18 33
118 18 33
118 18 33
119 18 33
119 18 33
120 18 33
120 18 33
121 18 33
121 18 33
122 18 33
122 18 33
123 18 33
123 17 33
123 17 33
124 17 33
124 17 33
125 17 33
125 17 33
126 17 33
126 17 33
127 17 33
127 17 33
128 17 33
128 17 33
129 16 33
129 16 33
130 16 33
130 16 33
131 16 33
131 16 33
132 16 33
132 16 33
132 16 33
133 16 33
133 16 33
134 16 33
134 15 33
135 15 33
135 15 33
136 15 33
136 15 33
137 15 33
137 15 33
138 15 33
138 15 33
139 15 33
139 15 33
140 15 33
140 14 33
140 14 33
141 14 33
141 14 33
142 14 33
142 14 33
143 14 33
143 14 33
144 14 33
144 14 33
145 14 33
145 14 33
146 13 33
146 13 33
147 13 33
147 13 33
148 13 33
148 13 33
149 13 33
149 13 33
149 13 33
150 13 33
150 13 33
151 13 33
151 12 33
152 12 33
152 12 33
153 12 33
153 12 33
154 12 33
154 12 33
155 12 33
155 12 33
156 12 33
156 12 33
157 12 33
157 11 33
157 11 33
158 11 33
158 11 33
159 11 33
159 11 33
160 11 33
160 11 33
161 11 33
161 11 33
162 11 33
162 11 33
163 10 33
163 10 33
164 10 33
164 10 33
165 10 33
165 10 33
166 10 33
166 10 33
166 10 33
167 10 33
167 10 33
168 10 33
168 9 33
169 9 33
169 9 33
170 9 33
170 9 33
171 9 33
171 9 33
172 9 33
172 9 33
173 9 33
173 9 33
174 9 33
174 8 33
174 8 33
175 8 33
175 8 33
176 8 33
176 8 33
177 8 33
177 8 33
178 8 33
178 8 33
179 8 33
179 8 33
180 7 33
180 7 33
181 7 33
181 7 33
182 7 33
182 7 33
182 7 33
183 7 33
183 7 33
184 7 33
184 7 33
185 7 33
185 6 33
186 6 33
186 6 33
187 6 33
187 6 33
188 6 33
188 6 33
189 6 33
189 6 33
190 6 33
190 6 33
191 6 33
191 5 33
191 5 33
192 5 33
192 5 33
193 5 33
193 5 33
194 5 33
194 5 33
195 5 33
195 5 33
196 5 33
196 5 33
197 4 33
197 4 33
198 4 33
198 4 33
199 4 33
199 4 33
199 4 33
200 4 33
200 4 33
201 4 33
201 4 33
202 4 33
202 3 33
203 3 33
203 3 33
204 3 33
204 3 33
205 3 33
205 3 33
206 3 33
206 3 33
207 3 33
207 3 33
208 3 33
208 2 33
208 2 33
209 2 33
209 2 33
210 2 33
210 2 33
211 2 33
211 2 33
212 2 33
212 2 33
213 2 33
213 2 33
214 1 33
214 1 33
215 1 33
215 1 33
216 1 33
216 1 33
216 1 33
217 1 33
217 1 33
218 1 33
218 1 33
219 1 33
219 0 33
220 0 33
220 0 33
221 0 33
221 0 33
222 0 33
32 32 32
33 32 32
33 32 32
33 32 32
34 32 32
34 32 32
35 32 32
35 31 32
36 31 32
36 31 32
37 31 32
37 31 32
38 31 32
38 31 32
39 31 32
39 31 32
40 31 32
40 31 32
41 31 32
41 31 32
42 30 32
42 30 32
43 30 32
43 30 32
44 30 32
44 30 32
44 30 32
45 30 32
45 30 32
46 30 32
46 30 32
47 30 32
47 29 32
48 29 32
48 29 32
49 29 32
49 29 32
50 29 32
50 29 32
51 29 32
51 29 32
52 29 32
52 29 32
53 29 32
53 29 32
54 28 32
54 28 32
55 28 32
55 28 32
55 28 32
56 28 32
56 28 32
57 28 32
57 28 32
58 28 32
58 28 32
59 28 32
59 27 32
60 27 32
60 27 32
61 27 32
61 27 32
62 27 32
62 27 32
63 27 32
63 27 32
64 27 32
64 27 32
65 27 32
65 26 32
66 26 32
66 26 32
66 26 32
67 26 32
67 26 32
68 26 32
68 26 32
69 26 32
69 26 32
70 26 32
70 26 32
71 26 32
71 25 32
72 25 32
72 25 32
73 25 32
73 25 32
74 25 32
74 25 32
75 25 32
75 25 32
76 25 32
76 25 32
77 25 32
77 24 32
77 24 32
78 24 32
78 24 32
79 24 32
79 24 32
80 24 32
80 24 32
81 24 32
81 24 32
82 24 32
82 24 32
83 24 32
83 23 32
84 23 32
84 23 32
85 23 32
85 23 32
86 23 32
86 23 32
87 23 32
87 23 32
88 23 32
88 23 32
89 23 32
89 22 32
89 22 32
90 22 32
90 22 32
91 22 32
91 22 32
92 22 32
92 22 32
93 22 32
93 22 32
94 22 32
94 22 32
95 22 32
95 21 32
96 21 32
96 21 32
97 21 32
97 21 32
98 21 32
98 21 32
99 21 32
99 21 32
100 21 32
100 21 32
100 21 32
101 20 32
101 20 32
102 20 32
102 20 32
103 20 32
103 20 32
104 20 32
104 20 32
105 20 32
105 20 32
106 20 32
106 20 32
107 20 32
107 19 32
108 19 32
108 19 32
109 19 32
109 19 32
110 19 32
110 19 32
111 19 32
111 19 32
111 19 32
112 19 32
112 19 32
113 18 32
113 18 32
114 18 32
114 18 32
115 18 32
115 18 32
116 18 32
116 18 32
117 18 32
117 18 32
118 18 32
118 18 32
119 18 32
119 17 32
120 17 32
120 17 32
121 17 32
121 17 32
122 17 32
122 17 32
122 17 32
123 17 32
123 17 32
124 17 32
124 17 32
125 16 32
125 16 32
126 16 32
126 16 32
127 16 32
127 16 32
128 16 32
128 16 32
129 16 32
129 16 32
130 16 32
130 16 32
131 15 32
131 15 32
132 15 32
132 15 32
133 15 32
133 15 32
133 15 32
134 15 32
134 15 32
135 15 32
135 15 32
136 15 32
136 15 32
137 14 32
137 14 32
138 14 32
138 14 32
139 14 32
139 14 32
140 14 32
140 14 32
141 14 32
141 14 32
142 14 32
142 14 32
143 13 32
143 13 32
144 13 32
144 13 32
144 13 32
145 13 32
145 13 32
146 13 32
146 13 32
147 13 32
147 13 32
148 13 32
148 13 32
149 12 32
149 12 32
150 12 32
150 12 32
151 12 32
151 12 32
152 12 32
152 12 32
153 12 32
153 12 32
154 12 32
154 12 32
155 11 32
155 11 32
155 11 32
156 11 32
156 11 32
157 11 32
157 11 32
158 11 32
158 11 32
159 11 32
159 11 32
160 11 32
160 11 32
161 10 32
161 10 32
162 10 32
162 10 32
163 10 32
163 10 32
164 10 32
164 10 32
165 10 32
165 10 32
166 10 32
166 10 32
166 9 32
167 9 32
167 9 32
168 9 32
168 9 32
169 9 32
169 9 32
170 9 32
170 9 32
171 9 32
171 9 32
172 9 32
172 9 32
173 8 32
173 8 32
174 8 32
174 8 32
175 8 32
175 8 32
176 8 32
176 8 32
177 8 32
177 8 32
178 8 32
178 8 32
178 7 32
179 7 32
179 7 32
180 7 32
180 7 32
181 7 32
181 7 32
182 7 32
182 7 32
183 7 32
183 7 32
184 7 32
184 7 32
185 6 32
185 6 32
186 6 32
186 6 32
187 6 32
187 6 32
188 6 32
188 6 32
189 6 32
189 6 32
189 6 32
190 6 32
190 5 32
191 5 32
191 5 32
192 5 32
192 5 32
193 5 32
193 5 32
194 5 32
194 5 32
195 5 32
195 5 32
196 5 32
196 4 32
197 4 32
197 4 32
198 4 32
198 4 32
199 4 32
199 4 32
200 4 32
200 4 32
200 4 32
201 4 32
201 4 32
202 4 32
202 3 32
203 3 32
203 3 32
204 3 32
204 3 32
205 3 32
205 3 32
206 3 32
206 3 32
207 3 32
207 3 32
208 3 32
208 2 32
209 2 32
209 2 32
210 2 32
210 2 32
211 2 32
211 2 32
211 2 32
212 2 32
212 2 32
213 2 32
213 2 32
214 2 32
214 1 32
215 1 32
215 1 32
216 1 32
216 1 32
217 1 32
217 1 32
218 1 32
218 1 32
219 1 32
219 1 32
220 1 32
220 0 32
221 0 32
221 0 32
222 0 32
222 0 32
222 0 32
223 0 32
31 31 31
31 31 31
32 31 31
32 31 31
33 30 31
33 30 31
34 30 31
34 30 31
35 30 31
35 30 31
36 30 31
36 30 31
37 30 31
37 30 31
38 30 31
38 30 31
39 30 31
39 29 31
39 29 31
40 29 31
40 29 31
41 29 31
41 29 31
42 29 31
42 29 31
43 29 31
43 29 31
44 29 31
44 29 31
45 29 31
45 28 31
46 28 31
46 28 31
47 28 31
47 28 31
48 28 31
48 28 31
49 28 31
49 28 31
50 28 31
50 28 31
51 28 31
51 28 31
52 27 31
52 27 31
53 27 31
53 27 31
54 27 31
54 27 31
55 27 31
55 27 31
55 27 31
56 27 31
56 27 31
57 27 31
57 27 31
58 26 31
58 26 31
59 26 31
59 26 31
60 26 31
60 26 31
61 26 31
61 26 31
62 26 31
62 26 31
63 26 31
63 26 31
64 26 31
64 25 31
65 25 31
65 25 31
66 25 31
66 25 31
67 25 31
67 25 31
68 25 31
68 25 31
69 25 31
69 25 31
70 25 31
70 25 31
71 24 31
71 24 31
71 24 31
72 24 31
72 24 31
73 24 31
73 24 31
74 24 31
74 24 31
75 24 31
75 24 31
76 24 31
76 24 31
77 23 31
77 23 31
78 23 31
78 23 31
79 23 31
79 23 31
80 23 31
80 23 31
81 23 31
81 23 31
82 23 31
82 23 31
83 23 31
83 22 31
84 22 31
84 22 31
85 22 31
85 22 31
86 22 31
86 22 31
87 22 31
87 22 31
87 22 31
88 22 31
88 22 31
89 22 31
89 21 31
90 21 31
90 21 31
91 21 31
91 21 31
92 21 31
92 21 31
93 21 31
93 21 31
94 21 31
94 21 31
95 21 31
95 21 31
96 20 31
96 20 31
97 20 31
97 20 31
98 20 31
98 20 31
99 20 31
99 20 31
100 20 31
100 20 31
101 20 31
101 20 31
102 20 31
102 19 31
103 19 31
103 19 31
103 19 31
104 19 31
104 19 31
105 19 31
105 19 31
106 19 31
106 19 31
107 19 31
107 19 31
108 18 31
108 18 31
109 18 31
109 18 31
110 18 31
110 18 31
111 18 31
111 18 31
112 18 31
112 18 31
113 18 31
113 18 31
114 18 31
114 17 31
115 17 31
115 17 31
116 17 31
116 17 31
117 17 31
117 17 31
118 17 31
118 17 31
119 17 31
119 17 31
119 17 31
120 17 31
120 16 31
121 16 31
121 16 31
122 16 31
122 16 31
123 16 31
123 16 31
124 16 31
124 16 31
125 16 31
125 16 31
126 16 31
126 16 31
127 15 31
127 15 31
128 15 31
128 15 31
129 15 31
129 15 31
130 15 31
130 15 31
131 15 31
131 15 31
132 15 31
132 15 31
133 15 31
133 14 31
134 14 31
134 14 31
135 14 31
135 14 31
136 14 31
136 14 31
136 14 31
137 14 31
137 14 31
138 14 31
138 14 31
139 14 31
139 13 31
140 13 31
140 13 31
141 13 31
141 13 31
142 13 31
142 13 31
143 13 31
143 13 31
144 13 31
144 13 31
145 13 31
145 13 31
146 12 31
146 12 31
147 12 31
147 12 31
148 12 31
148 12 31
149 12 31
149 12 31
150 12 31
150 12 31
151 12 31
151 12 31
152 12 31
152 11 31
152 11 31
153 11 31
153 11 31
154 11 31
154 11 31
155 11 31
155 11 31
156 11 31
156 11 31
157 11 31
157 11 31
158 11 31
158 10 31
159 10 31
159 10 31
160 10 31
160 10 31
161 10 31
161 10 31
162 10 31
162 10 31
163 10 31
163 10 31
164 10 31
164 10 31
165 9 31
165 9 31
166 9 31
166 9 31
167 9 31
167 9 31
168 9 31
168 9 31
168 9 31
169 9 31
169 9 31
170 9 31
170 9 31
171 8 31
171 8 31
172 8 31
172 8 31
173 8 31
173 8 31
174 8 31
174 8 31
175 8 31
175 8 31
176 8 31
176 8 31
177 8 31
177 7 31
178 7 31
178 7 31
179 7 31
179 7 31
180 7 31
180 7 31
181 7 31
181 7 31
182 7 31
182 7 31
183 7 31
183 7 31
184 6 31
184 6 31
184 6 31
185 6 31
185 6 31
186 6 31
186 6 31
187 6 31
187 6 31
188 6 31
188 6 31
189 6 31
189 6 31
190 5 31
190 5 31
191 5 31
191 5 31
192 5 31
192 5 31
193 5 31
193 5 31
194 5 31
194 5 31
195 5 31
195 5 31
196 5 31
196 4 31
197 4 31
197 4 31
198 4 31
198 4 31
199 4 31
199 4 31
200 4 31
200 4 31
200 4 31
201 4 31
201 4 31
202 4 31
202 3 31
203 3 31
203 3 31
204 3 31
204 3 31
205 3 31
205 3 31
206 3 31
206 3 31
207 3 31
207 3 31
208 3 31
208 3 31
209 2 31
209 2 31
210 2 31
210 2 31
211 2 31
211 2 31
212 2 31
212 2 31
213 2 31
213 2 31
214 2 31
214 2 31
215 2 31
215 1 31
216 1 31
216 1 31
216 1 31
217 1 31
217 1 31
218 1 31
218 1 31
219 1 31
219 1 31
220 1 31
220 1 31
221 1 31
221 0 31
222 0 31
222 0 31
223 0 31
223 0 31
224 0 31
224 0 31
29 29 29
30 29 29
30 29 29
31 29 29
31 29 29
32 29 29
32 29 29
33 29 29
33 29 29
34 29 29
34 29 29
35 29 29
35 29 29
36 29 29
36 28 29
37 28 29
37 28 29
38 28 29
38 28 29
39 28 29
39 28 29
40 28 29
40 28 29
41 28 29
41 28 29
42 28 29
42 28 29
43 27 29
43 27 29
44 27 29
44 27 29
45 27 29
45 27 29
46 27 29
46 27 29
47 27 29
47 27 29
48 27 29
48 27 29
49 27 29
49 27 29
50 26 29
50 26 29
51 26 29
51 26 29
52 26 29
52 26 29
53 26 29
53 26 29
54 26 29
54 26 29
55 26 29
55 26 29
56 26 29
56 25 29
56 25 29
57 25 29
57 25 29
58 25 29
58 25 29
59 25 29
59 25 29
60 25 29
60 25 29
61 25 29
61 25 29
62 25 29
62 25 29
63 24 29
63 24 29
64 24 29
64 24 29
65 24 29
65 24 29
66 24 29
66 24 29
67 24 29
67 24 29
68 24 29
68 24 29
69 24 29
69 23 29
70 23 29
70 23 29
71 23 29
71 23 29
72 23 29
72 23 29
73 23 29
73 23 29
74 23 29
74 23 29
75 23 29
75 23 29
76 23 29
76 22 29
77 22 29
77 22 29
78 22 29
78 22 29
79 22 29
79 22 29
80 22 29
80 22 29
81 22 29
81 22 29
82 22 29
82 22 29
83 21 29
83 21 29
84 21 29
84 21 29
85 21 29
85 21 29
85 21 29
86 21 29
86 21 29
87 21 29
87 21 29
88 21 29
88 21 29
89 21 29
89 20 29
90 20 29
90 20 29
91 20 29
91 20 29
92 20 29
92 20 29
93 20 29
93 20 29
94 20 29
94 20 29
95 20 29
95 20 29
96 20 29
96 19 29
97 19 29
97 19 29
98 19 29
98 19 29
99 19 29
99 19 29
100 19 29
100 19 29
101 19 29
101 19 29
102 19 29
102 19 29
103 18 29
103 18 29
104 18 29
104 18 29
105 18 29
105 18 29
106 18 29
106 18 29
107 18 29
107 18 29
108 18 29
108 18 29
109 18 29
109 18 29
110 17 29
110 17 29
111 17 29
111 17 29
112 17 29
112 17 29
113 17 29
113 17 29
113 17 29
114 17 29
114 17 29
115 17 29
115 17 29
116 16 29
116 16 29
117 16 29
117 16 29
118 16 29
118 16 29
119 16 29
119 16 29
120 16 29
120 16 29
121 16 29
121 16 29
122 16 29
122 16 29
123 15 29
123 15 29
124 15 29
124 15 29
125 15 29
125 15 29
126 15 29
126 15 29
127 15 29
127 15 29
128 15 29
128 15 29
129 15 29
129 14 29
130 14 29
130 14 29
131 14 29
131 14 29
132 14 29
132 14 29
133 14 29
133 14 29
134 14 29
134 14 29
135 14 29
135 14 29
136 14 29
136 13 29
137 13 29
137 13 29
138 13 29
138 13 29
139 13 29
139 13 29
140 13 29
140 13 29
141 13 29
141 13 29
142 13 29
142 13 29
142 12 29
143 12 29
143 12 29
144 12 29
144 12 29
145 12 29
145 12 29
146 12 29
146 12 29
147 12 29
147 12 29
148 12 29
148 12 29
149 12 29
149 11 29
150 11 29
150 11 29
151 11 29
151 11 29
152 11 29
152 11 29
153 11 29
153 11 29
154 11 29
154 11 29
155 11 29
155 11 29
156 10 29
156 10 29
157 10 29
157 10 29
158 10 29
158 10 29
159 10 29
159 10 29
160 10 29
160 10 29
161 10 29
161 10 29
162 10 29
162 10 29
163 9 29
163 9 29
164 9 29
164 9 29
165 9 29
165 9 29
166 9 29
166 9 29
167 9 29
167 9 29
168 9 29
168 9 29
169 9 29
169 8 29
170 8 29
170 8 29
170 8 29
171 8 29
171 8 29
172 8 29
172 8 29
173 8 29
173 8 29
174 8 29
174 8 29
175 8 29
175 8 29
176 7 29
176 7 29
177 7 29
177 7 29
178 7 29
178 7 29
179 7 29
179 7 29
180 7 29
180 7 29
181 7 29
181 7 29
182 7 29
182 7 29
183 6 29
183 6 29
184 6 29
184 6 29
185 6 29
185 6 29
186 6 29
186 6 29
187 6 29
187 6 29
188 6 29
188 6 29
189 6 29
189 5 29
190 5 29
190 5 29
191 5 29
191 5 29
192 5 29
192 5 29
193 5 29
193 5 29
194 5 29
194 5 29
195 5 29
195 5 29
196 5 29
196 4 29
197 4 29
197 4 29
198 4 29
198 4 29
199 4 29
199 4 29
199 4 29
200 4 29
200 4 29
201 4 29
201 4 29
202 4 29
202 3 29
203 3 29
203 3 29
204 3 29
204 3 29
205 3 29
205 3 29
206 3 29
206 3 29
207 3 29
207 3 29
208 3 29
208 3 29
209 3 29
209 2 29
210 2 29
210 2 29
211 2 29
211 2 29
212 2 29
212 2 29
213 2 29
213 2 29
214 2 29
214 2 29
215 2 29
215 2 29
216 1 29
216 1 29
217 1 29
217 1 29
218 1 29
218 1 29
219 1 29
219 1 29
220 1 29
220 1 29
221 1 29
221 1 29
222 1 29
222 1 29
223 0 29
223 0 29
224 0 29
224 0 29
225 0 29
225 0 29
226 0 29
28 28 28
29 28 28
29 28 28
30 28 28
30 28 28
31 28 28
31 28 28
32 28 28
32 28 28
33 28 28
33 27 28
34 27 28
34 27 28
35 27 28
35 27 28
36 27 28
36 27 28
37 27 28
37 27 28
38 27 28
38 27 28
39 27 28
39 27 28
40 27 28
40 26 28
41 26 28
41 26 28
42 26 28
42 26 28
43 26 28
43 26 28
44 26 28
44 26 28
45 26 28
45 26 28
46 26 28
46 26 28
47 26 28
47 26 28
48 25 28
48 25 28
49 25 28
49 25 28
50 25 28
50 25 28
51 25 28
51 25 28
52 25 28
52 25 28
53 25 28
53 25 28
54 25 28
54 25 28
55 24 28
55 24 28
56 24 28
56 24 28
57 24 28
57 24 28
58 24 28
58 24 28
59 24 28
59 24 28
60 24 28
60 24 28
61 24 28
61 24 28
62 23 28
62 23 28
63 23 28
63 23 28
64 23 28
64 23 28
65 23 28
65 23 28
66 23 28
66 23 28
67 23 28
67 23 28
68 23 28
68 23 28
69 22 28
69 22 28
70 22 28
70 22 28
71 22 28
71 22 28
71 22 28
72 22 28
72 22 28
73 22 28
73 22 28
74 22 28
74 22 28
75 22 28
75 21 28
76 21 28
76 21 28
77 21 28
77 21 28
78 21 28
78 21 28
79 21 28
79 21 28
80 21 28
80 21 28
81 21 28
81 21 28
82 21 28
82 20 28
83 20 28
83 20 28
84 20 28
84 20 28
85 20 28
85 20 28
86 20 28
86 20 28
87 20 28
87 20 28
88 20 28
88 20 28
89 20 28
89 20 28
90 19 28
90 19 28
91 19 28
91 19 28
92 19 28
92 19 28
93 19 28
93 19 28
94 19 28
94 19 28
95 19 28
95 19 28
96 19 28
96 19 28
97 18 28
97 18 28
98 18 28
98 18 28
99 18 28
99 18 28
100 18 28
100 18 28
101 18 28
101 18 28
102 18 28
102 18 28
103 18 28
103 18 28
104 17 28
104 17 28
105 17 28
105 17 28
106 17 28
106 17 28
107 17 28
107 17 28
108 17 28
108 17 28
109 17 28
109 17 28
110 17 28
110 17 28
111 16 28
111 16 28
112 16 28
112 16 28
113 16 28
113 16 28
114 16 28
114 16 28
115 16 28
115 16 28
116 16 28
116 16 28
117 16 28
117 16 28
118 15 28
118 15 28
119 15 28
119 15 28
120 15 28
120 15 28
121 15 28
121 15 28
122 15 28
122 15 28
123 15 28
123 15 28
124 15 28
124 15 28
125 14 28
125 14 28
126 14 28
126 14 28
127 14 28
127 14 28
128 14 28
128 14 28
129 14 28
129 14 28
130 14 28
130 14 28
131 14 28
131 14 28
132 13 28
132 13 28
133 13 28
133 13 28
134 13 28
134 13 28
135 13 28
135 13 28
136 13 28
136 13 28
137 13 28
137 13 28
138 13 28
138 13 28
139 13 28
139 12 28
140 12 28
140 12 28
141 12 28
141 12 28
142 12 28
142 12 28
143 12 28
143 12 28
144 12 28
144 12 28
145 12 28
145 12 28
146 12 28
146 11 28
147 11 28
147 11 28
148 11 28
148 11 28
149 11 28
149 11 28
150 11 28
150 11 28
151 11 28
151 11 28
152 11 28
152 11 28
153 11 28
153 10 28
154 10 28
154 10 28
155 10 28
155 10 28
156 10 28
156 10 28
157 10 28
157 10 28
158 10 28
158 10 28
159 10 28
159 10 28
160 10 28
160 9 28
161 9 28
161 9 28
162 9 28
162 9 28
163 9 28
163 9 28
164 9 28
164 9 28
165 9 28
165 9 28
166 9 28
166 9 28
167 9 28
167 8 28
168 8 28
168 8 28
169 8 28
169 8 28
170 8 28
170 8 28
171 8 28
171 8 28
172 8 28
172 8 28
173 8 28
173 8 28
174 8 28
174 7 28
175 7 28
175 7 28
176 7 28
176 7 28
177 7 28
177 7 28
178 7 28
178 7 28
179 7 28
179 7 28
180 7 28
180 7 28
181 7 28
181 7 28
182 6 28
182 6 28
183 6 28
183 6 28
184 6 28
184 6 28
184 6 28
185 6 28
185 6 28
186 6 28
186 6 28
187 6 28
187 6 28
188 6 28
188 5 28
189 5 28
189 5 28
190 5 28
190 5 28
191 5 28
191 5 28
192 5 28
192 5 28
193 5 28
193 5 28
194 5 28
194 5 28
195 5 28
195 4 28
196 4 28
196 4 28
197 4 28
197 4 28
198 4 28
198 4 28
199 4 28
199 4 28
200 4 28
200 4 28
201 4 28
201 4 28
202 4 28
202 3 28
203 3 28
203 3 28
204 3 28
204 3 28
205 3 28
205 3 28
206 3 28
206 3 28
207 3 28
207 3 28
208 3 28
208 3 28
209 3 28
209 2 28
210 2 28
210 2 28
211 2 28
211 2 28
212 2 28
212 2 28
213 2 28
213 2 28
214 2 28
214 2 28
215 2 28
215 2 28
216 2 28
216 1 28
217 1 28
217 1 28
218 1 28
218 1 28
219 1 28
219 1 28
220 1 28
220 1 28
221 1 28
221 1 28
222 1 28
222 1 28
223 1 28
223 0 28
224 0 28
224 0 28
225 0 28
225 0 28
226 0 28
226 0 28
227 0 28
27 27 27
27 27 27
28 27 27
28 27 27
29 27 27
29 27 27
30 27 27
30 26 27
31 26 27
31 26 27
32 26 27
32 26 27
33 26 27
33 26 27
34 26 27
34 26 27
35 26 27
35 26 27
36 26 27
36 26 27
37 26 27
37 25 27
38 25 27
39 25 27
39 25 27
40 25 27
40 25 27
41 25 27
41 25 27
42 25 27
42 25 27
43 25 27
43 25 27
44 25 27
44 25 27
45 25 27
45 24 27
46 24 27
46 24 27
47 24 27
47 24 27
48 24 27
48 24 27
49 24 27
49 24 27
50 24 27
50 24 27
51 24 27
51 24 27
52 24 27
52 24 27
53 23 27
53 23 27
54 23 27
54 23 27
55 23 27
55 23 27
56 23 27
56 23 27
57 23 27
57 23 27
58 23 27
58 23 27
59 23 27
59 23 27
60 23 27
60 22 27
61 22 27
61 22 27
62 22 27
62 22 27
63 22 27
63 22 27
64 22 27
64 22 27
65 22 27
65 22 27
66 22 27
66 22 27
67 22 27
67 22 27
68 21 27
68 21 27
69 21 27
69 21 27
70 21 27
70 21 27
71 21 27
71 21 27
72 21 27
72 21 27
73 21 27
73 21 27
74 21 27
74 21 27
75 21 27
75 20 27
76 20 27
76 20 27
77 20 27
77 20 27
78 20 27
78 20 27
79 20 27
79 20 27
80 20 27
80 20 27
81 20 27
81 20 27
82 20 27
82 19 27
83 19 27
83 19 27
84 19 27
84 19 27
85 19 27
85 19 27
86 19 27
86 19 27
87 19 27
87 19 27
88 19 27
88 19 27
89 19 27
89 19 27
90 18 27
90 18 27
91 18 27
91 18 27
92 18 27
92 18 27
93 18 27
93 18 27
94 18 27
94 18 27
95 18 27
95 18 27
96 18 27
96 18 27
97 18 27
97 17 27
98 17 27
99 17 27
99 17 27
100 17 27
100 17 27
101 17 27
101 17 27
102 17 27
102 17 27
103 17 27
103 17 27
104 17 27
104 17 27
105 17 27
105 16 27
106 16 27
106 16 27
107 16 27
107 16 27
108 16 27
108 16 27
109 16 27
109 16 27
110 16 27
110 16 27
111 16 27
111 16 27
112 16 27
112 16 27
113 15 27
113 15 27
114 15 27
114 15 27
115 15 27
115 15 27
116 15 27
116 15 27
117 15 27
117 15 27
118 15 27
118 15 27
119 15 27
119 15 27
120 15 27
120 14 27
121 14 27
121 14 27
122 14 27
122 14 27
123 14 27
123 14 27
124 14 27
124 14 27
125 14 27
125 14 27
126 14 27
126 14 27
127 14 27
127 13 27
128 13 27
128 13 27
129 13 27
129 13 27
130 13 27
130 13 27
131 13 27
131 13 27
132 13 27
132 13 27
133 13 27
133 13 27
134 13 27
134 13 27
135 12 27
135 12 27
136 12 27
136 12 27
137 12 27
137 12 27
138 12 27
138 12 27
139 12 27
139 12 27
140 12 27
140 12 27
141 12 27
141 12 27
142 12 27
142 11 27
143 11 27
143 11 27
144 11 27
144 11 27
145 11 27
145 11 27
146 11 27
146 11 27
147 11 27
147 11 27
148 11 27
148 11 27
149 11 27
149 11 27
150 10 27
150 10 27
151 10 27
151 10 27
152 10 27
152 10 27
153 10 27
153 10 27
154 10 27
154 10 27
155 10 27
155 10 27
156 10 27
156 10 27
157 10 27
158 9 27
158 9 27
159 9 27
159 9 27
160 9 27
160 9 27
161 9 27
161 9 27
162 9 27
162 9 27
163 9 27
163 9 27
164 9 27
164 9 27
165 8 27
165 8 27
166 8 27
166 8 27
167 8 27
167 8 27
168 8 27
168 8 27
169 8 27
169 8 27
170 8 27
170 8 27
171 8 27
171 8 27
172 8 27
172 7 27
173 7 27
173 7 27
174 7 27
174 7 27
175 7 27
175 7 27
176 7 27
176 7 27
177 7 27
177 7 27
178 7 27
178 7 27
179 7 27
179 7 27
180 6 27
180 6 27
181 6 27
181 6 27
182 6 27
182 6 27
183 6 27
183 6 27
184 6 27
184 6 27
185 6 27
185 6 27
186 6 27
186 6 27
187 6 27
187 5 27
188 5 27
188 5 27
189 5 27
189 5 27
190 5 27
190 5 27
191 5 27
191 5 27
192 5 27
192 5 27
193 5 27
193 5 27
194 5 27
194 5 27
195 4 27
195 4 27
196 4 27
196 4 27
197 4 27
197 4 27
198 4 27
198 4 27
199 4 27
199 4 27
200 4 27
200 4 27
201 4 27
201 4 27
202 4 27
202 3 27
203 3 27
203 3 27
204 3 27
204 3 27
205 3 27
205 3 27
206 3 27
206 3 27
207 3 27
207 3 27
208 3 27
208 3 27
209 3 27
209 2 27
210 2 27
210 2 27
211 2 27
211 2 27
212 2 27
212 2 27
213 2 27
213 2 27
214 2 27
214 2 27
215 2 27
215 2 27
216 2 27
216 2 27
217 1 27
218 1 27
218 1 27
219 1 27
219 1 27
220 1 27
220 1 27
221 1 27
221 1 27
222 1 27
222 1 27
223 1 27
223 1 27
224 1 27
224 1 27
225 0 27
225 0 27
226 0 27
226 0 27
227 0 27
227 0 27
228 0 27
228 0 27
26 26 26
26 26 26
27 25 26
27 25 26
28 25 26
28 25 26
29 25 26
29 25 26
30 25 26
30 25 26
31 25 26
31 25 26
32 25 26
32 25 26
33 25 26
33 25 26
34 25 26
34 25 26
35 24 26
35 24 26
36 24 26
36 24 26
37 24 26
37 24 26
38 24 26
38 24 26
39 24 26
39 24 26
40 24 26
40 24 26
41 24 26
41 24 26
42 24 26
42 24 26
43 23 26
44 23 26
44 23 26
45 23 26
45 23 26
46 23 26
46 23 26
47 23 26
47 23 26
48 23 26
48 23 26
49 23 26
49 23 26
50 23 26
50 23 26
51 22 26
51 22 26
52 22 26
52 22 26
53 22 26
53 22 26
54 22 26
54 22 26
55 22 26
55 22 26
56 22 26
56 22 26
57 22 26
57 22 26
58 22 26
58 22 26
59 21 26
59 21 26
60 21 26
60 21 26
61 21 26
61 21 26
62 21 26
62 21 26
63 21 26
63 21 26
64 21 26
64 21 26
65 21 26
65 21 26
66 21 26
66 20 26
67 20 26
68 20 26
68 20 26
69 20 26
69 20 26
70 20 26
70 20 26
71 20 26
71 20 26
72 20 26
72 20 26
73 20 26
73 20 26
74 20 26
74 20 26
75 19 26
75 19 26
76 19 26
76 19 26
77 19 26
77 19 26
78 19 26
78 19 26
79 19 26
79 19 26
80 19 26
80 19 26
81 19 26
81 19 26
82 19 26
82 18 26
83 18 26
83 18 26
84 18 26
84 18 26
85 18 26
85 18 26
86 18 26
86 18 26
87 18 26
87 18 26
88 18 26
88 18 26
89 18 26
89 18 26
90 18 26
90 17 26
91 17 26
92 17 26
92 17 26
93 17 26
93 17 26
94 17 26
94 17 26
95 17 26
95 17 26
96 17 26
96 17 26
97 17 26
97 17 26
98 17 26
98 17 26
99 16 26
99 16 26
100 16 26
100 16 26
101 16 26
101 16 26
102 16 26
102 16 26
103 16 26
103 16 26
104 16 26
104 16 26
105 16 26
105 16 26
106 16 26
106 15 26
107 15 26
107 15 26
108 15 26
108 15 26
109 15 26
109 15 26
110 15 26
110 15 26
111 15 26
111 15 26
112 15 26
112 15 26
113 15 26
113 15 26
114 15 26
114 14 26
115 14 26
116 14 26
116 14 26
117 14 26
117 14 26
118 14 26
118 14 26
119 14 26
119 14 26
120 14 26
120 14 26
121 14 26
121 14 26
122 14 26
122 13 26
123 13 26
123 13 26
124 13 26
124 13 26
125 13 26
125 13 26
126 13 26
126 13 26
127 13 26
127 13 26
128 13 26
128 13 26
129 13 26
129 13 26
130 13 26
130 12 26
131 12 26
131 12 26
132 12 26
132 12 26
133 12 26
133 12 26
134 12 26
134 12 26
135 12 26
135 12 26
136 12 26
136 12 26
137 12 26
137 12 26
138 11 26
138 11 26
139 11 26
139 11 26
140 11 26
141 11 26
141 11 26
142 11 26
142 11 26
143 11 26
143 11 26
144 11 26
144 11 26
145 11 26
145 11 26
146 11 26
146 10 26
147 10 26
147 10 26
148 10 26
148 10 26
149 10 26
149 10 26
150 10 26
150 10 26
151 10 26
151 10 26
152 10 26
152 10 26
153 10 26
153 10 26
154 10 26
154 9 26
155 9 26
155 9 26
156 9 26
156 9 26
157 9 26
157 9 26
158 9 26
158 9 26
159 9 26
159 9 26
160 9 26
160 9 26
161 9 26
161 9 26
162 8 26
162 8 26
163 8 26
163 8 26
164 8 26
165 8 26
165 8 26
166 8 26
166 8 26
167 8 26
167 8 26
168 8 26
168 8 26
169 8 26
169 8 26
170 8 26
170 7 26
171 7 26
171 7 26
172 7 26
172 7 26
173 7 26
173 7 26
174 7 26
174 7 26
175 7 26
175 7 26
176 7 26
176 7 26
177 7 26
177 7 26
178 6 26
178 6 26
179 6 26
179 6 26
180 6 26
180 6 26
181 6 26
181 6 26
182 6 26
182 6 26
183 6 26
183 6 26
184 6 26
184 6 26
185 6 26
185 6 26
186 5 26
186 5 26
187 5 26
187 5 26
188 5 26
189 5 26
189 5 26
190 5 26
190 5 26
191 5 26
191 5 26
192 5 26
192 5 26
193 5 26
193 5 26
194 4 26
194 4 26
195 4 26
195 4 26
196 4 26
196 4 26
197 4 26
197 4 26
198 4 26
198 4 26
199 4 26
199 4 26
200 4 26
200 4 26
201 4 26
201 4 26
202 3 26
202 3 26
203 3 26
203 3 26
204 3 26
204 3 26
205 3 26
205 3 26
206 3 26
206 3 26
207 3 26
207 3 26
208 3 26
208 3 26
209 3 26
209 3 26
210 2 26
210 2 26
211 2 26
211 2 26
212 2 26
213 2 26
213 2 26
214 2 26
214 2 26
215 2 26
215 2 26
216 2 26
216 2 26
217 2 26
217 2 26
218 1 26
218 1 26
219 1 26
219 1 26
220 1 26
220 1 26
221 1 26
221 1 26
222 1 26
222 1 26
223 1 26
223 1 26
224 1 26
224 1 26
225 1 26
225 1 26
226 0 26
226 0 26
227 0 26
227 0 26
228 0 26
228 0 26
229 0 26
229 0 26
24 24 24
25 24 24
25 24 24
26 24 24
26 24 24
27 24 24
27 24 24
28 24 24
28 24 24
29 24 24
30 24 24
30 24 24
31 24 24
31 24 24
32 23 24
32 23 24
33 23 24
33 23 24
34 23 24
34 23 24
35 23 24
35 23 24
36 23 24
36 23 24
37 23 24
37 23 24
38 23 24
38 23 24
39 23 24
39 23 24
40 23 24
40 22 24
41 22 24
41 22 24
42 22 24
42 22 24
43 22 24
43 22 24
44 22 24
45 22 24
45 22 24
46 22 24
46 22 24
47 22 24
47 22 24
48 22 24
48 22 24
49 21 24
49 21 24
50 21 24
50 21 24
51 21 24
51 21 24
52 21 24
52 21 24
53 21 24
53 21 24
54 21 24
54 21 24
55 21 24
55 21 24
56 21 24
56 21 24
57 21 24
57 20 24
58 20 24
58 20 24
59 20 24
60 20 24
60 20 24
61 20 24
61 20 24
62 20 24
62 20 24
63 20 24
63 20 24
64 20 24
64 20 24
65 20 24
65 20 24
66 19 24
66 19 24
67 19 24
67 19 24
68 19 24
68 19 24
69 19 24
69 19 24
70 19 24
70 19 24
71 19 24
71 19 24
72 19 24
72 19 24
73 19 24
73 19 24
74 18 24
75 18 24
75 18 24
76 18 24
76 18 24
77 18 24
77 18 24
78 18 24
78 18 24
79 18 24
79 18 24
80 18 24
80 18 24
81 18 24
81 18 24
82 18 24
82 18 24
83 17 24
83 17 24
84 17 24
84 17 24
85 17 24
85 17 24
86 17 24
86 17 24
87 17 24
87 17 24
88 17 24
88 17 24
89 17 24
89 17 24
90 17 24
91 17 24
91 16 24
92 16 24
92 16 24
93 16 24
93 16 24
94 16 24
94 16 24
95 16 24
95 16 24
96 16 24
96 16 24
97 16 24
97 16 24
98 16 24
98 16 24
99 16 24
99 15 24
100 15 24
100 15 24
101 15 24
101 15 24
102 15 24
102 15 24
103 15 24
103 15 24
104 15 24
104 15 24
105 15 24
106 15 24
106 15 24
107 15 24
107 15 24
108 15 24
108 14 24
109 14 24
109 14 24
110 14 24
110 14 24
111 14 24
111 14 24
112 14 24
112 14 24
113 14 24
113 14 24
114 14 24
114 14 24
115 14 24
115 14 24
116 14 24
116 13 24
117 13 24
117 13 24
118 13 24
118 13 24
119 13 24
119 13 24
120 13 24
121 13 24
121 13 24
122 13 24
122 13 24
123 13 24
123 13 24
124 13 24
124 13 24
125 13 24
125 12 24
126 12 24
126 12 24
127 12 24
127 12 24
128 12 24
128 12 24
129 12 24
129 12 24
130 12 24
130 12 24
131 12 24
131 12 24
132 12 24
132 12 24
133 12 24
133 11 24
134 11 24
134 11 24
135 11 24
136 11 24
136 11 24
137 11 24
137 11 24
138 11 24
138 11 24
139 11 24
139 11 24
140 11 24
140 11 24
141 11 24
141 11 24
142 10 24
142 10 24
143 10 24
143 10 24
144 10 24
144 10 24
145 10 24
145 10 24
146 10 24
146 10 24
147 10 24
147 10 24
148 10 24
148 10 24
149 10 24
149 10 24
150 10 24
151 9 24
151 9 24
152 9 24
152 9 24
153 9 24
153 9 24
154 9 24
154 9 24
155 9 24
155 9 24
156 9 24
156 9 24
157 9 24
157 9 24
158 9 24
158 9 24
159 8 24
159 8 24
160 8 24
160 8 24
161 8 24
161 8 24
162 8 24
162 8 24
163 8 24
163 8 24
164 8 24
164 8 24
165 8 24
166 8 24
166 8 24
167 8 24
167 8 24
168 7 24
168 7 24
169 7 24
169 7 24
170 7 24
170 7 24
171 7 24
171 7 24
172 7 24
172 7 24
173 7 24
173 7 24
174 7 24
174 7 24
175 7 24
175 7 24
176 6 24
176 6 24
177 6 24
177 6 24
178 6 24
178 6 24
179 6 24
179 6 24
180 6 24
180 6 24
181 6 24
182 6 24
182 6 24
183 6 24
183 6 24
184 6 24
184 5 24
185 5 24
185 5 24
186 5 24
186 5 24
187 5 24
187 5 24
188 5 24
188 5 24
189 5 24
189 5 24
190 5 24
190 5 24
191 5 24
191 5 24
192 5 24
192 5 24
193 4 24
193 4 24
194 4 24
194 4 24
195 4 24
195 4 24
196 4 24
197 4 24
197 4 24
198 4 24
198 4 24
199 4 24
199 4 24
200 4 24
200 4 24
201 4 24
201 3 24
202 3 24
202 3 24
203 3 24
203 3 24
204 3 24
204 3 24
205 3 24
205 3 24
206 3 24
206 3 24
207 3 24
207 3 24
208 3 24
208 3 24
209 3 24
209 3 24
210 2 24
210 2 24
211 2 24
212 2 24
212 2 24
213 2 24
213 2 24
214 2 24
214 2 24
215 2 24
215 2 24
216 2 24
216 2 24
217 2 24
217 2 24
218 2 24
218 1 24
219 1 24
219 1 24
220 1 24
220 1 24
221 1 24
221 1 24
222 1 24
222 1 24
223 1 24
223 1 24
224 1 24
224 1 24
225 1 24
225 1 24
226 1 24
227 0 24
227 0 24
228 0 24
228 0 24
229 0 24
229 0 24
230 0 24
230 0 24
231 0 24
23 23 23
24 23 23
24 23 23
25 23 23
25 23 23
26 23 23
26 23 23
27 23 23
27 23 23
28 23 23
28 22 23
29 22 23
29 22 23
30 22 23
30 22 23
31 22 23
31 22 23
32 22 23
32 22 23
33 22 23
34 22 23
34 22 23
35 22 23
35 22 23
36 22 23
36 22 23
37 22 23
37 22 23
38 21 23
38 21 23
39 21 23
39 21 23
40 21 23
40 21 23
41 21 23
41 21 23
42 21 23
42 21 23
43 21 23
43 21 23
44 21 23
45 21 23
45 21 23
46 21 23
46 21 23
47 20 23
47 20 23
48 20 23
48 20 23
49 20 23
49 20 23
50 20 23
50 20 23
51 20 23
51 20 23
52 20 23
52 20 23
53 20 23
53 20 23
54 20 23
54 20 23
55 20 23
56 19 23
56 19 23
57 19 23
57 19 23
58 19 23
58 19 23
59 19 23
59 19 23
60 19 23
60 19 23
61 19 23
61 19 23
62 19 23
62 19 23
63 19 23
63 19 23
64 19 23
64 18 23
65 18 23
65 18 23
66 18 23
67 18 23
67 18 23
68 18 23
68 18 23
69 18 23
69 18 23
70 18 23
70 18 23
71 18 23
71 18 23
72 18 23
72 18 23
73 18 23
73 18 23
74 17 23
74 17 23
75 17 23
75 17 23
76 17 23
76 17 23
77 17 23
78 17 23
78 17 23
79 17 23
79 17 23
80 17 23
80 17 23
81 17 23
81 17 23
82 17 23
82 17 23
83 16 23
83 16 23
84 16 23
84 16 23
85 16 23
85 16 23
86 16 23
86 16 23
87 16 23
87 16 23
88 16 23
89 16 23
89 16 23
90 16 23
90 16 23
91 16 23
91 16 23
92 15 23
92 15 23
93 15 23
93 15 23
94 15 23
94 15 23
95 15 23
95 15 23
96 15 23
96 15 23
97 15 23
97 15 23
98 15 23
98 15 23
99 15 23
99 15 23
100 15 23
101 15 23
101 14 23
102 14 23
102 14 23
103 14 23
103 14 23
104 14 23
104 14 23
105 14 23
105 14 23
106 14 23
106 14 23
107 14 23
107 14 23
108 14 23
108 14 23
109 14 23
109 14 23
110 13 23
110 13 23
111 13 23
112 13 23
112 13 23
113 13 23
113 13 23
114 13 23
114 13 23
115 13 23
115 13 23
116 13 23
116 13 23
117 13 23
117 13 23
118 13 23
118 13 23
119 12 23
119 12 23
120 12 23
120 12 23
121 12 23
121 12 23
122 12 23
123 12 23
123 12 23
124 12 23
124 12 23
125 12 23
125 12 23
126 12 23
126 12 23
127 12 23
127 12 23
128 12 23
128 11 23
129 11 23
129 11 23
130 11 23
130 11 23
131 11 23
131 11 23
132 11 23
132 11 23
133 11 23
134 11 23
134 11 23
135 11 23
135 11 23
136 11 23
136 11 23
137 11 23
137 10 23
138 10 23
138 10 23
139 10 23
139 10 23
140 10 23
140 10 23
141 10 23
141 10 23
142 10 23
142 10 23
143 10 23
143 10 23
144 10 23
145 10 23
145 10 23
146 10 23
146 9 23
147 9 23
147 9 23
148 9 23
148 9 23
149 9 23
149 9 23
150 9 23
150 9 23
151 9 23
151 9 23
152 9 23
152 9 23
153 9 23
153 9 23
154 9 23
154 9 23
155 8 23
156 8 23
156 8 23
157 8 23
157 8 23
158 8 23
158 8 23
159 8 23
159 8 23
160 8 23
160 8 23
161 8 23
161 8 23
162 8 23
162 8 23
163 8 23
163 8 23
164 8 23
164 7 23
165 7 23
165 7 23
166 7 23
166 7 23
167 7 23
168 7 23
168 7 23
169 7 23
169 7 23
170 7 23
170 7 23
171 7 23
171 7 23
172 7 23
172 7 23
173 7 23
173 6 23
174 6 23
174 6 23
175 6 23
175 6 23
176 6 23
176 6 23
177 6 23
177 6 23
178 6 23
179 6 23
179 6 23
180 6 23
180 6 23
181 6 23
181 6 23
182 6 23
182 5 23
183 5 23
183 5 23
184 5 23
184 5 23
185 5 23
185 5 23
186 5 23
186 5 23
187 5 23
187 5 23
188 5 23
188 5 23
189 5 23
190 5 23
190 5 23
191 5 23
191 5 23
192 4 23
192 4 23
193 4 23
193 4 23
194 4 23
194 4 23
195 4 23
195 4 23
196 4 23
196 4 23
197 4 23
197 4 23
198 4 23
198 4 23
199 4 23
199 4 23
200 4 23
201 3 23
201 3 23
202 3 23
202 3 23
203 3 23
203 3 23
204 3 23
204 3 23
205 3 23
205 3 23
206 3 23
206 3 23
207 3 23
207 3 23
208 3 23
208 3 23
209 3 23
209 2 23
210 2 23
210 2 23
211 2 23
212 2 23
212 2 23
213 2 23
213 2 23
214 2 23
214 2 23
215 2 23
215 2 23
216 2 23
216 2 23
217 2 23
217 2 23
218 2 23
218 2 23
219 1 23
219 1 23
220 1 23
220 1 23
221 1 23
221 1 23
222 1 23
223 1 23
223 1 23
224 1 23
224 1 23
225 1 23
225 1 23
226 1 23
226 1 23
227 1 23
227 1 23
228 0 23
228 0 23
229 0 23
229 0 23
230 0 23
230 0 23
231 0 23
231 0 23
232 0 23
22 22 22
22 22 22
23 22 22
23 22 22
24 22 22
24 22 22
25 21 22
25 21 22
26 21 22
27 21 22
27 21 22
28 21 22
28 21 22
29 21 22
29 21 22
30 21 22
30 21 22
31 21 22
31 21 22
32 21 22
32 21 22
33 21 22
33 21 22
34 21 22
35 20 22
35 20 22
36 20 22
36 20 22
37 20 22
37 20 22
38 20 22
38 20 22
39 20 22
39 20 22
40 20 22
40 20 22
41 20 22
41 20 22
42 20 22
42 20 22
43 20 22
44 20 22
44 19 22
45 19 22
45 19 22
46 19 22
46 19 22
47 19 22
47 19 22
48 19 22
48 19 22
49 19 22
49 19 22
50 19 22
50 19 22
51 19 22
51 19 22
52 19 22
53 19 22
53 19 22
54 19 22
54 18 22
55 18 22
55 18 22
56 18 22
56 18 22
57 18 22
57 18 22
58 18 22
58 18 22
59 18 22
59 18 22
60 18 22
60 18 22
61 18 22
62 18 22
62 18 22
63 18 22
63 18 22
64 17 22
64 17 22
65 17 22
65 17 22
66 17 22
66 17 22
67 17 22
67 17 22
68 17 22
68 17 22
69 17 22
69 17 22
70 17 22
71 17 22
71 17 22
72 17 22
72 17 22
73 17 22
73 16 22
74 16 22
74 16 22
75 16 22
75 16 22
76 16 22
76 16 22
77 16 22
77 16 22
78 16 22
78 16 22
79 16 22
80 16 22
80 16 22
81 16 22
81 16 22
82 16 22
82 16 22
83 16 22
83 15 22
84 15 22
84 15 22
85 15 22
85 15 22
86 15 22
86 15 22
87 15 22
87 15 22
88 15 22
89 15 22
89 15 22
90 15 22
90 15 22
91 15 22
91 15 22
92 15 22
92 15 22
93 14 22
93 14 22
94 14 22
94 14 22
95 14 22
95 14 22
96 14 22
97 14 22
97 14 22
98 14 22
98 14 22
99 14 22
99 14 22
100 14 22
100 14 22
101 14 22
101 14 22
102 14 22
102 13 22
103 13 22
103 13 22
104 13 22
104 13 22
105 13 22
106 13 22
106 13 22
107 13 22
107 13 22
108 13 22
108 13 22
109 13 22
109 13 22
110 13 22
110 13 22
111 13 22
111 13 22
112 13 22
112 12 22
113 12 22
113 12 22
114 12 22
115 12 22
115 12 22
116 12 22
116 12 22
117 12 22
117 12 22
118 12 22
118 12 22
119 12 22
119 12 22
120 12 22
120 12 22
121 12 22
121 12 22
122 11 22
122 11 22
123 11 22
124 11 22
124 11 22
125 11 22
125 11 22
126 11 22
126 11 22
127 11 22
127 11 22
128 11 22
128 11 22
129 11 22
129 11 22
130 11 22
130 11 22
131 11 22
131 10 22
132 10 22
133 10 22
133 10 22
134 10 22
134 10 22
135 10 22
135 10 22
136 10 22
136 10 22
137 10 22
137 10 22
138 10 22
138 10 22
139 10 22
139 10 22
140 10 22
140 10 22
141 9 22
142 9 22
142 9 22
143 9 22
143 9 22
144 9 22
144 9 22
145 9 22
145 9 22
146 9 22
146 9 22
147 9 22
147 9 22
148 9 22
148 9 22
149 9 22
149 9 22
150 9 22
151 9 22
151 8 22
152 8 22
152 8 22
153 8 22
153 8 22
154 8 22
154 8 22
155 8 22
155 8 22
156 8 22
156 8 22
157 8 22
157 8 22
158 8 22
158 8 22
159 8 22
160 8 22
160 8 22
161 7 22
161 7 22
162 7 22
162 7 22
163 7 22
163 7 22
164 7 22
164 7 22
165 7 22
165 7 22
166 7 22
166 7 22
167 7 22
168 7 22
168 7 22
169 7 22
169 7 22
170 7 22
170 6 22
171 6 22
171 6 22
172 6 22
172 6 22
173 6 22
173 6 22
174 6 22
174 6 22
175 6 22
175 6 22
176 6 22
177 6 22
177 6 22
178 6 22
178 6 22
179 6 22
179 6 22
180 6 22
180 5 22
181 5 22
181 5 22
182 5 22
182 5 22
183 5 22
183 5 22
184 5 22
184 5 22
185 5 22
186 5 22
186 5 22
187 5 22
187 5 22
188 5 22
188 5 22
189 5 22
189 5 22
190 4 22
190 4 22
191 4 22
191 4 22
192 4 22
192 4 22
193 4 22
193 4 22
194 4 22
195 4 22
195 4 22
196 4 22
196 4 22
197 4 22
197 4 22
198 4 22
198 4 22
199 4 22
199 3 22
200 3 22
200 3 22
201 3 22
201 3 22
202 3 22
202 3 22
203 3 22
204 3 22
204 3 22
205 3 22
205 3 22
206 3 22
206 3 22
207 3 22
207 3 22
208 3 22
208 3 22
209 3 22
209 2 22
210 2 22
210 2 22
211 2 22
211 2 22
212 2 22
213 2 22
213 2 22
214 2 22
214 2 22
215 2 22
215 2 22
216 2 22
216 2 22
217 2 22
217 2 22
218 2 22
218 2 22
219 1 22
219 1 22
220 1 22
220 1 22
221 1 22
222 1 22
222 1 22
223 1 22
223 1 22
224 1 22
224 1 22
225 1 22
225 1 22
226 1 22
226 1 22
227 1 22
227 1 22
228 1 22
228 0 22
229 0 22
230 0 22
230 0 22
231 0 22
231 0 22
232 0 22
232 0 22
233 0 22
233 0 22
21 21 21
21 20 21
22 20 21
22 20 21
23 20 21
23 20 21
24 20 21
24 20 21
25 20 21
25 20 21
26 20 21
26 20 21
27 20 21
27 20 21
28 20 21
29 20 21
29 20 21
30 20 21
30 20 21
31 20 21
31 19 21
32 19 21
32 19 21
33 19 21
33 19 21
34 19 21
34 19 21
35 19 21
36 19 21
36 19 21
37 19 21
37 19 21
38 19 21
38 19 21
39 19 21
39 19 21
40 19 21
40 19 21
41 19 21
41 18 21
42 18 21
42 18 21
43 18 21
44 18 21
44 18 21
45 18 21
45 18 21
46 18 21
46 18 21
47 18 21
47 18 21
48 18 21
48 18 21
49 18 21
49 18 21
50 18 21
51 18 21
51 18 21
52 18 21
52 17 21
53 17 21
53 17 21
54 17 21
54 17 21
55 17 21
55 17 21
56 17 21
56 17 21
57 17 21
58 17 21
58 17 21
59 17 21
59 17 21
60 17 21
60 17 21
61 17 21
61 17 21
62 17 21
62 16 21
63 16 21
63 16 21
64 16 21
64 16 21
65 16 21
66 16 21
66 16 21
67 16 21
67 16 21
68 16 21
68 16 21
69 16 21
69 16 21
70 16 21
70 16 21
71 16 21
71 16 21
72 16 21
73 16 21
73 15 21
74 15 21
74 15 21
75 15 21
75 15 21
76 15 21
76 15 21
77 15 21
77 15 21
78 15 21
78 15 21
79 15 21
79 15 21
80 15 21
81 15 21
81 15 21
82 15 21
82 15 21
83 15 21
83 14 21
84 14 21
84 14 21
85 14 21
85 14 21
86 14 21
86 14 21
87 14 21
88 14 21
88 14 21
89 14 21
89 14 21
90 14 21
90 14 21
91 14 21
91 14 21
92 14 21
92 14 21
93 14 21
93 14 21
94 13 21
95 13 21
95 13 21
96 13 21
96 13 21
97 13 21
97 13 21
98 13 21
98 13 21
99 13 21
99 13 21
100 13 21
100 13 21
101 13 21
101 13 21
102 13 21
103 13 21
103 13 21
104 13 21
104 12 21
105 12 21
105 12 21
106 12 21
106 12 21
107 12 21
107 12 21
108 12 21
108 12 21
109 12 21
110 12 21
110 12 21
111 12 21
111 12 21
112 12 21
112 12 21
113 12 21
113 12 21
114 12 21
114 12 21
115 11 21
115 11 21
116 11 21
117 11 21
117 11 21
118 11 21
118 11 21
119 11 21
119 11 21
120 11 21
120 11 21
121 11 21
121 11 21
122 11 21
122 11 21
123 11 21
123 11 21
124 11 21
125 11 21
125 10 21
126 10 21
126 10 21
127 10 21
127 10 21
128 10 21
128 10 21
129 10 21
129 10 21
130 10 21
130 10 21
131 10 21
132 10 21
132 10 21
133 10 21
133 10 21
134 10 21
134 10 21
135 10 21
135 10 21
136 9 21
136 9 21
137 9 21
137 9 21
138 9 21
138 9 21
139 9 21
140 9 21
140 9 21
141 9 21
141 9 21
142 9 21
142 9 21
143 9 21
143 9 21
144 9 21
144 9 21
145 9 21
145 9 21
146 8 21
147 8 21
147 8 21
148 8 21
148 8 21
149 8 21
149 8 21
150 8 21
150 8 21
151 8 21
151 8 21
152 8 21
152 8 21
153 8 21
154 8 21
154 8 21
155 8 21
155 8 21
156 8 21
156 8 21
157 7 21
157 7 21
158 7 21
158 7 21
159 7 21
159 7 21
160 7 21
160 7 21
161 7 21
162 7 21
162 7 21
163 7 21
163 7 21
164 7 21
164 7 21
165 7 21
165 7 21
166 7 21
166 7 21
167 6 21
167 6 21
168 6 21
169 6 21
169 6 21
170 6 21
170 6 21
171 6 21
171 6 21
172 6 21
172 6 21
173 6 21
173 6 21
174 6 21
174 6 21
175 6 21
176 6 21
176 6 21
177 6 21
177 5 21
178 5 21
178 5 21
179 5 21
179 5 21
180 5 21
180 5 21
181 5 21
181 5 21
182 5 21
182 5 21
183 5 21
184 5 21
184 5 21
185 5 21
185 5 21
186 5 21
186 5 21
187 5 21
187 5 21
188 4 21
188 4 21
189 4 21
189 4 21
190 4 21
191 4 21
191 4 21
192 4 21
192 4 21
193 4 21
193 4 21
194 4 21
194 4 21
195 4 21
195 4 21
196 4 21
196 4 21
197 4 21
197 4 21
198 3 21
199 3 21
199 3 21
200 3 21
200 3 21
201 3 21
201 3 21
202 3 21
202 3 21
203 3 21
203 3 21
204 3 21
204 3 21
205 3 21
206 3 21
206 3 21
207 3 21
207 3 21
208 3 21
208 3 21
209 2 21
209 2 21
210 2 21
210 2 21
211 2 21
211 2 21
212 2 21
213 2 21
213 2 21
214 2 21
214 2 21
215 2 21
215 2 21
216 2 21
216 2 21
217 2 21
217 2 21
218 2 21
218 2 21
219 1 21
219 1 21
220 1 21
221 1 21
221 1 21
222 1 21
222 1 21
223 1 21
223 1 21
224 1 21
224 1 21
225 1 21
225 1 21
226 1 21
226 1 21
227 1 21
228 1 21
228 1 21
229 1 21
229 1 21
230 0 21
230 0 21
231 0 21
231 0 21
232 0 21
232 0 21
233 0 21
233 0 21
234 0 21
234 0 21
19 19 19
20 19 19
20 19 19
21 19 19
21 19 19
22 19 19
22 19 19
23 19 19
24 19 19
24 19 19
25 19 19
25 19 19
26 19 19
26 19 19
27 19 19
27 18 19
28 18 19
28 18 19
29 18 19
30 18 19
30 18 19
31 18 19
31 18 19
32 18 19
32 18 19
33 18 19
33 18 19
34 18 19
34 18 19
35 18 19
36 18 19
36 18 19
37 18 19
37 18 19
38 18 19
38 18 19
39 17 19
39 17 19
40 17 19
40 17 19
41 17 19
41 17 19
42 17 19
43 17 19
43 17 19
44 17 19
44 17 19
45 17 19
45 17 19
46 17 19
46 17 19
47 17 19
47 17 19
48 17 19
49 17 19
49 17 19
50 17 19
50 16 19
51 16 19
51 16 19
52 16 19
52 16 19
53 16 19
53 16 19
54 16 19
54 16 19
55 16 19
56 16 19
56 16 19
57 16 19
57 16 19
58 16 19
58 16 19
59 16 19
59 16 19
60 16 19
60 16 19
61 16 19
62 15 19
62 15 19
63 15 19
63 15 19
64 15 19
64 15 19
65 15 19
65 15 19
66 15 19
66 15 19
67 15 19
68 15 19
68 15 19
69 15 19
69 15 19
70 15 19
70 15 19
71 15 19
71 15 19
72 15 19
72 15 19
73 14 19
73 14 19
74 14 19
75 14 19
75 14 19
76 14 19
76 14 19
77 14 19
77 14 19
78 14 19
78 14 19
79 14 19
79 14 19
80 14 19
81 14 19
81 14 19
82 14 19
82 14 19
83 14 19
83 14 19
84 13 19
84 13 19
85 13 19
85 13 19
86 13 19
87 13 19
87 13 19
88 13 19
88 13 19
89 13 19
89 13 19
90 13 19
90 13 19
91 13 19
91 13 19
92 13 19
92 13 19
93 13 19
94 13 19
94 13 19
95 13 19
95 12 19
96 12 19
96 12 19
97 12 19
97 12 19
98 12 19
98 12 19
99 12 19
100 12 19
100 12 19
101 12 19
101 12 19
102 12 19
102 12 19
103 12 19
103 12 19
104 12 19
104 12 19
105 12 19
106 12 19
106 12 19
107 11 19
107 11 19
108 11 19
108 11 19
109 11 19
109 11 19
110 11 19
110 11 19
111 11 19
111 11 19
112 11 19
113 11 19
113 11 19
114 11 19
114 11 19
115 11 19
115 11 19
116 11 19
116 11 19
117 11 19
117 11 19
118 10 19
119 10 19
119 10 19
120 10 19
120 10 19
121 10 19
121 10 19
122 10 19
122 10 19
123 10 19
123 10 19
124 10 19
125 10 19
125 10 19
126 10 19
126 10 19
127 10 19
127 10 19
128 10 19
128 10 19
129 9 19
129 9 19
130 9 19
130 9 19
131 9 19
132 9 19
132 9 19
133 9 19
133 9 19
134 9 19
134 9 19
135 9 19
135 9 19
136 9 19
136 9 19
137 9 19
138 9 19
138 9 19
139 9 19
139 9 19
140 9 19
140 8 19
141 8 19
141 8 19
142 8 19
142 8 19
143 8 19
144 8 19
144 8 19
145 8 19
145 8 19
146 8 19
146 8 19
147 8 19
147 8 19
148 8 19
148 8 19
149 8 19
149 8 19
150 8 19
151 8 19
151 8 19
152 7 19
152 7 19
153 7 19
153 7 19
154 7 19
154 7 19
155 7 19
155 7 19
156 7 19
157 7 19
157 7 19
158 7 19
158 7 19
159 7 19
159 7 19
160 7 19
160 7 19
161 7 19
161 7 19
162 7 19
163 7 19
163 6 19
164 6 19
164 6 19
165 6 19
165 6 19
166 6 19
166 6 19
167 6 19
167 6 19
168 6 19
168 6 19
169 6 19
170 6 19
170 6 19
171 6 19
171 6 19
172 6 19
172 6 19
173 6 19
173 6 19
174 5 19
174 5 19
175 5 19
176 5 19
176 5 19
177 5 19
177 5 19
178 5 19
178 5 19
179 5 19
179 5 19
180 5 19
180 5 19
181 5 19
182 5 19
182 5 19
183 5 19
183 5 19
184 5 19
184 5 19
185 5 19
185 4 19
186 4 19
186 4 19
187 4 19
187 4 19
188 4 19
189 4 19
189 4 19
190 4 19
190 4 19
191 4 19
191 4 19
192 4 19
192 4 19
193 4 19
193 4 19
194 4 19
195 4 19
195 4 19
196 4 19
196 4 19
197 3 19
197 3 19
198 3 19
198 3 19
199 3 19
199 3 19
200 3 19
201 3 19
201 3 19
202 3 19
202 3 19
203 3 19
203 3 19
204 3 19
204 3 19
205 3 19
205 3 19
206 3 19
206 3 19
207 3 19
208 3 19
208 2 19
209 2 19
209 2 19
210 2 19
210 2 19
211 2 19
211 2 19
212 2 19
212 2 19
213 2 19
214 2 19
214 2 19
215 2 19
215 2 19
216 2 19
216 2 19
217 2 19
217 2 19
218 2 19
218 2 19
219 1 19
219 1 19
220 1 19
221 1 19
221 1 19
222 1 19
222 1 19
223 1 19
223 1 19
224 1 19
224 1 19
225 1 19
225 1 19
226 1 19
227 1 19
227 1 19
228 1 19
228 1 19
229 1 19
229 1 19
230 1 19
230 0 19
231 0 19
231 0 19
232 0 19
233 0 19
233 0 19
234 0 19
234 0 19
235 0 19
235 0 19
236 0 19
18 18 18
18 18 18
19 18 18
20 18 18
20 18 18
21 18 18
21 18 18
22 18 18
22 18 18
23 18 18
23 17 18
24 17 18
25 17 18
25 17 18
26 17 18
26 17 18
27 17 18
27 17 18
28 17 18
28 17 18
29 17 18
29 17 18
30 17 18
31 17 18
31 17 18
32 17 18
32 17 18
33 17 18
33 17 18
34 17 18
34 17 18
35 17 18
36 17 18
36 16 18
37 16 18
37 16 18
38 16 18
38 16 18
39 16 18
39 16 18
40 16 18
40 16 18
41 16 18
42 16 18
42 16 18
43 16 18
43 16 18
44 16 18
44 16 18
45 16 18
45 16 18
46 16 18
46 16 18
47 16 18
48 16 18
48 15 18
49 15 18
49 15 18
50 15 18
50 15 18
51 15 18
51 15 18
52 15 18
53 15 18
53 15 18
54 15 18
54 15 18
55 15 18
55 15 18
56 15 18
56 15 18
57 15 18
57 15 18
58 15 18
59 15 18
59 15 18
60 15 18
60 14 18
61 14 18
61 14 18
62 14 18
62 14 18
63 14 18
64 14 18
64 14 18
65 14 18
65 14 18
66 14 18
66 14 18
67 14 18
67 14 18
68 14 18
68 14 18
69 14 18
70 14 18
70 14 18
71 14 18
71 14 18
72 14 18
72 13 18
73 13 18
73 13 18
74 13 18
75 13 18
75 13 18
76 13 18
76 13 18
77 13 18
77 13 18
78 13 18
78 13 18
79 13 18
79 13 18
80 13 18
81 13 18
81 13 18
82 13 18
82 13 18
83 13 18
83 13 18
84 13 18
84 12 18
85 12 18
85 12 18
86 12 18
87 12 18
87 12 18
88 12 18
88 12 18
89 12 18
89 12 18
90 12 18
90 12 18
91 12 18
92 12 18
92 12 18
93 12 18
93 12 18
94 12 18
94 12 18
95 12 18
95 12 18
96 12 18
96 12 18
97 11 18
98 11 18
98 11 18
99 11 18
99 11 18
100 11 18
100 11 18
101 11 18
101 11 18
102 11 18
103 11 18
103 11 18
104 11 18
104 11 18
105 11 18
105 11 18
106 11 18
106 11 18
107 11 18
107 11 18
108 11 18
109 11 18
109 10 18
110 10 18
110 10 18
111 10 18
111 10 18
112 10 18
112 10 18
113 10 18
113 10 18
114 10 18
115 10 18
115 10 18
116 10 18
116 10 18
117 10 18
117 10 18
118 10 18
118 10 18
119 10 18
120 10 18
120 10 18
121 10 18
121 9 18
122 9 18
122 9 18
123 9 18
123 9 18
124 9 18
124 9 18
125 9 18
126 9 18
126 9 18
127 9 18
127 9 18
128 9 18
128 9 18
129 9 18
129 9 18
130 9 18
131 9 18
131 9 18
132 9 18
132 9 18
133 9 18
133 8 18
134 8 18
134 8 18
135 8 18
135 8 18
136 8 18
137 8 18
137 8 18
138 8 18
138 8 18
139 8 18
139 8 18
140 8 18
140 8 18
141 8 18
142 8 18
142 8 18
143 8 18
143 8 18
144 8 18
144 8 18
145 8 18
145 8 18
146 7 18
146 7 18
147 7 18
148 7 18
148 7 18
149 7 18
149 7 18
150 7 18
150 7 18
151 7 18
151 7 18
152 7 18
152 7 18
153 7 18
154 7 18
154 7 18
155 7 18
155 7 18
156 7 18
156 7 18
157 7 18
157 7 18
158 6 18
159 6 18
159 6 18
160 6 18
160 6 18
161 6 18
161 6 18
162 6 18
162 6 18
163 6 18
163 6 18
164 6 18
165 6 18
165 6 18
166 6 18
166 6 18
167 6 18
167 6 18
168 6 18
168 6 18
169 6 18
170 6 18
170 5 18
171 5 18
171 5 18
172 5 18
172 5 18
173 5 18
173 5 18
174 5 18
174 5 18
175 5 18
176 5 18
176 5 18
177 5 18
177 5 18
178 5 18
178 5 18
179 5 18
179 5 18
180 5 18
180 5 18
181 5 18
182 5 18
182 4 18
183 4 18
183 4 18
184 4 18
184 4 18
185 4 18
185 4 18
186 4 18
187 4 18
187 4 18
188 4 18
188 4 18
189 4 18
189 4 18
190 4 18
190 4 18
191 4 18
191 4 18
192 4 18
193 4 18
193 4 18
194 4 18
194 4 18
195 3 18
195 3 18
196 3 18
196 3 18
197 3 18
198 3 18
198 3 18
199 3 18
199 3 18
200 3 18
200 3 18
201 3 18
201 3 18
202 3 18
202 3 18
203 3 18
204 3 18
204 3 18
205 3 18
205 3 18
206 3 18
206 3 18
207 2 18
207 2 18
208 2 18
209 2 18
209 2 18
210 2 18
210 2 18
211 2 18
211 2 18
212 2 18
212 2 18
213 2 18
213 2 18
214 2 18
215 2 18
215 2 18
216 2 18
216 2 18
217 2 18
217 2 18
218 2 18
218 2 18
219 1 18
219 1 18
220 1 18
221 1 18
221 1 18
222 1 18
222 1 18
223 1 18
223 1 18
224 1 18
224 1 18
225 1 18
226 1 18
226 1 18
227 1 18
227 1 18
228 1 18
228 1 18
229 1 18
229 1 18
230 1 18
230 1 18
231 0 18
232 0 18
232 0 18
233 0 18
233 0 18
234 0 18
234 0 18
235 0 18
235 0 18
236 0 18
237 0 18
237 0 18
17 17 17
17 17 17
18 17 17
18 17 17
19 16 17
19 16 17
20 16 17
21 16 17
21 16 17
22 16 17
22 16 17
23 16 17
23 16 17
24 16 17
24 16 17
25 16 17
26 16 17
26 16 17
27 16 17
27 16 17
28 16 17
28 16 17
29 16 17
29 16 17
30 16 17
31 16 17
31 16 17
32 16 17
32 15 17
33 15 17
33 15 17
34 15 17
34 15 17
35 15 17
36 15 17
36 15 17
37 15 17
37 15 17
38 15 17
38 15 17
39 15 17
39 15 17
40 15 17
41 15 17
41 15 17
42 15 17
42 15 17
43 15 17
43 15 17
44 15 17
44 15 17
45 15 17
46 14 17
46 14 17
47 14 17
47 14 17
48 14 17
48 14 17
49 14 17
49 14 17
50 14 17
51 14 17
51 14 17
52 14 17
52 14 17
53 14 17
53 14 17
54 14 17
54 14 17
55 14 17
56 14 17
56 14 17
57 14 17
57 14 17
58 14 17
58 14 17
59 13 17
59 13 17
60 13 17
61 13 17
61 13 17
62 13 17
62 13 17
63 13 17
63 13 17
64 13 17
64 13 17
65 13 17
66 13 17
66 13 17
67 13 17
67 13 17
68 13 17
68 13 17
69 13 17
69 13 17
70 13 17
71 13 17
71 13 17
72 13 17
72 12 17
73 12 17
73 12 17
74 12 17
74 12 17
75 12 17
76 12 17
76 12 17
77 12 17
77 12 17
78 12 17
78 12 17
79 12 17
79 12 17
80 12 17
81 12 17
81 12 17
82 12 17
82 12 17
83 12 17
83 12 17
84 12 17
84 12 17
85 12 17
86 11 17
86 11 17
87 11 17
87 11 17
88 11 17
88 11 17
89 11 17
89 11 17
90 11 17
91 11 17
91 11 17
92 11 17
92 11 17
93 11 17
93 11 17
94 11 17
94 11 17
95 11 17
96 11 17
96 11 17
97 11 17
97 11 17
98 11 17
98 11 17
99 10 17
99 10 17
100 10 17
101 10 17
101 10 17
102 10 17
102 10 17
103 10 17
103 10 17
104 10 17
104 10 17
105 10 17
106 10 17
106 10 17
107 10 17
107 10 17
108 10 17
108 10 17
109 10 17
109 10 17
110 10 17
111 10 17
111 10 17
112 10 17
112 9 17
113 9 17
113 9 17
114 9 17
114 9 17
115 9 17
116 9 17
116 9 17
117 9 17
117 9 17
118 9 17
118 9 17
119 9 17
119 9 17
120 9 17
121 9 17
121 9 17
122 9 17
122 9 17
123 9 17
123 9 17
124 9 17
124 9 17
125 9 17
126 8 17
126 8 17
127 8 17
127 8 17
128 8 17
128 8 17
129 8 17
129 8 17
130 8 17
131 8 17
131 8 17
132 8 17
132 8 17
133 8 17
133 8 17
134 8 17
134 8 17
135 8 17
136 8 17
136 8 17
137 8 17
137 8 17
138 8 17
138 8 17
139 7 17
139 7 17
140 7 17
141 7 17
141 7 17
142 7 17
142 7 17
143 7 17
143 7 17
144 7 17
144 7 17
145 7 17
146 7 17
146 7 17
147 7 17
147 7 17
148 7 17
148 7 17
149 7 17
149 7 17
150 7 17
151 7 17
151 7 17
152 7 17
152 6 17
153 6 17
153 6 17
154 6 17
154 6 17
155 6 17
156 6 17
156 6 17
157 6 17
157 6 17
158 6 17
158 6 17
159 6 17
159 6 17
160 6 17
161 6 17
161 6 17
162 6 17
162 6 17
163 6 17
163 6 17
164 6 17
164 6 17
165 6 17
166 5 17
166 5 17
167 5 17
167 5 17
168 5 17
168 5 17
169 5 17
169 5 17
170 5 17
171 5 17
171 5 17
172 5 17
172 5 17
173 5 17
173 5 17
174 5 17
174 5 17
175 5 17
176 5 17
176 5 17
177 5 17
177 5 17
178 5 17
178 5 17
179 4 17
179 4 17
180 4 17
181 4 17
181 4 17
182 4 17
182 4 17
183 4 17
183 4 17
184 4 17
184 4 17
185 4 17
186 4 17
186 4 17
187 4 17
187 4 17
188 4 17
188 4 17
189 4 17
189 4 17
190 4 17
191 4 17
191 4 17
192 4 17
192 3 17
193 3 17
193 3 17
194 3 17
194 3 17
195 3 17
196 3 17
196 3 17
197 3 17
197 3 17
198 3 17
198 3 17
199 3 17
199 3 17
200 3 17
201 3 17
201 3 17
202 3 17
202 3 17
203 3 17
203 3 17
204 3 17
204 3 17
205 3 17
206 2 17
206 2 17
207 2 17
207 2 17
208 2 17
208 2 17
209 2 17
209 2 17
210 2 17
211 2 17
211 2 17
212 2 17
212 2 17
213 2 17
213 2 17
214 2 17
214 2 17
215 2 17
216 2 17
216 2 17
217 2 17
217 2 17
218 2 17
218 2 17
219 1 17
219 1 17
220 1 17
221 1 17
221 1 17
222 1 17
222 1 17
223 1 17
223 1 17
224 1 17
224 1 17
225 1 17
226 1 17
226 1 17
227 1 17
227 1 17
228 1 17
228 1 17
229 1 17
229 1 17
230 1 17
231 1 17
231 1 17
232 1 17
232 0 17
233 0 17
233 0 17
234 0 17
234 0 17
235 0 17
236 0 17
236 0 17
237 0 17
237 0 17
238 0 17
238 0 17
15 15 15
16 15 15
17 15 15
17 15 15
18 15 15
18 15 15
19 15 15
19 15 15
20 15 15
20 15 15
21 15 15
22 15 15
22 15 15
23 15 15
23 15 15
24 15 15
24 15 15
25 15 15
25 15 15
26 15 15
27 15 15
27 15 15
28 15 15
28 14 15
29 14 15
29 14 15
30 14 15
31 14 15
31 14 15
32 14 15
32 14 15
33 14 15
33 14 15
34 14 15
34 14 15
35 14 15
36 14 15
36 14 15
37 14 15
37 14 15
38 14 15
38 14 15
39 14 15
40 14 15
40 14 15
41 14 15
41 14 15
42 14 15
42 14 15
43 13 15
43 13 15
44 13 15
45 13 15
45 13 15
46 13 15
46 13 15
47 13 15
47 13 15
48 13 15
49 13 15
49 13 15
50 13 15
50 13 15
51 13 15
51 13 15
52 13 15
52 13 15
53 13 15
54 13 15
54 13 15
55 13 15
55 13 15
56 13 15
56 13 15
57 13 15
58 12 15
58 12 15
59 12 15
59 12 15
60 12 15
60 12 15
61 12 15
61 12 15
62 12 15
63 12 15
63 12 15
64 12 15
64 12 15
65 12 15
65 12 15
66 12 15
67 12 15
67 12 15
68 12 15
68 12 15
69 12 15
69 12 15
70 12 15
70 12 15
71 12 15
72 12 15
72 11 15
73 11 15
73 11 15
74 11 15
74 11 15
75 11 15
76 11 15
76 11 15
77 11 15
77 11 15
78 11 15
78 11 15
79 11 15
79 11 15
80 11 15
81 11 15
81 11 15
82 11 15
82 11 15
83 11 15
83 11 15
84 11 15
85 11 15
85 11 15
86 11 15
86 11 15
87 10 15
87 10 15
88 10 15
88 10 15
89 10 15
90 10 15
90 10 15
91 10 15
91 10 15
92 10 15
92 10 15
93 10 15
93 10 15
94 10 15
95 10 15
95 10 15
96 10 15
96 10 15
97 10 15
97 10 15
98 10 15
99 10 15
99 10 15
100 10 15
100 10 15
101 10 15
101 9 15
102 9 15
102 9 15
103 9 15
104 9 15
104 9 15
105 9 15
105 9 15
106 9 15
106 9 15
107 9 15
108 9 15
108 9 15
109 9 15
109 9 15
110 9 15
110 9 15
111 9 15
111 9 15
112 9 15
113 9 15
113 9 15
114 9 15
114 9 15
115 9 15
115 9 15
116 8 15
117 8 15
117 8 15
118 8 15
118 8 15
119 8 15
119 8 15
120 8 15
120 8 15
121 8 15
122 8 15
122 8 15
123 8 15
123 8 15
124 8 15
124 8 15
125 8 15
126 8 15
126 8 15
127 8 15
127 8 15
128 8 15
128 8 15
129 8 15
129 8 15
130 8 15
131 7 15
131 7 15
132 7 15
132 7 15
133 7 15
133 7 15
134 7 15
135 7 15
135 7 15
136 7 15
136 7 15
137 7 15
137 7 15
138 7 15
138 7 15
139 7 15
140 7 15
140 7 15
141 7 15
141 7 15
142 7 15
142 7 15
143 7 15
144 7 15
144 7 15
145 7 15
145 6 15
146 6 15
146 6 15
147 6 15
147 6 15
148 6 15
149 6 15
149 6 15
150 6 15
150 6 15
151 6 15
151 6 15
152 6 15
153 6 15
153 6 15
154 6 15
154 6 15
155 6 15
155 6 15
156 6 15
156 6 15
157 6 15
158 6 15
158 6 15
159 6 15
159 6 15
160 5 15
160 5 15
161 5 15
162 5 15
162 5 15
163 5 15
163 5 15
164 5 15
164 5 15
165 5 15
165 5 15
166 5 15
167 5 15
167 5 15
168 5 15
168 5 15
169 5 15
169 5 15
170 5 15
170 5 15
171 5 15
172 5 15
172 5 15
173 5 15
173 5 15
174 5 15
174 4 15
175 4 15
176 4 15
176 4 15
177 4 15
177 4 15
178 4 15
178 4 15
179 4 15
179 4 15
180 4 15
181 4 15
181 4 15
182 4 15
182 4 15
183 4 15
183 4 15
184 4 15
185 4 15
185 4 15
186 4 15
186 4 15
187 4 15
187 4 15
188 4 15
188 4 15
189 3 15
190 3 15
190 3 15
191 3 15
191 3 15
192 3 15
192 3 15
193 3 15
194 3 15
194 3 15
195 3 15
195 3 15
196 3 15
196 3 15
197 3 15
197 3 15
198 3 15
199 3 15
199 3 15
200 3 15
200 3 15
201 3 15
201 3 15
202 3 15
203 3 15
203 3 15
204 2 15
204 2 15
205 2 15
205 2 15
206 2 15
206 2 15
207 2 15
208 2 15
208 2 15
209 2 15
209 2 15
210 2 15
210 2 15
211 2 15
212 2 15
212 2 15
213 2 15
213 2 15
214 2 15
214 2 15
215 2 15
215 2 15
216 2 15
217 2 15
217 2 15
218 2 15
218 1 15
219 1 15
219 1 15
220 1 15
221 1 15
221 1 15
222 1 15
222 1 15
223 1 15
223 1 15
224 1 15
224 1 15
225 1 15
226 1 15
226 1 15
227 1 15
227 1 15
228 1 15
228 1 15
229 1 15
230 1 15
230 1 15
231 1 15
231 1 15
232 1 15
232 1 15
233 0 15
233 0 15
234 0 15
235 0 15
235 0 15
236 0 15
236 0 15
237 0 15
237 0 15
238 0 15
238 0 15
239 0 15
240 0 15
14 14 14
15 14 14
15 14 14
16 14 14
16 14 14
17 14 14
18 14 14
18 14 14
19 14 14
19 14 14
20 14 14
20 14 14
21 14 14
21 14 14
22 14 14
23 14 14
23 14 14
24 13 14
24 13 14
25 13 14
25 13 14
26 13 14
27 13 14
27 13 14
28 13 14
28 13 14
29 13 14
29 13 14
30 13 14
31 13 14
31 13 14
32 13 14
32 13 14
33 13 14
33 13 14
34 13 14
35 13 14
35 13 14
36 13 14
36 13 14
37 13 14
37 13 14
38 13 14
39 13 14
39 13 14
40 13 14
40 12 14
41 12 14
41 12 14
42 12 14
43 12 14
43 12 14
44 12 14
44 12 14
45 12 14
45 12 14
46 12 14
46 12 14
47 12 14
48 12 14
48 12 14
49 12 14
49 12 14
50 12 14
50 12 14
51 12 14
52 12 14
52 12 14
53 12 14
53 12 14
54 12 14
54 12 14
55 12 14
56 12 14
56 11 14
57 11 14
57 11 14
58 11 14
58 11 14
59 11 14
60 11 14
60 11 14
61 11 14
61 11 14
62 11 14
62 11 14
63 11 14
64 11 14
64 11 14
65 11 14
65 11 14
66 11 14
66 11 14
67 11 14
68 11 14
68 11 14
69 11 14
69 11 14
70 11 14
70 11 14
71 11 14
72 11 14
72 10 14
73 10 14
73 10 14
74 10 14
74 10 14
75 10 14
75 10 14
76 10 14
77 10 14
77 10 14
78 10 14
78 10 14
79 10 14
79 10 14
80 10 14
81 10 14
81 10 14
82 10 14
82 10 14
83 10 14
83 10 14
84 10 14
85 10 14
85 10 14
86 10 14
86 10 14
87 10 14
87 10 14
88 10 14
89 9 14
89 9 14
90 9 14
90 9 14
91 9 14
91 9 14
92 9 14
93 9 14
93 9 14
94 9 14
94 9 14
95 9 14
95 9 14
96 9 14
97 9 14
97 9 14
98 9 14
98 9 14
99 9 14
99 9 14
100 9 14
100 9 14
101 9 14
102 9 14
102 9 14
103 9 14
103 9 14
104 9 14
104 8 14
105 8 14
106 8 14
106 8 14
107 8 14
107 8 14
108 8 14
108 8 14
109 8 14
110 8 14
110 8 14
111 8 14
111 8 14
112 8 14
112 8 14
113 8 14
114 8 14
114 8 14
115 8 14
115 8 14
116 8 14
116 8 14
117 8 14
118 8 14
118 8 14
119 8 14
119 8 14
120 8 14
120 7 14
121 7 14
122 7 14
122 7 14
123 7 14
123 7 14
124 7 14
124 7 14
125 7 14
126 7 14
126 7 14
127 7 14
127 7 14
128 7 14
128 7 14
129 7 14
129 7 14
130 7 14
131 7 14
131 7 14
132 7 14
132 7 14
133 7 14
133 7 14
134 7 14
135 7 14
135 7 14
136 7 14
136 7 14
137 6 14
137 6 14
138 6 14
139 6 14
139 6 14
140 6 14
140 6 14
141 6 14
141 6 14
142 6 14
143 6 14
143 6 14
144 6 14
144 6 14
145 6 14
145 6 14
146 6 14
147 6 14
147 6 14
148 6 14
148 6 14
149 6 14
149 6 14
150 6 14
151 6 14
151 6 14
152 6 14
152 6 14
153 5 14
153 5 14
154 5 14
155 5 14
155 5 14
156 5 14
156 5 14
157 5 14
157 5 14
158 5 14
158 5 14
159 5 14
160 5 14
160 5 14
161 5 14
161 5 14
162 5 14
162 5 14
163 5 14
164 5 14
164 5 14
165 5 14
165 5 14
166 5 14
166 5 14
167 5 14
168 5 14
168 5 14
169 4 14
169 4 14
170 4 14
170 4 14
171 4 14
172 4 14
172 4 14
173 4 14
173 4 14
174 4 14
174 4 14
175 4 14
176 4 14
176 4 14
177 4 14
177 4 14
178 4 14
178 4 14
179 4 14
180 4 14
180 4 14
181 4 14
181 4 14
182 4 14
182 4 14
183 4 14
183 4 14
184 4 14
185 3 14
185 3 14
186 3 14
186 3 14
187 3 14
187 3 14
188 3 14
189 3 14
189 3 14
190 3 14
190 3 14
191 3 14
191 3 14
192 3 14
193 3 14
193 3 14
194 3 14
194 3 14
195 3 14
195 3 14
196 3 14
197 3 14
197 3 14
198 3 14
198 3 14
199 3 14
199 3 14
200 3 14
201 3 14
201 2 14
202 2 14
202 2 14
203 2 14
203 2 14
204 2 14
205 2 14
205 2 14
206 2 14
206 2 14
207 2 14
207 2 14
208 2 14
209 2 14
209 2 14
210 2 14
210 2 14
211 2 14
211 2 14
212 2 14
212 2 14
213 2 14
214 2 14
214 2 14
215 2 14
215 2 14
216 2 14
216 2 14
217 1 14
218 1 14
218 1 14
219 1 14
219 1 14
220 1 14
220 1 14
221 1 14
222 1 14
222 1 14
223 1 14
223 1 14
224 1 14
224 1 14
225 1 14
226 1 14
226 1 14
227 1 14
227 1 14
228 1 14
228 1 14
229 1 14
230 1 14
230 1 14
231 1 14
231 1 14
232 1 14
232 1 14
233 0 14
234 0 14
234 0 14
235 0 14
235 0 14
236 0 14
236 0 14
237 0 14
237 0 14
238 0 14
239 0 14
239 0 14
240 0 14
240 0 14
241 0 14
13 13 13
13 13 13
14 13 13
15 13 13
15 13 13
16 13 13
16 13 13
17 13 13
17 13 13
18 13 13
19 12 13
19 12 13
20 12 13
20 12 13
21 12 13
21 12 13
22 12 13
23 12 13
23 12 13
24 12 13
24 12 13
25 12 13
25 12 13
26 12 13
27 12 13
27 12 13
28 12 13
28 12 13
29 12 13
29 12 13
30 12 13
31 12 13
31 12 13
32 12 13
32 12 13
33 12 13
34 12 13
34 12 13
35 12 13
35 12 13
36 12 13
36 11 13
37 11 13
38 11 13
38 11 13
39 11 13
39 11 13
40 11 13
40 11 13
41 11 13
42 11 13
42 11 13
43 11 13
43 11 13
44 11 13
44 11 13
45 11 13
46 11 13
46 11 13
47 11 13
47 11 13
48 11 13
48 11 13
49 11 13
50 11 13
50 11 13
51 11 13
51 11 13
52 11 13
52 11 13
53 11 13
54 11 13
54 11 13
55 10 13
55 10 13
56 10 13
57 10 13
57 10 13
58 10 13
58 10 13
59 10 13
59 10 13
60 10 13
61 10 13
61 10 13
62 10 13
62 10 13
63 10 13
63 10 13
64 10 13
65 10 13
65 10 13
66 10 13
66 10 13
67 10 13
67 10 13
68 10 13
69 10 13
69 10 13
70 10 13
70 10 13
71 10 13
71 10 13
72 10 13
73 9 13
73 9 13
74 9 13
74 9 13
75 9 13
75 9 13
76 9 13
77 9 13
77 9 13
78 9 13
78 9 13
79 9 13
79 9 13
80 9 13
81 9 13
81 9 13
82 9 13
82 9 13
83 9 13
84 9 13
84 9 13
85 9 13
85 9 13
86 9 13
86 9 13
87 9 13
88 9 13
88 9 13
89 9 13
89 9 13
90 9 13
90 8 13
91 8 13
92 8 13
92 8 13
93 8 13
93 8 13
94 8 13
94 8 13
95 8 13
96 8 13
96 8 13
97 8 13
97 8 13
98 8 13
98 8 13
99 8 13
100 8 13
100 8 13
101 8 13
101 8 13
102 8 13
102 8 13
103 8 13
104 8 13
104 8 13
105 8 13
105 8 13
106 8 13
107 8 13
107 8 13
108 8 13
108 7 13
109 7 13
109 7 13
110 7 13
111 7 13
111 7 13
112 7 13
112 7 13
113 7 13
113 7 13
114 7 13
115 7 13
115 7 13
116 7 13
116 7 13
117 7 13
117 7 13
118 7 13
119 7 13
119 7 13
120 7 13
120 7 13
121 7 13
121 7 13
122 7 13
123 7 13
123 7 13
124 7 13
124 7 13
125 7 13
125 7 13
126 6 13
127 6 13
127 6 13
128 6 13
128 6 13
129 6 13
130 6 13
130 6 13
131 6 13
131 6 13
132 6 13
132 6 13
133 6 13
134 6 13
134 6 13
135 6 13
135 6 13
136 6 13
136 6 13
137 6 13
138 6 13
138 6 13
139 6 13
139 6 13
140 6 13
140 6 13
141 6 13
142 6 13
142 6 13
143 6 13
143 6 13
144 5 13
144 5 13
145 5 13
146 5 13
146 5 13
147 5 13
147 5 13
148 5 13
148 5 13
149 5 13
150 5 13
150 5 13
151 5 13
151 5 13
152 5 13
153 5 13
153 5 13
154 5 13
154 5 13
155 5 13
155 5 13
156 5 13
157 5 13
157 5 13
158 5 13
158 5 13
159 5 13
159 5 13
160 5 13
161 5 13
161 5 13
162 4 13
162 4 13
163 4 13
163 4 13
164 4 13
165 4 13
165 4 13
166 4 13
166 4 13
167 4 13
167 4 13
168 4 13
169 4 13
169 4 13
170 4 13
170 4 13
171 4 13
171 4 13
172 4 13
173 4 13
173 4 13
174 4 13
174 4 13
175 4 13
176 4 13
176 4 13
177 4 13
177 4 13
178 4 13
178 4 13
179 4 13
180 4 13
180 3 13
181 3 13
181 3 13
182 3 13
182 3 13
183 3 13
184 3 13
184 3 13
185 3 13
185 3 13
186 3 13
186 3 13
187 3 13
188 3 13
188 3 13
189 3 13
189 3 13
190 3 13
190 3 13
191 3 13
192 3 13
192 3 13
193 3 13
193 3 13
194 3 13
194 3 13
195 3 13
196 3 13
196 3 13
197 3 13
197 3 13
198 2 13
198 2 13
199 2 13
200 2 13
200 2 13
201 2 13
201 2 13
202 2 13
203 2 13
203 2 13
204 2 13
204 2 13
205 2 13
205 2 13
206 2 13
207 2 13
207 2 13
208 2 13
208 2 13
209 2 13
209 2 13
210 2 13
211 2 13
211 2 13
212 2 13
212 2 13
213 2 13
213 2 13
214 2 13
215 2 13
215 2 13
216 1 13
216 1 13
217 1 13
217 1 13
218 1 13
219 1 13
219 1 13
220 1 13
220 1 13
221 1 13
221 1 13
222 1 13
223 1 13
223 1 13
224 1 13
224 1 13
225 1 13
226 1 13
226 1 13
227 1 13
227 1 13
228 1 13
228 1 13
229 1 13
230 1 13
230 1 13
231 1 13
231 1 13
232 1 13
232 1 13
233 1 13
234 0 13
234 0 13
235 0 13
235 0 13
236 0 13
236 0 13
237 0 13
238 0 13
238 0 13
239 0 13
239 0 13
240 0 13
240 0 13
241 0 13
242 0 13
242 0 13
12 12 12
12 12 12
13 11 12
13 11 12
14 11 12
14 11 12
15 11 12
16 11 12
16 11 12
17 11 12
17 11 12
18 11 12
19 11 12
19 11 12
20 11 12
20 11 12
21 11 12
21 11 12
22 11 12
23 11 12
23 11 12
24 11 12
24 11 12
25 11 12
25 11 12
26 11 12
27 11 12
27 11 12
28 11 12
28 11 12
29 11 12
30 11 12
30 11 12
31 11 12
31 11 12
32 11 12
32 10 12
33 10 12
34 10 12
34 10 12
35 10 12
35 10 12
36 10 12
37 10 12
37 10 12
38 10 12
38 10 12
39 10 12
39 10 12
40 10 12
41 10 12
41 10 12
42 10 12
42 10 12
43 10 12
44 10 12
44 10 12
45 10 12
45 10 12
46 10 12
46 10 12
47 10 12
48 10 12
48 10 12
49 10 12
49 10 12
50 10 12
50 10 12
51 10 12
52 10 12
52 10 12
53 9 12
53 9 12
54 9 12
55 9 12
55 9 12
56 9 12
56 9 12
57 9 12
57 9 12
58 9 12
59 9 12
59 9 12
60 9 12
60 9 12
61 9 12
62 9 12
62 9 12
63 9 12
63 9 12
64 9 12
64 9 12
65 9 12
66 9 12
66 9 12
67 9 12
67 9 12
68 9 12
68 9 12
69 9 12
70 9 12
70 9 12
71 9 12
71 9 12
72 9 12
73 8 12
73 8 12
74 8 12
74 8 12
75 8 12
75 8 12
76 8 12
77 8 12
77 8 12
78 8 12
78 8 12
79 8 12
80 8 12
80 8 12
81 8 12
81 8 12
82 8 12
82 8 12
83 8 12
84 8 12
84 8 12
85 8 12
85 8 12
86 8 12
87 8 12
87 8 12
88 8 12
88 8 12
89 8 12
89 8 12
90 8 12
91 8 12
91 8 12
92 8 12
92 8 12
93 7 12
93 7 12
94 7 12
95 7 12
95 7 12
96 7 12
96 7 12
97 7 12
98 7 12
98 7 12
99 7 12
99 7 12
100 7 12
100 7 12
101 7 12
102 7 12
102 7 12
103 7 12
103 7 12
104 7 12
105 7 12
105 7 12
106 7 12
106 7 12
107 7 12
107 7 12
108 7 12
109 7 12
109 7 12
110 7 12
110 7 12
111 7 12
112 7 12
112 7 12
113 7 12
113 6 12
114 6 12
114 6 12
115 6 12
116 6 12
116 6 12
117 6 12
117 6 12
118 6 12
118 6 12
119 6 12
120 6 12
120 6 12
121 6 12
121 6 12
122 6 12
123 6 12
123 6 12
124 6 12
124 6 12
125 6 12
125 6 12
126 6 12
127 6 12
127 6 12
128 6 12
128 6 12
129 6 12
130 6 12
130 6 12
131 6 12
131 6 12
132 6 12
132 6 12
133 5 12
134 5 12
134 5 12
135 5 12
135 5 12
136 5 12
137 5 12
137 5 12
138 5 12
138 5 12
139 5 12
139 5 12
140 5 12
141 5 12
141 5 12
142 5 12
142 5 12
143 5 12
143 5 12
144 5 12
145 5 12
145 5 12
146 5 12
146 5 12
147 5 12
148 5 12
148 5 12
149 5 12
149 5 12
150 5 12
150 5 12
151 5 12
152 5 12
152 5 12
153 5 12
153 4 12
154 4 12
155 4 12
155 4 12
156 4 12
156 4 12
157 4 12
157 4 12
158 4 12
159 4 12
159 4 12
160 4 12
160 4 12
161 4 12
162 4 12
162 4 12
163 4 12
163 4 12
164 4 12
164 4 12
165 4 12
166 4 12
166 4 12
167 4 12
167 4 12
168 4 12
168 4 12
169 4 12
170 4 12
170 4 12
171 4 12
171 4 12
172 4 12
173 4 12
173 3 12
174 3 12
174 3 12
175 3 12
175 3 12
176 3 12
177 3 12
177 3 12
178 3 12
178 3 12
179 3 12
180 3 12
180 3 12
181 3 12
181 3 12
182 3 12
182 3 12
183 3 12
184 3 12
184 3 12
185 3 12
185 3 12
186 3 12
187 3 12
187 3 12
188 3 12
188 3 12
189 3 12
189 3 12
190 3 12
191 3 12
191 3 12
192 3 12
192 3 12
193 3 12
193 2 12
194 2 12
195 2 12
195 2 12
196 2 12
196 2 12
197 2 12
198 2 12
198 2 12
199 2 12
199 2 12
200 2 12
200 2 12
201 2 12
202 2 12
202 2 12
203 2 12
203 2 12
204 2 12
205 2 12
205 2 12
206 2 12
206 2 12
207 2 12
207 2 12
208 2 12
209 2 12
209 2 12
210 2 12
210 2 12
211 2 12
211 2 12
212 2 12
213 2 12
213 2 12
214 1 12
214 1 12
215 1 12
216 1 12
216 1 12
217 1 12
217 1 12
218 1 12
218 1 12
219 1 12
220 1 12
220 1 12
221 1 12
221 1 12
222 1 12
223 1 12
223 1 12
224 1 12
224 1 12
225 1 12
225 1 12
226 1 12
227 1 12
227 1 12
228 1 12
228 1 12
229 1 12
230 1 12
230 1 12
231 1 12
231 1 12
232 1 12
232 1 12
233 1 12
234 0 12
234 0 12
235 0 12
235 0 12
236 0 12
236 0 12
237 0 12
238 0 12
238 0 12
239 0 12
239 0 12
240 0 12
241 0 12
241 0 12
242 0 12
242 0 12
243 0 12
243 0 12
10 10 10
11 10 10
11 10 10
12 10 10
13 10 10
13 10 10
14 10 10
14 10 10
15 10 10
16 10 10
16 10 10
17 10 10
17 10 10
18 10 10
18 10 10
19 10 10
20 10 10
20 10 10
21 10 10
21 10 10
22 10 10
23 10 10
23 10 10
24 10 10
24 10 10
25 10 10
26 10 10
26 10 10
27 10 10
27 10 10
28 9 10
28 9 10
29 9 10
30 9 10
30 9 10
31 9 10
31 9 10
32 9 10
33 9 10
33 9 10
34 9 10
34 9 10
35 9 10
36 9 10
36 9 10
37 9 10
37 9 10
38 9 10
38 9 10
39 9 10
40 9 10
40 9 10
41 9 10
41 9 10
42 9 10
43 9 10
43 9 10
44 9 10
44 9 10
45 9 10
46 9 10
46 9 10
47 9 10
47 9 10
48 9 10
48 9 10
49 9 10
50 9 10
50 9 10
51 8 10
51 8 10
52 8 10
53 8 10
53 8 10
54 8 10
54 8 10
55 8 10
56 8 10
56 8 10
57 8 10
57 8 10
58 8 10
58 8 10
59 8 10
60 8 10
60 8 10
61 8 10
61 8 10
62 8 10
63 8 10
63 8 10
64 8 10
64 8 10
65 8 10
65 8 10
66 8 10
67 8 10
67 8 10
68 8 10
68 8 10
69 8 10
70 8 10
70 8 10
71 8 10
71 8 10
72 8 10
73 8 10
73 8 10
74 7 10
74 7 10
75 7 10
75 7 10
76 7 10
77 7 10
77 7 10
78 7 10
78 7 10
79 7 10
80 7 10
80 7 10
81 7 10
81 7 10
82 7 10
83 7 10
83 7 10
84 7 10
84 7 10
85 7 10
85 7 10
86 7 10
87 7 10
87 7 10
88 7 10
88 7 10
89 7 10
90 7 10
90 7 10
91 7 10
91 7 10
92 7 10
93 7 10
93 7 10
94 7 10
94 7 10
95 7 10
95 7 10
96 7 10
97 6 10
97 6 10
98 6 10
98 6 10
99 6 10
100 6 10
100 6 10
101 6 10
101 6 10
102 6 10
103 6 10
103 6 10
104 6 10
104 6 10
105 6 10
105 6 10
106 6 10
107 6 10
107 6 10
108 6 10
108 6 10
109 6 10
110 6 10
110 6 10
111 6 10
111 6 10
112 6 10
113 6 10
113 6 10
114 6 10
114 6 10
115 6 10
115 6 10
116 6 10
117 6 10
117 6 10
118 6 10
118 6 10
119 5 10
120 5 10
120 5 10
121 5 10
121 5 10
122 5 10
123 5 10
123 5 10
124 5 10
124 5 10
125 5 10
125 5 10
126 5 10
127 5 10
127 5 10
128 5 10
128 5 10
129 5 10
130 5 10
130 5 10
131 5 10
131 5 10
132 5 10
132 5 10
133 5 10
134 5 10
134 5 10
135 5 10
135 5 10
136 5 10
137 5 10
137 5 10
138 5 10
138 5 10
139 5 10
140 5 10
140 5 10
141 5 10
141 5 10
142 4 10
142 4 10
143 4 10
144 4 10
144 4 10
145 4 10
145 4 10
146 4 10
147 4 10
147 4 10
148 4 10
148 4 10
149 4 10
150 4 10
150 4 10
151 4 10
151 4 10
152 4 10
152 4 10
153 4 10
154 4 10
154 4 10
155 4 10
155 4 10
156 4 10
157 4 10
157 4 10
158 4 10
158 4 10
159 4 10
160 4 10
160 4 10
161 4 10
161 4 10
162 4 10
162 4 10
163 4 10
164 4 10
164 4 10
165 3 10
165 3 10
166 3 10
167 3 10
167 3 10
168 3 10
168 3 10
169 3 10
170 3 10
170 3 10
171 3 10
171 3 10
172 3 10
172 3 10
173 3 10
174 3 10
174 3 10
175 3 10
175 3 10
176 3 10
177 3 10
177 3 10
178 3 10
178 3 10
179 3 10
180 3 10
180 3 10
181 3 10
181 3 10
182 3 10
182 3 10
183 3 10
184 3 10
184 3 10
185 3 10
185 3 10
186 3 10
187 3 10
187 3 10
188 2 10
188 2 10
189 2 10
190 2 10
190 2 10
191 2 10
191 2 10
192 2 10
192 2 10
193 2 10
194 2 10
194 2 10
195 2 10
195 2 10
196 2 10
197 2 10
197 2 10
198 2 10
198 2 10
199 2 10
199 2 10
200 2 10
201 2 10
201 2 10
202 2 10
202 2 10
203 2 10
204 2 10
204 2 10
205 2 10
205 2 10
206 2 10
207 2 10
207 2 10
208 2 10
208 2 10
209 2 10
209 2 10
210 2 10
211 1 10
211 1 10
212 1 10
212 1 10
213 1 10
214 1 10
214 1 10
215 1 10
215 1 10
216 1 10
217 1 10
217 1 10
218 1 10
218 1 10
219 1 10
219 1 10
220 1 10
221 1 10
221 1 10
222 1 10
222 1 10
223 1 10
224 1 10
224 1 10
225 1 10
225 1 10
226 1 10
227 1 10
227 1 10
228 1 10
228 1 10
229 1 10
229 1 10
230 1 10
231 1 10
231 1 10
232 1 10
232 1 10
233 1 10
234 0 10
234 0 10
235 0 10
235 0 10
236 0 10
237 0 10
237 0 10
238 0 10
238 0 10
239 0 10
239 0 10
240 0 10
241 0 10
241 0 10
242 0 10
242 0 10
243 0 10
244 0 10
244 0 10
245 0 10
9 9 9
10 9 9
10 9 9
11 9 9
11 9 9
12 9 9
13 9 9
13 9 9
14 9 9
14 9 9
15 9 9
16 9 9
16 9 9
17 9 9
17 9 9
18 9 9
18 9 9
19 9 9
20 9 9
20 9 9
21 9 9
21 8 9
22 8 9
23 8 9
23 8 9
24 8 9
24 8 9
25 8 9
26 8 9
26 8 9
27 8 9
27 8 9
28 8 9
29 8 9
29 8 9
30 8 9
30 8 9
31 8 9
32 8 9
32 8 9
33 8 9
33 8 9
34 8 9
35 8 9
35 8 9
36 8 9
36 8 9
37 8 9
37 8 9
38 8 9
39 8 9
39 8 9
40 8 9
40 8 9
41 8 9
42 8 9
42 8 9
43 8 9
43 8 9
44 8 9
45 8 9
45 8 9
46 8 9
46 8 9
47 8 9
48 8 9
48 7 9
49 7 9
49 7 9
50 7 9
51 7 9
51 7 9
52 7 9
52 7 9
53 7 9
54 7 9
54 7 9
55 7 9
55 7 9
56 7 9
57 7 9
57 7 9
58 7 9
58 7 9
59 7 9
59 7 9
60 7 9
61 7 9
61 7 9
62 7 9
62 7 9
63 7 9
64 7 9
64 7 9
65 7 9
65 7 9
66 7 9
67 7 9
67 7 9
68 7 9
68 7 9
69 7 9
70 7 9
70 7 9
71 7 9
71 7 9
72 7 9
73 7 9
73 7 9
74 7 9
74 6 9
75 6 9
76 6 9
76 6 9
77 6 9
77 6 9
78 6 9
78 6 9
79 6 9
80 6 9
80 6 9
81 6 9
81 6 9
82 6 9
83 6 9
83 6 9
84 6 9
84 6 9
85 6 9
86 6 9
86 6 9
87 6 9
87 6 9
88 6 9
89 6 9
89 6 9
90 6 9
90 6 9
91 6 9
92 6 9
92 6 9
93 6 9
93 6 9
94 6 9
95 6 9
95 6 9
96 6 9
96 6 9
97 6 9
97 6 9
98 6 9
99 6 9
99 6 9
100 6 9
100 6 9
101 5 9
102 5 9
102 5 9
103 5 9
103 5 9
104 5 9
105 5 9
105 5 9
106 5 9
106 5 9
107 5 9
108 5 9
108 5 9
109 5 9
109 5 9
110 5 9
111 5 9
111 5 9
112 5 9
112 5 9
113 5 9
114 5 9
114 5 9
115 5 9
115 5 9
116 5 9
117 5 9
117 5 9
118 5 9
118 5 9
119 5 9
119 5 9
120 5 9
121 5 9
121 5 9
122 5 9
122 5 9
123 5 9
124 5 9
124 5 9
125 5 9
125 5 9
126 5 9
127 5 9
127 4 9
128 4 9
128 4 9
129 4 9
130 4 9
130 4 9
131 4 9
131 4 9
132 4 9
133 4 9
133 4 9
134 4 9
134 4 9
135 4 9
136 4 9
136 4 9
137 4 9
137 4 9
138 4 9
138 4 9
139 4 9
140 4 9
140 4 9
141 4 9
141 4 9
142 4 9
143 4 9
143 4 9
144 4 9
144 4 9
145 4 9
146 4 9
146 4 9
147 4 9
147 4 9
148 4 9
149 4 9
149 4 9
150 4 9
150 4 9
151 4 9
152 4 9
152 4 9
153 4 9
153 4 9
154 3 9
155 3 9
155 3 9
156 3 9
156 3 9
157 3 9
158 3 9
158 3 9
159 3 9
159 3 9
160 3 9
160 3 9
161 3 9
162 3 9
162 3 9
163 3 9
163 3 9
164 3 9
165 3 9
165 3 9
166 3 9
166 3 9
167 3 9
168 3 9
168 3 9
169 3 9
169 3 9
170 3 9
171 3 9
171 3 9
172 3 9
172 3 9
173 3 9
174 3 9
174 3 9
175 3 9
175 3 9
176 3 9
177 3 9
177 3 9
178 3 9
178 3 9
179 3 9
179 3 9
180 2 9
181 2 9
181 2 9
182 2 9
182 2 9
183 2 9
184 2 9
184 2 9
185 2 9
185 2 9
186 2 9
187 2 9
187 2 9
188 2 9
188 2 9
189 2 9
190 2 9
190 2 9
191 2 9
191 2 9
192 2 9
193 2 9
193 2 9
194 2 9
194 2 9
195 2 9
196 2 9
196 2 9
197 2 9
197 2 9
198 2 9
198 2 9
199 2 9
200 2 9
200 2 9
201 2 9
201 2 9
202 2 9
203 2 9
203 2 9
204 2 9
204 2 9
205 2 9
206 2 9
206 2 9
207 1 9
207 1 9
208 1 9
209 1 9
209 1 9
210 1 9
210 1 9
211 1 9
212 1 9
212 1 9
213 1 9
213 1 9
214 1 9
215 1 9
215 1 9
216 1 9
216 1 9
217 1 9
218 1 9
218 1 9
219 1 9
219 1 9
220 1 9
220 1 9
221 1 9
222 1 9
222 1 9
223 1 9
223 1 9
224 1 9
225 1 9
225 1 9
226 1 9
226 1 9
227 1 9
228 1 9
228 1 9
229 1 9
229 1 9
230 1 9
231 1 9
231 1 9
232 1 9
232 1 9
233 0 9
234 0 9
234 0 9
235 0 9
235 0 9
236 0 9
237 0 9
237 0 9
238 0 9
238 0 9
239 0 9
239 0 9
240 0 9
241 0 9
241 0 9
242 0 9
242 0 9
243 0 9
244 0 9
244 0 9
245 0 9
245 0 9
246 0 9
8 8 8
8 8 8
9 8 8
9 8 8
10 8 8
11 8 8
11 8 8
12 8 8
12 8 8
13 8 8
14 7 8
14 7 8
15 7 8
15 7 8
16 7 8
17 7 8
17 7 8
18 7 8
18 7 8
19 7 8
20 7 8
20 7 8
21 7 8
22 7 8
22 7 8
23 7 8
23 7 8
24 7 8
25 7 8
25 7 8
26 7 8
26 7 8
27 7 8
28 7 8
28 7 8
29 7 8
29 7 8
30 7 8
31 7 8
31 7 8
32 7 8
32 7 8
33 7 8
34 7 8
34 7 8
35 7 8
35 7 8
36 7 8
37 7 8
37 7 8
38 7 8
38 7 8
39 7 8
40 7 8
40 7 8
41 7 8
41 7 8
42 7 8
43 7 8
43 7 8
44 7 8
44 7 8
45 6 8
46 6 8
46 6 8
47 6 8
47 6 8
48 6 8
49 6 8
49 6 8
50 6 8
50 6 8
51 6 8
52 6 8
52 6 8
53 6 8
53 6 8
54 6 8
55 6 8
55 6 8
56 6 8
56 6 8
57 6 8
58 6 8
58 6 8
59 6 8
59 6 8
60 6 8
61 6 8
61 6 8
62 6 8
62 6 8
63 6 8
64 6 8
64 6 8
65 6 8
65 6 8
66 6 8
67 6 8
67 6 8
68 6 8
68 6 8
69 6 8
70 6 8
70 6 8
71 6 8
71 6 8
72 6 8
73 6 8
73 6 8
74 6 8
74 6 8
75 6 8
76 6 8
76 5 8
77 5 8
77 5 8
78 5 8
79 5 8
79 5 8
80 5 8
80 5 8
81 5 8
82 5 8
82 5 8
83 5 8
83 5 8
84 5 8
85 5 8
85 5 8
86 5 8
86 5 8
87 5 8
88 5 8
88 5 8
89 5 8
89 5 8
90 5 8
91 5 8
91 5 8
92 5 8
92 5 8
93 5 8
94 5 8
94 5 8
95 5 8
95 5 8
96 5 8
97 5 8
97 5 8
98 5 8
98 5 8
99 5 8
100 5 8
100 5 8
101 5 8
101 5 8
102 5 8
103 5 8
103 5 8
104 5 8
104 5 8
105 5 8
106 5 8
106 5 8
107 5 8
107 4 8
108 4 8
109 4 8
109 4 8
110 4 8
110 4 8
111 4 8
112 4 8
112 4 8
113 4 8
113 4 8
114 4 8
115 4 8
115 4 8
116 4 8
116 4 8
117 4 8
118 4 8
118 4 8
119 4 8
119 4 8
120 4 8
121 4 8
121 4 8
122 4 8
122 4 8
123 4 8
124 4 8
124 4 8
125 4 8
125 4 8
126 4 8
127 4 8
127 4 8
128 4 8
128 4 8
129 4 8
130 4 8
130 4 8
131 4 8
131 4 8
132 4 8
133 4 8
133 4 8
134 4 8
134 4 8
135 4 8
136 4 8
136 4 8
137 4 8
137 4 8
138 4 8
139 3 8
139 3 8
140 3 8
140 3 8
141 3 8
142 3 8
142 3 8
143 3 8
143 3 8
144 3 8
145 3 8
145 3 8
146 3 8
146 3 8
147 3 8
148 3 8
148 3 8
149 3 8
149 3 8
150 3 8
151 3 8
151 3 8
152 3 8
152 3 8
153 3 8
154 3 8
154 3 8
155 3 8
155 3 8
156 3 8
157 3 8
157 3 8
158 3 8
158 3 8
159 3 8
160 3 8
160 3 8
161 3 8
161 3 8
162 3 8
163 3 8
163 3 8
164 3 8
164 3 8
165 3 8
166 3 8
166 3 8
167 3 8
167 3 8
168 3 8
169 3 8
169 3 8
170 2 8
170 2 8
171 2 8
172 2 8
172 2 8
173 2 8
173 2 8
174 2 8
175 2 8
175 2 8
176 2 8
176 2 8
177 2 8
178 2 8
178 2 8
179 2 8
179 2 8
180 2 8
181 2 8
181 2 8
182 2 8
182 2 8
183 2 8
184 2 8
184 2 8
185 2 8
185 2 8
186 2 8
187 2 8
187 2 8
188 2 8
188 2 8
189 2 8
190 2 8
190 2 8
191 2 8
191 2 8
192 2 8
193 2 8
193 2 8
194 2 8
194 2 8
195 2 8
196 2 8
196 2 8
197 2 8
197 2 8
198 2 8
199 2 8
199 2 8
200 2 8
200 2 8
201 1 8
202 1 8
202 1 8
203 1 8
203 1 8
204 1 8
205 1 8
205 1 8
206 1 8
206 1 8
207 1 8
208 1 8
208 1 8
209 1 8
209 1 8
210 1 8
211 1 8
211 1 8
212 1 8
212 1 8
213 1 8
214 1 8
214 1 8
215 1 8
215 1 8
216 1 8
217 1 8
217 1 8
218 1 8
218 1 8
219 1 8
220 1 8
220 1 8
221 1 8
221 1 8
222 1 8
223 1 8
223 1 8
224 1 8
224 1 8
225 1 8
226 1 8
226 1 8
227 1 8
227 1 8
228 1 8
229 1 8
229 1 8
230 1 8
230 1 8
231 1 8
232 1 8
232 0 8
233 0 8
233 0 8
234 0 8
235 0 8
235 0 8
236 0 8
237 0 8
237 0 8
238 0 8
238 0 8
239 0 8
240 0 8
240 0 8
241 0 8
241 0 8
242 0 8
243 0 8
243 0 8
244 0 8
244 0 8
245 0 8
246 0 8
246 0 8
247 0 8
247 0 8
6 6 6
7 6 6
8 6 6
8 6 6
9 6 6
9 6 6
10 6 6
11 6 6
11 6 6
12 6 6
12 6 6
13 6 6
14 6 6
14 6 6
15 6 6
16 6 6
16 6 6
17 6 6
17 6 6
18 6 6
19 6 6
19 6 6
20 6 6
20 6 6
21 6 6
22 6 6
22 6 6
23 6 6
23 6 6
24 6 6
25 6 6
25 6 6
26 6 6
26 6 6
27 6 6
28 6 6
28 6 6
29 6 6
29 6 6
30 6 6
31 6 6
31 6 6
32 6 6
33 6 6
33 6 6
34 6 6
34 6 6
35 6 6
36 6 6
36 6 6
37 6 6
37 6 6
38 6 6
39 6 6
39 6 6
40 6 6
40 6 6
41 5 6
42 5 6
42 5 6
43 5 6
43 5 6
44 5 6
45 5 6
45 5 6
46 5 6
46 5 6
47 5 6
48 5 6
48 5 6
49 5 6
50 5 6
50 5 6
51 5 6
51 5 6
52 5 6
53 5 6
53 5 6
54 5 6
54 5 6
55 5 6
56 5 6
56 5 6
57 5 6
57 5 6
58 5 6
59 5 6
59 5 6
60 5 6
60 5 6
61 5 6
62 5 6
62 5 6
63 5 6
63 5 6
64 5 6
65 5 6
65 5 6
66 5 6
66 5 6
67 5 6
68 5 6
68 5 6
69 5 6
70 5 6
70 5 6
71 5 6
71 5 6
72 5 6
73 5 6
73 5 6
74 5 6
74 5 6
75 5 6
76 5 6
76 5 6
77 5 6
77 5 6
78 5 6
79 4 6
79 4 6
80 4 6
80 4 6
81 4 6
82 4 6
82 4 6
83 4 6
83 4 6
84 4 6
85 4 6
85 4 6
86 4 6
87 4 6
87 4 6
88 4 6
88 4 6
89 4 6
90 4 6
90 4 6
91 4 6
91 4 6
92 4 6
93 4 6
93 4 6
94 4 6
94 4 6
95 4 6
96 4 6
96 4 6
97 4 6
97 4 6
98 4 6
99 4 6
99 4 6
100 4 6
100 4 6
101 4 6
102 4 6
102 4 6
103 4 6
104 4 6
104 4 6
105 4 6
105 4 6
106 4 6
107 4 6
107 4 6
108 4 6
108 4 6
109 4 6
110 4 6
110 4 6
111 4 6
111 4 6
112 4 6
113 4 6
113 4 6
114 4 6
114 4 6
115 4 6
116 4 6
116 4 6
117 3 6
117 3 6
118 3 6
119 3 6
119 3 6
120 3 6
121 3 6
121 3 6
122 3 6
122 3 6
123 3 6
124 3 6
124 3 6
125 3 6
125 3 6
126 3 6
127 3 6
127 3 6
128 3 6
128 3 6
129 3 6
130 3 6
130 3 6
131 3 6
131 3 6
132 3 6
133 3 6
133 3 6
134 3 6
134 3 6
135 3 6
136 3 6
136 3 6
137 3 6
138 3 6
138 3 6
139 3 6
139 3 6
140 3 6
141 3 6
141 3 6
142 3 6
142 3 6
143 3 6
144 3 6
144 3 6
145 3 6
145 3 6
146 3 6
147 3 6
147 3 6
148 3 6
148 3 6
149 3 6
150 3 6
150 3 6
151 3 6
151 3 6
152 3 6
153 3 6
153 3 6
154 3 6
155 2 6
155 2 6
156 2 6
156 2 6
157 2 6
158 2 6
158 2 6
159 2 6
159 2 6
160 2 6
161 2 6
161 2 6
162 2 6
162 2 6
163 2 6
164 2 6
164 2 6
165 2 6
165 2 6
166 2 6
167 2 6
167 2 6
168 2 6
168 2 6
169 2 6
170 2 6
170 2 6
171 2 6
172 2 6
172 2 6
173 2 6
173 2 6
174 2 6
175 2 6
175 2 6
176 2 6
176 2 6
177 2 6
178 2 6
178 2 6
179 2 6
179 2 6
180 2 6
181 2 6
181 2 6
182 2 6
182 2 6
183 2 6
184 2 6
184 2 6
185 2 6
185 2 6
186 2 6
187 2 6
187 2 6
188 2 6
189 2 6
189 2 6
190 2 6
190 2 6
191 2 6
192 2 6
192 1 6
193 1 6
193 1 6
194 1 6
195 1 6
195 1 6
196 1 6
196 1 6
197 1 6
198 1 6
198 1 6
199 1 6
199 1 6
200 1 6
201 1 6
201 1 6
202 1 6
202 1 6
203 1 6
204 1 6
204 1 6
205 1 6
205 1 6
206 1 6
207 1 6
207 1 6
208 1 6
209 1 6
209 1 6
210 1 6
210 1 6
211 1 6
212 1 6
212 1 6
213 1 6
213 1 6
214 1 6
215 1 6
215 1 6
216 1 6
216 1 6
217 1 6
218 1 6
218 1 6
219 1 6
219 1 6
220 1 6
221 1 6
221 1 6
222 1 6
222 1 6
223 1 6
224 1 6
224 1 6
225 1 6
226 1 6
226 1 6
227 1 6
227 1 6
228 1 6
229 1 6
229 1 6
230 0 6
230 0 6
231 0 6
232 0 6
232 0 6
233 0 6
233 0 6
234 0 6
235 0 6
235 0 6
236 0 6
236 0 6
237 0 6
238 0 6
238 0 6
239 0 6
239 0 6
240 0 6
241 0 6
241 0 6
242 0 6
243 0 6
243 0 6
244 0 6
244 0 6
245 0 6
246 0 6
246 0 6
247 0 6
247 0 6
248 0 6
249 0 6
5 5 5
6 5 5
6 5 5
7 5 5
8 5 5
8 5 5
9 5 5
9 5 5
10 5 5
11 5 5
11 5 5
12 5 5
12 5 5
13 5 5
14 5 5
14 5 5
15 5 5
16 5 5
16 5 5
17 5 5
17 5 5
18 5 5
19 5 5
19 5 5
20 5 5
20 5 5
21 5 5
22 5 5
22 5 5
23 5 5
24 5 5
24 5 5
25 5 5
25 5 5
26 5 5
27 5 5
27 5 5
28 5 5
28 5 5
29 5 5
30 5 5
30 5 5
31 5 5
32 5 5
32 5 5
33 5 5
33 5 5
34 5 5
35 5 5
35 4 5
36 4 5
36 4 5
37 4 5
38 4 5
38 4 5
39 4 5
39 4 5
40 4 5
41 4 5
41 4 5
42 4 5
43 4 5
43 4 5
44 4 5
44 4 5
45 4 5
46 4 5
46 4 5
47 4 5
47 4 5
48 4 5
49 4 5
49 4 5
50 4 5
51 4 5
51 4 5
52 4 5
52 4 5
53 4 5
54 4 5
54 4 5
55 4 5
55 4 5
56 4 5
57 4 5
57 4 5
58 4 5
58 4 5
59 4 5
60 4 5
60 4 5
61 4 5
62 4 5
62 4 5
63 4 5
63 4 5
64 4 5
65 4 5
65 4 5
66 4 5
66 4 5
67 4 5
68 4 5
68 4 5
69 4 5
70 4 5
70 4 5
71 4 5
71 4 5
72 4 5
73 4 5
73 4 5
74 4 5
74 4 5
75 4 5
76 4 5
76 4 5
77 4 5
78 4 5
78 4 5
79 4 5
79 4 5
80 4 5
81 4 5
81 4 5
82 4 5
82 4 5
83 3 5
84 3 5
84 3 5
85 3 5
85 3 5
86 3 5
87 3 5
87 3 5
88 3 5
89 3 5
89 3 5
90 3 5
90 3 5
91 3 5
92 3 5
92 3 5
93 3 5
93 3 5
94 3 5
95 3 5
95 3 5
96 3 5
97 3 5
97 3 5
98 3 5
98 3 5
99 3 5
100 3 5
100 3 5
101 3 5
101 3 5
102 3 5
103 3 5
103 3 5
104 3 5
104 3 5
105 3 5
106 3 5
106 3 5
107 3 5
108 3 5
108 3 5
109 3 5
109 3 5
110 3 5
111 3 5
111 3 5
112 3 5
112 3 5
113 3 5
114 3 5
114 3 5
115 3 5
116 3 5
116 3 5
117 3 5
117 3 5
118 3 5
119 3 5
119 3 5
120 3 5
120 3 5
121 3 5
122 3 5
122 3 5
123 3 5
124 3 5
124 3 5
125 3 5
125 3 5
126 3 5
127 3 5
127 3 5
128 3 5
128 3 5
129 3 5
130 3 5
130 3 5
131 2 5
131 2 5
132 2 5
133 2 5
133 2 5
134 2 5
135 2 5
135 2 5
136 2 5
136 2 5
137 2 5
138 2 5
138 2 5
139 2 5
139 2 5
140 2 5
141 2 5
141 2 5
142 2 5
143 2 5
143 2 5
144 2 5
144 2 5
145 2 5
146 2 5
146 2 5
147 2 5
147 2 5
148 2 5
149 2 5
149 2 5
150 2 5
151 2 5
151 2 5
152 2 5
152 2 5
153 2 5
154 2 5
154 2 5
155 2 5
155 2 5
156 2 5
157 2 5
157 2 5
158 2 5
158 2 5
159 2 5
160 2 5
160 2 5
161 2 5
162 2 5
162 2 5
163 2 5
163 2 5
164 2 5
165 2 5
165 2 5
166 2 5
166 2 5
167 2 5
168 2 5
168 2 5
169 2 5
170 2 5
170 2 5
171 2 5
171 2 5
172 2 5
173 2 5
173 2 5
174 2 5
174 2 5
175 2 5
176 2 5
176 2 5
177 2 5
177 2 5
178 2 5
179 1 5
179 1 5
180 1 5
181 1 5
181 1 5
182 1 5
182 1 5
183 1 5
184 1 5
184 1 5
185 1 5
185 1 5
186 1 5
187 1 5
187 1 5
188 1 5
189 1 5
189 1 5
190 1 5
190 1 5
191 1 5
192 1 5
192 1 5
193 1 5
193 1 5
194 1 5
195 1 5
195 1 5
196 1 5
197 1 5
197 1 5
198 1 5
198 1 5
199 1 5
200 1 5
200 1 5
201 1 5
201 1 5
202 1 5
203 1 5
203 1 5
204 1 5
204 1 5
205 1 5
206 1 5
206 1 5
207 1 5
208 1 5
208 1 5
209 1 5
209 1 5
210 1 5
211 1 5
211 1 5
212 1 5
212 1 5
213 1 5
214 1 5
214 1 5
215 1 5
216 1 5
216 1 5
217 1 5
217 1 5
218 1 5
219 1 5
219 1 5
220 1 5
220 1 5
221 1 5
222 1 5
222 1 5
223 1 5
223 1 5
224 1 5
225 1 5
225 1 5
226 1 5
227 0 5
227 0 5
228 0 5
228 0 5
229 0 5
230 0 5
230 0 5
231 0 5
231 0 5
232 0 5
233 0 5
233 0 5
234 0 5
235 0 5
235 0 5
236 0 5
236 0 5
237 0 5
238 0 5
238 0 5
239 0 5
239 0 5
240 0 5
241 0 5
241 0 5
242 0 5
243 0 5
243 0 5
244 0 5
244 0 5
245 0 5
246 0 5
246 0 5
247 0 5
247 0 5
248 0 5
249 0 5
249 0 5
250 0 5
4 4 4
4 4 4
5 4 4
6 4 4
6 4 4
7 4 4
8 4 4
8 4 4
9 4 4
9 4 4
10 4 4
11 4 4
11 4 4
12 4 4
13 4 4
13 4 4
14 4 4
14 4 4
15 4 4
16 4 4
16 4 4
17 4 4
17 4 4
18 4 4
19 4 4
19 4 4
20 4 4
21 4 4
21 4 4
22 4 4
22 4 4
23 4 4
24 4 4
24 4 4
25 4 4
26 4 4
26 3 4
27 3 4
27 3 4
28 3 4
29 3 4
29 3 4
30 3 4
30 3 4
31 3 4
32 3 4
32 3 4
33 3 4
34 3 4
34 3 4
35 3 4
35 3 4
36 3 4
37 3 4
37 3 4
38 3 4
39 3 4
39 3 4
40 3 4
40 3 4
41 3 4
42 3 4
42 3 4
43 3 4
44 3 4
44 3 4
45 3 4
45 3 4
46 3 4
47 3 4
47 3 4
48 3 4
48 3 4
49 3 4
50 3 4
50 3 4
51 3 4
52 3 4
52 3 4
53 3 4
53 3 4
54 3 4
55 3 4
55 3 4
56 3 4
57 3 4
57 3 4
58 3 4
58 3 4
59 3 4
60 3 4
60 3 4
61 3 4
61 3 4
62 3 4
63 3 4
63 3 4
64 3 4
65 3 4
65 3 4
66 3 4
66 3 4
67 3 4
68 3 4
68 3 4
69 3 4
70 3 4
70 3 4
71 3 4
71 3 4
72 3 4
73 3 4
73 3 4
74 3 4
75 3 4
75 3 4
76 3 4
76 3 4
77 3 4
78 3 4
78 3 4
79 3 4
79 3 4
80 3 4
81 3 4
81 3 4
82 3 4
83 3 4
83 3 4
84 3 4
84 3 4
85 3 4
86 3 4
86 3 4
87 3 4
88 3 4
88 3 4
89 3 4
89 3 4
90 3 4
91 2 4
91 2 4
92 2 4
92 2 4
93 2 4
94 2 4
94 2 4
95 2 4
96 2 4
96 2 4
97 2 4
97 2 4
98 2 4
99 2 4
99 2 4
100 2 4
101 2 4
101 2 4
102 2 4
102 2 4
103 2 4
104 2 4
104 2 4
105 2 4
105 2 4
106 2 4
107 2 4
107 2 4
108 2 4
109 2 4
109 2 4
110 2 4
110 2 4
111 2 4
112 2 4
112 2 4
113 2 4
114 2 4
114 2 4
115 2 4
115 2 4
116 2 4
117 2 4
117 2 4
118 2 4
119 2 4
119 2 4
120 2 4
120 2 4
121 2 4
122 2 4
122 2 4
123 2 4
123 2 4
124 2 4
125 2 4
125 2 4
126 2 4
127 2 4
127 2 4
128 2 4
128 2 4
129 2 4
130 2 4
130 2 4
131 2 4
132 2 4
132 2 4
133 2 4
133 2 4
134 2 4
135 2 4
135 2 4
136 2 4
136 2 4
137 2 4
138 2 4
138 2 4
139 2 4
140 2 4
140 2 4
141 2 4
141 2 4
142 2 4
143 2 4
143 2 4
144 2 4
145 2 4
145 2 4
146 2 4
146 2 4
147 2 4
148 2 4
148 2 4
149 2 4
150 2 4
150 2 4
151 2 4
151 2 4
152 2 4
153 2 4
153 2 4
154 2 4
154 2 4
155 1 4
156 1 4
156 1 4
157 1 4
158 1 4
158 1 4
159 1 4
159 1 4
160 1 4
161 1 4
161 1 4
162 1 4
163 1 4
163 1 4
164 1 4
164 1 4
165 1 4
166 1 4
166 1 4
167 1 4
167 1 4
168 1 4
169 1 4
169 1 4
170 1 4
171 1 4
171 1 4
172 1 4
172 1 4
173 1 4
174 1 4
174 1 4
175 1 4
176 1 4
176 1 4
177 1 4
177 1 4
178 1 4
179 1 4
179 1 4
180 1 4
180 1 4
181 1 4
182 1 4
182 1 4
183 1 4
184 1 4
184 1 4
185 1 4
185 1 4
186 1 4
187 1 4
187 1 4
188 1 4
189 1 4
189 1 4
190 1 4
190 1 4
191 1 4
192 1 4
192 1 4
193 1 4
194 1 4
194 1 4
195 1 4
195 1 4
196 1 4
197 1 4
197 1 4
198 1 4
198 1 4
199 1 4
200 1 4
200 1 4
201 1 4
202 1 4
202 1 4
203 1 4
203 1 4
204 1 4
205 1 4
205 1 4
206 1 4
207 1 4
207 1 4
208 1 4
208 1 4
209 1 4
210 1 4
210 1 4
211 1 4
211 1 4
212 1 4
213 1 4
213 1 4
214 1 4
215 1 4
215 1 4
216 1 4
216 1 4
217 1 4
218 1 4
218 1 4
219 1 4
220 0 4
220 0 4
221 0 4
221 0 4
222 0 4
223 0 4
223 0 4
224 0 4
225 0 4
225 0 4
226 0 4
226 0 4
227 0 4
228 0 4
228 0 4
229 0 4
229 0 4
230 0 4
231 0 4
231 0 4
232 0 4
233 0 4
233 0 4
234 0 4
234 0 4
235 0 4
236 0 4
236 0 4
237 0 4
238 0 4
238 0 4
239 0 4
239 0 4
240 0 4
241 0 4
241 0 4
242 0 4
242 0 4
243 0 4
244 0 4
244 0 4
245 0 4
246 0 4
246 0 4
247 0 4
247 0 4
248 0 4
249 0 4
249 0 4
250 0 4
251 0 4
251 0 4
3 3 3
3 3 3
4 3 3
4 3 3
5 3 3
6 3 3
6 3 3
7 3 3
8 3 3
8 3 3
9 2 3
9 2 3
10 2 3
11 2 3
11 2 3
12 2 3
13 2 3
13 2 3
14 2 3
14 2 3
15 2 3
16 2 3
16 2 3
17 2 3
18 2 3
18 2 3
19 2 3
19 2 3
20 2 3
21 2 3
21 2 3
22 2 3
23 2 3
23 2 3
24 2 3
24 2 3
25 2 3
26 2 3
26 2 3
27 2 3
28 2 3
28 2 3
29 2 3
29 2 3
30 2 3
31 2 3
31 2 3
32 2 3
33 2 3
33 2 3
34 2 3
35 2 3
35 2 3
36 2 3
36 2 3
37 2 3
38 2 3
38 2 3
39 2 3
40 2 3
40 2 3
41 2 3
41 2 3
42 2 3
43 2 3
43 2 3
44 2 3
45 2 3
45 2 3
46 2 3
46 2 3
47 2 3
48 2 3
48 2 3
49 2 3
50 2 3
50 2 3
51 2 3
51 2 3
52 2 3
53 2 3
53 2 3
54 2 3
55 2 3
55 2 3
56 2 3
56 2 3
57 2 3
58 2 3
58 2 3
59 2 3
60 2 3
60 2 3
61 2 3
61 2 3
62 2 3
63 2 3
63 2 3
64 2 3
65 2 3
65 2 3
66 2 3
66 2 3
67 2 3
68 2 3
68 2 3
69 2 3
70 2 3
70 2 3
71 2 3
71 2 3
72 2 3
73 2 3
73 2 3
74 2 3
75 2 3
75 2 3
76 2 3
76 2 3
77 2 3
78 2 3
78 2 3
79 2 3
80 2 3
80 2 3
81 2 3
81 2 3
82 2 3
83 2 3
83 2 3
84 2 3
85 2 3
85 2 3
86 2 3
86 2 3
87 2 3
88 2 3
88 2 3
89 2 3
90 2 3
90 2 3
91 2 3
91 2 3
92 2 3
93 2 3
93 2 3
94 2 3
95 2 3
95 2 3
96 2 3
97 2 3
97 2 3
98 2 3
98 2 3
99 2 3
100 2 3
100 2 3
101 2 3
102 2 3
102 2 3
103 2 3
103 2 3
104 2 3
105 2 3
105 2 3
106 2 3
107 1 3
107 1 3
108 1 3
108 1 3
109 1 3
110 1 3
110 1 3
111 1 3
112 1 3
112 1 3
113 1 3
113 1 3
114 1 3
115 1 3
115 1 3
116 1 3
117 1 3
117 1 3
118 1 3
118 1 3
119 1 3
120 1 3
120 1 3
121 1 3
122 1 3
122 1 3
123 1 3
123 1 3
124 1 3
125 1 3
125 1 3
126 1 3
127 1 3
127 1 3
128 1 3
128 1 3
129 1 3
130 1 3
130 1 3
131 1 3
132 1 3
132 1 3
133 1 3
133 1 3
134 1 3
135 1 3
135 1 3
136 1 3
137 1 3
137 1 3
138 1 3
138 1 3
139 1 3
140 1 3
140 1 3
141 1 3
142 1 3
142 1 3
143 1 3
143 1 3
144 1 3
145 1 3
145 1 3
146 1 3
147 1 3
147 1 3
148 1 3
148 1 3
149 1 3
150 1 3
150 1 3
151 1 3
152 1 3
152 1 3
153 1 3
153 1 3
154 1 3
155 1 3
155 1 3
156 1 3
157 1 3
157 1 3
158 1 3
158 1 3
159 1 3
160 1 3
160 1 3
161 1 3
162 1 3
162 1 3
163 1 3
164 1 3
164 1 3
165 1 3
165 1 3
166 1 3
167 1 3
167 1 3
168 1 3
169 1 3
169 1 3
170 1 3
170 1 3
171 1 3
172 1 3
172 1 3
173 1 3
174 1 3
174 1 3
175 1 3
175 1 3
176 1 3
177 1 3
177 1 3
178 1 3
179 1 3
179 1 3
180 1 3
180 1 3
181 1 3
182 1 3
182 1 3
183 1 3
184 1 3
184 1 3
185 1 3
185 1 3
186 1 3
187 1 3
187 1 3
188 1 3
189 1 3
189 1 3
190 1 3
190 1 3
191 1 3
192 1 3
192 1 3
193 1 3
194 1 3
194 1 3
195 1 3
195 1 3
196 1 3
197 1 3
197 1 3
198 1 3
199 1 3
199 1 3
200 1 3
200 1 3
201 1 3
202 1 3
202 1 3
203 1 3
204 1 3
204 0 3
205 0 3
205 0 3
206 0 3
207 0 3
207 0 3
208 0 3
209 0 3
209 0 3
210 0 3
210 0 3
211 0 3
212 0 3
212 0 3
213 0 3
214 0 3
214 0 3
215 0 3
215 0 3
216 0 3
217 0 3
217 0 3
218 0 3
219 0 3
219 0 3
220 0 3
220 0 3
221 0 3
222 0 3
222 0 3
223 0 3
224 0 3
224 0 3
225 0 3
226 0 3
226 0 3
227 0 3
227 0 3
228 0 3
229 0 3
229 0 3
230 0 3
231 0 3
231 0 3
232 0 3
232 0 3
233 0 3
234 0 3
234 0 3
235 0 3
236 0 3
236 0 3
237 0 3
237 0 3
238 0 3
239 0 3
239 0 3
240 0 3
241 0 3
241 0 3
242 0 3
242 0 3
243 0 3
244 0 3
244 0 3
245 0 3
246 0 3
246 0 3
247 0 3
247 0 3
248 0 3
249 0 3
249 0 3
250 0 3
251 0 3
251 0 3
252 0 3
252 0 3
1 1 1
2 1 1
3 1 1
3 1 1
4 1 1
4 1 1
5 1 1
6 1 1
6 1 1
7 1 1
8 1 1
8 1 1
9 1 1
10 1 1
10 1 1
11 1 1
11 1 1
12 1 1
13 1 1
13 1 1
14 1 1
15 1 1
15 1 1
16 1 1
16 1 1
17 1 1
18 1 1
18 1 1
19 1 1
20 1 1
20 1 1
21 1 1
22 1 1
22 1 1
23 1 1
23 1 1
24 1 1
25 1 1
25 1 1
26 1 1
27 1 1
27 1 1
28 1 1
28 1 1
29 1 1
30 1 1
30 1 1
31 1 1
32 1 1
32 1 1
33 1 1
34 1 1
34 1 1
35 1 1
35 1 1
36 1 1
37 1 1
37 1 1
38 1 1
39 1 1
39 1 1
40 1 1
41 1 1
41 1 1
42 1 1
42 1 1
43 1 1
44 1 1
44 1 1
45 1 1
46 1 1
46 1 1
47 1 1
47 1 1
48 1 1
49 1 1
49 1 1
50 1 1
51 1 1
51 1 1
52 1 1
53 1 1
53 1 1
54 1 1
54 1 1
55 1 1
56 1 1
56 1 1
57 1 1
58 1 1
58 1 1
59 1 1
59 1 1
60 1 1
61 1 1
61 1 1
62 1 1
63 1 1
63 1 1
64 1 1
65 1 1
65 1 1
66 1 1
66 1 1
67 1 1
68 1 1
68 1 1
69 1 1
70 1 1
70 1 1
71 1 1
72 1 1
72 1 1
73 1 1
73 1 1
74 1 1
75 1 1
75 1 1
76 1 1
77 1 1
77 1 1
78 1 1
78 1 1
79 1 1
80 1 1
80 1 1
81 1 1
82 1 1
82 1 1
83 1 1
84 1 1
84 1 1
85 1 1
85 1 1
86 1 1
87 1 1
87 1 1
88 1 1
89 1 1
89 1 1
90 1 1
90 1 1
91 1 1
92 1 1
92 1 1
93 1 1
94 1 1
94 1 1
95 1 1
96 1 1
96 1 1
97 1 1
97 1 1
98 1 1
99 1 1
99 1 1
100 1 1
101 1 1
101 1 1
102 1 1
103 1 1
103 1 1
104 1 1
104 1 1
105 1 1
106 1 1
106 1 1
107 1 1
108 1 1
108 1 1
109 1 1
109 1 1
110 1 1
111 1 1
111 1 1
112 1 1
113 1 1
113 1 1
114 1 1
115 1 1
115 1 1
116 1 1
116 1 1
117 1 1
118 1 1
118 1 1
119 1 1
120 1 1
120 1 1
121 1 1
121 1 1
122 1 1
123 1 1
123 1 1
124 1 1
125 1 1
125 1 1
126 1 1
127 1 1
127 1 1
128 1 1
128 1 1
129 1 1
130 1 1
130 1 1
131 1 1
132 1 1
132 1 1
133 1 1
134 1 1
134 1 1
135 1 1
135 1 1
136 1 1
137 1 1
137 1 1
138 1 1
139 1 1
139 1 1
140 1 1
140 1 1
141 1 1
142 1 1
142 1 1
143 1 1
144 1 1
144 1 1
145 1 1
146 1 1
146 1 1
147 1 1
147 1 1
148 1 1
149 1 1
149 1 1
150 1 1
151 1 1
151 1 1
152 1 1
152 1 1
153 1 1
154 1 1
154 1 1
155 1 1
156 0 1
156 0 1
157 0 1
158 0 1
158 0 1
159 0 1
159 0 1
160 0 1
161 0 1
161 0 1
162 0 1
163 0 1
163 0 1
164 0 1
165 0 1
165 0 1
166 0 1
166 0 1
167 0 1
168 0 1
168 0 1
169 0 1
170 0 1
170 0 1
171 0 1
171 0 1
172 0 1
173 0 1
173 0 1
174 0 1
175 0 1
175 0 1
176 0 1
177 0 1
177 0 1
178 0 1
178 0 1
179 0 1
180 0 1
180 0 1
181 0 1
182 0 1
182 0 1
183 0 1
183 0 1
184 0 1
185 0 1
185 0 1
186 0 1
187 0 1
187 0 1
188 0 1
189 0 1
189 0 1
190 0 1
190 0 1
191 0 1
192 0 1
192 0 1
193 0 1
194 0 1
194 0 1
195 0 1
196 0 1
196 0 1
197 0 1
197 0 1
198 0 1
199 0 1
199 0 1
200 0 1
201 0 1
201 0 1
202 0 1
202 0 1
203 0 1
204 0 1
204 0 1
205 0 1
206 0 1
206 0 1
207 0 1
208 0 1
208 0 1
209 0 1
209 0 1
210 0 1
211 0 1
211 0 1
212 0 1
213 0 1
213 0 1
214 0 1
214 0 1
215 0 1
216 0 1
216 0 1
217 0 1
218 0 1
218 0 1
219 0 1
220 0 1
220 0 1
221 0 1
221 0 1
222 0 1
223 0 1
223 0 1
224 0 1
225 0 1
225 0 1
226 0 1
227 0 1
227 0 1
228 0 1
228 0 1
229 0 1
230 0 1
230 0 1
231 0 1
232 0 1
232 0 1
233 0 1
233 0 1
234 0 1
235 0 1
235 0 1
236 0 1
237 0 1
237 0 1
238 0 1
239 0 1
239 0 1
240 0 1
240 0 1
241 0 1
242 0 1
242 0 1
243 0 1
244 0 1
244 0 1
245 0 1
245 0 1
246 0 1
247 0 1
247 0 1
248 0 1
249 0 1
249 0 1
250 0 1
251 0 1
251 0 1
252 0 1
252 0 1
253 0 1
254 0 1
0 0 0
1 0 0
1 0 0
2 0 0
3 0 0
3 0 0
4 0 0
4 0 0
5 0 0
6 0 0
6 0 0
7 0 0
8 0 0
8 0 0
9 0 0
10 0 0
10 0 0
11 0 0
12 0 0
12 0 0
13 0 0
13 0 0
14 0 0
15 0 0
15 0 0
16 0 0
17 0 0
17 0 0
18 0 0
19 0 0
19 0 0
20 0 0
20 0 0
21 0 0
22 0 0
22 0 0
23 0 0
24 0 0
24 0 0
25 0 0
26 0 0
26 0 0
27 0 0
27 0 0
28 0 0
29 0 0
29 0 0
30 0 0
31 0 0
31 0 0
32 0 0
33 0 0
33 0 0
34 0 0
35 0 0
35 0 0
36 0 0
36 0 0
37 0 0
38 0 0
38 0 0
39 0 0
40 0 0
40 0 0
41 0 0
42 0 0
42 0 0
43 0 0
43 0 0
44 0 0
45 0 0
45 0 0
46 0 0
47 0 0
47 0 0
48 0 0
49 0 0
49 0 0
50 0 0
50 0 0
51 0 0
52 0 0
52 0 0
53 0 0
54 0 0
54 0 0
55 0 0
56 0 0
56 0 0
57 0 0
58 0 0
58 0 0
59 0 0
59 0 0
60 0 0
61 0 0
61 0 0
62 0 0
63 0 0
63 0 0
64 0 0
65 0 0
65 0 0
66 0 0
66 0 0
67 0 0
68 0 0
68 0 0
69 0 0
70 0 0
70 0 0
71 0 0
72 0 0
72 0 0
73 0 0
73 0 0
74 0 0
75 0 0
75 0 0
76 0 0
77 0 0
77 0 0
78 0 0
79 0 0
79 0 0
80 0 0
81 0 0
81 0 0
82 0 0
82 0 0
83 0 0
84 0 0
84 0 0
85 0 0
86 0 0
86 0 0
87 0 0
88 0 0
88 0 0
89 0 0
89 0 0
90 0 0
91 0 0
91 0 0
92 0 0
93 0 0
93 0 0
94 0 0
95 0 0
95 0 0
96 0 0
97 0 0
97 0 0
98 0 0
98 0 0
99 0 0
100 0 0
100 0 0
101 0 0
102 0 0
102 0 0
103 0 0
104 0 0
104 0 0
105 0 0
105 0 0
106 0 0
107 0 0
107 0 0
108 0 0
109 0 0
109 0 0
110 0 0
111 0 0
111 0 0
112 0 0
112 0 0
113 0 0
114 0 0
114 0 0
115 0 0
116 0 0
116 0 0
117 0 0
118 0 0
118 0 0
119 0 0
120 0 0
120 0 0
121 0 0
121 0 0
122 0 0
123 0 0
123 0 0
124 0 0
125 0 0
125 0 0
126 0 0
127 0 0
127 0 0
128 0 0
128 0 0
129 0 0
130 0 0
130 0 0
131 0 0
132 0 0
132 0 0
133 0 0
134 0 0
134 0 0
135 0 0
135 0 0
136 0 0
137 0 0
137 0 0
138 0 0
139 0 0
139 0 0
140 0 0
141 0 0
141 0 0
142 0 0
143 0 0
143 0 0
144 0 0
144 0 0
145 0 0
146 0 0
146 0 0
147 0 0
148 0 0
148 0 0
149 0 0
150 0 0
150 0 0
151 0 0
151 0 0
152 0 0
153 0 0
153 0 0
154 0 0
155 0 0
155 0 0
156 0 0
157 0 0
157 0 0
158 0 0
158 0 0
159 0 0
160 0 0
160 0 0
161 0 0
162 0 0
162 0 0
163 0 0
164 0 0
164 0 0
165 0 0
166 0 0
166 0 0
167 0 0
167 0 0
168 0 0
169 0 0
169 0 0
170 0 0
171 0 0
171 0 0
172 0 0
173 0 0
173 0 0
174 0 0
174 0 0
175 0 0
176 0 0
176 0 0
177 0 0
178 0 0
178 0 0
179 0 0
180 0 0
180 0 0
181 0 0
182 0 0
182 0 0
183 0 0
183 0 0
184 0 0
185 0 0
185 0 0
186 0 0
187 0 0
187 0 0
188 0 0
189 0 0
189 0 0
190 0 0
190 0 0
191 0 0
192 0 0
192 0 0
193 0 0
194 0 0
194 0 0
195 0 0
196 0 0
196 0 0
197 0 0
197 0 0
198 0 0
199 0 0
199 0 0
200 0 0
201 0 0
201 0 0
202 0 0
203 0 0
203 0 0
204 0 0
205 0 0
205 0 0
206 0 0
206 0 0
207 0 0
208 0 0
208 0 0
209 0 0
210 0 0
210 0 0
211 0 0
212 0 0
212 0 0
213 0 0
213 0 0
214 0 0
215 0 0
215 0 0
216 0 0
217 0 0
217 0 0
218 0 0
219 0 0
219 0 0
220 0 0
220 0 0
221 0 0
222 0 0
222 0 0
223 0 0
224 0 0
224 0 0
225 0 0
226 0 0
226 0 0
227 0 0
228 0 0
228 0 0
229 0 0
229 0 0
230 0 0
231 0 0
231 0 0
232 0 0
233 0 0
233 0 0
234 0 0
235 0 0
235 0 0
236 0 0
236 0 0
237 0 0
238 0 0
238 0 0
239 0 0
240 0 0
240 0 0
241 0 0
242 0 0
242 0 0
243 0 0
243 0 0
244 0 0
245 0 0
245 0 0
246 0 0
247 0 0
247 0 0
248 0 0
249 0 0
249 0 0
250 0 0
251 0 0
251 0 0
252 0 0
252 0 0
253 0 0
254 0 0
254 0 0
255 0 0
